;FLAVOR:Marlin
;TIME:3330
;Filament used: 1.57686m
;Layer height: 0.2
;MINX:111.581
;MINY:64.367
;MINZ:0.2
;MAXX:143.419
;MAXY:94.123
;MAXZ:30
;Generated with Cura_SteamEngine master
M140 S50
M105
M190 S50
M104 S190
M105
M109 S190
M82 ;absolute extrusion mode
M220 S100 ;reset feedrate
M221 S100 ;reset flowrate
G90 ;use absolute coordinates
M82 ;absolute extrusion mode
G28 ;home
G1 Z2 F1500 ;raise z
G92 E0 ;reset extruder

G1 X75 Y5 F5000 ;start position
G1 Z0.28 F1500 ;lower z
G1 E4 F500 ;prime the filament
G1 X180 E10 F500 ;1st line
G1 Y5.4 F5000
G1 X75 E20 F500 ;2nd line
G1 Z2 F1500 ;raise z
G92 E0 ;reset extruder
G92 E0
G92 E0
G1 F1500 E-6.5
;LAYER_COUNT:150
;LAYER:0
M107
G0 F6000 X116.609 Y68.35 Z0.2
;TYPE:SKIRT
G1 F1500 E0
G1 F600 X117.036 Y67.689 E0.03272
G1 X117.529 Y67.075 E0.06545
G1 X118.081 Y66.514 E0.09818
G1 X118.687 Y66.012 E0.13089
G1 X119.456 Y65.506 E0.16916
G1 X119.642 Y65.399 E0.17808
G1 X120.344 Y65.042 E0.21083
G1 X121.078 Y64.758 E0.24355
G1 X121.837 Y64.549 E0.27628
G1 X122.613 Y64.419 E0.30899
G1 X123.507 Y64.367 E0.34622
G1 X131.493 Y64.367 E0.67824
G1 X132.279 Y64.407 E0.71096
G1 X133.057 Y64.526 E0.74368
G1 X133.819 Y64.724 E0.77641
G1 X134.557 Y64.998 E0.80914
G1 X135.358 Y65.399 E0.84639
G1 X135.544 Y65.506 E0.85531
G1 X136.205 Y65.933 E0.88802
G1 X136.82 Y66.424 E0.92074
G1 X137.382 Y66.976 E0.95349
G1 X137.885 Y67.581 E0.9862
G1 X138.391 Y68.35 E1.02447
G1 X142.381 Y75.263 E1.35632
G1 X142.74 Y75.964 E1.38906
G1 X143.025 Y76.697 E1.42176
G1 X143.235 Y77.456 E1.4545
G1 X143.366 Y78.232 E1.48722
G1 X143.419 Y79.137 E1.52491
G1 X143.419 Y79.353 E1.53389
G1 X143.379 Y80.139 E1.56661
G1 X143.26 Y80.917 E1.59933
G1 X143.062 Y81.679 E1.63207
G1 X142.788 Y82.417 E1.66479
G1 X142.381 Y83.227 E1.70248
G1 X138.391 Y90.14 E2.03433
G1 X137.964 Y90.801 E2.06705
G1 X137.471 Y91.415 E2.09978
G1 X136.919 Y91.976 E2.1325
G1 X136.313 Y92.478 E2.16522
G1 X135.544 Y92.984 E2.20349
G1 X135.358 Y93.091 E2.21241
G1 X134.656 Y93.448 E2.24516
G1 X133.922 Y93.732 E2.27788
G1 X133.163 Y93.941 E2.31061
G1 X132.387 Y94.071 E2.34332
G1 X131.493 Y94.123 E2.38055
G1 X123.507 Y94.123 E2.71257
G1 X122.721 Y94.083 E2.74529
G1 X121.943 Y93.964 E2.77801
G1 X121.181 Y93.766 E2.81074
G1 X120.443 Y93.492 E2.84347
G1 X119.642 Y93.091 E2.88071
G1 X119.456 Y92.984 E2.88964
G1 X118.795 Y92.557 E2.92235
G1 X118.18 Y92.066 E2.95507
G1 X117.618 Y91.514 E2.98782
G1 X117.115 Y90.909 E3.02053
G1 X116.609 Y90.14 E3.0588
G1 X112.619 Y83.227 E3.39065
G1 X112.26 Y82.526 E3.42339
G1 X111.975 Y81.793 E3.45609
G1 X111.765 Y81.034 E3.48883
G1 X111.634 Y80.258 E3.52155
G1 X111.581 Y79.353 E3.55924
G1 X111.581 Y79.137 E3.56822
G1 X111.621 Y78.351 E3.60094
G1 X111.74 Y77.573 E3.63366
G1 X111.938 Y76.811 E3.66639
G1 X112.212 Y76.073 E3.69912
G1 X112.619 Y75.263 E3.73681
G1 X116.609 Y68.35 E4.06866
G0 F6000 X117.042 Y68.6
G1 F600 X117.456 Y67.961 E4.10031
G1 X117.936 Y67.37 E4.13197
G1 X118.475 Y66.832 E4.16363
G1 X119.067 Y66.353 E4.19529
G1 X119.706 Y65.94 E4.22692
G1 X119.892 Y65.833 E4.23584
G1 X120.571 Y65.488 E4.26751
G1 X121.282 Y65.217 E4.29914
G1 X122.018 Y65.022 E4.3308
G1 X122.77 Y64.905 E4.36244
G1 X123.507 Y64.867 E4.39312
G1 X131.493 Y64.867 E4.72514
G1 X132.253 Y64.907 E4.75678
G1 X133.005 Y65.026 E4.78843
G1 X133.74 Y65.224 E4.82008
G1 X134.451 Y65.498 E4.85176
G1 X135.108 Y65.833 E4.88242
G1 X135.294 Y65.94 E4.89134
G1 X135.933 Y66.353 E4.92297
G1 X136.525 Y66.832 E4.95463
G1 X137.064 Y67.37 E4.98629
G1 X137.543 Y67.961 E5.01792
G1 X137.958 Y68.6 E5.0496
G1 X141.948 Y75.513 E5.38145
G1 X142.294 Y76.191 E5.41309
G1 X142.566 Y76.902 E5.44474
G1 X142.762 Y77.638 E5.47641
G1 X142.88 Y78.39 E5.50805
G1 X142.919 Y79.137 E5.53915
G1 X142.919 Y79.353 E5.54813
G1 X142.879 Y80.113 E5.57977
G1 X142.76 Y80.865 E5.61143
G1 X142.562 Y81.6 E5.64308
G1 X142.288 Y82.311 E5.67475
G1 X141.948 Y82.977 E5.70584
G1 X137.958 Y89.89 E6.03769
G1 X137.544 Y90.529 E6.06934
G1 X137.064 Y91.12 E6.101
G1 X136.525 Y91.658 E6.13266
G1 X135.933 Y92.137 E6.16432
G1 X135.294 Y92.55 E6.19595
G1 X135.108 Y92.657 E6.20487
G1 X134.429 Y93.002 E6.23654
G1 X133.718 Y93.273 E6.26817
G1 X132.982 Y93.468 E6.29983
G1 X132.23 Y93.585 E6.33147
G1 X131.493 Y93.623 E6.36215
G1 X123.507 Y93.623 E6.69417
G1 X122.747 Y93.583 E6.72581
G1 X121.995 Y93.464 E6.75746
G1 X121.26 Y93.266 E6.78911
G1 X120.549 Y92.992 E6.82079
G1 X119.892 Y92.657 E6.85145
G1 X119.706 Y92.55 E6.86037
G1 X119.067 Y92.137 E6.892
G1 X118.475 Y91.658 E6.92366
G1 X117.936 Y91.12 E6.95533
G1 X117.457 Y90.529 E6.98695
G1 X117.042 Y89.89 E7.01863
G1 X113.052 Y82.977 E7.35048
G1 X112.706 Y82.299 E7.38212
G1 X112.434 Y81.588 E7.41377
G1 X112.238 Y80.852 E7.44544
G1 X112.12 Y80.1 E7.47709
G1 X112.081 Y79.353 E7.50818
G1 X112.081 Y79.137 E7.51716
G1 X112.121 Y78.377 E7.54881
G1 X112.24 Y77.625 E7.58046
G1 X112.438 Y76.89 E7.61211
G1 X112.712 Y76.179 E7.64379
G1 X113.052 Y75.513 E7.67487
G1 X117.042 Y68.6 E8.00672
G0 F6000 X117.475 Y68.85
G1 F600 X117.876 Y68.234 E8.03728
G1 X118.342 Y67.666 E8.06782
G1 X118.867 Y67.152 E8.09837
G1 X119.444 Y66.698 E8.12889
G1 X119.955 Y66.373 E8.15407
G1 X120.141 Y66.266 E8.16299
G1 X120.797 Y65.935 E8.19354
G1 X121.485 Y65.677 E8.22409
G1 X122.196 Y65.495 E8.2546
G1 X122.924 Y65.392 E8.28517
G1 X123.507 Y65.367 E8.30943
G1 X131.493 Y65.367 E8.64145
G1 X132.226 Y65.407 E8.67197
G1 X132.951 Y65.526 E8.70252
G1 X133.659 Y65.724 E8.73308
G1 X134.341 Y65.997 E8.76362
G1 X134.859 Y66.266 E8.78789
G1 X135.045 Y66.373 E8.79681
G1 X135.661 Y66.773 E8.82735
G1 X136.229 Y67.238 E8.85787
G1 X136.744 Y67.762 E8.88841
G1 X137.199 Y68.339 E8.91896
G1 X137.525 Y68.85 E8.94416
G1 X141.515 Y75.763 E9.27601
G1 X141.847 Y76.418 E9.30654
G1 X142.106 Y77.105 E9.33706
G1 X142.289 Y77.817 E9.36763
G1 X142.393 Y78.544 E9.39816
G1 X142.419 Y79.137 E9.42284
G1 X142.419 Y79.353 E9.43182
G1 X142.379 Y80.086 E9.46234
G1 X142.26 Y80.811 E9.49288
G1 X142.062 Y81.519 E9.52345
G1 X141.789 Y82.201 E9.55399
G1 X141.515 Y82.727 E9.57865
G1 X137.525 Y89.64 E9.91049
G1 X137.124 Y90.256 E9.94105
G1 X136.658 Y90.824 E9.9716
G1 X136.133 Y91.338 E10.00214
G1 X135.556 Y91.792 E10.03267
G1 X135.045 Y92.117 E10.05784
G1 X134.859 Y92.224 E10.06677
G1 X134.203 Y92.555 E10.09731
G1 X133.515 Y92.813 E10.12786
G1 X132.804 Y92.995 E10.15838
G1 X132.076 Y93.098 E10.18894
G1 X131.493 Y93.123 E10.2132
G1 X123.507 Y93.123 E10.54522
G1 X122.774 Y93.083 E10.57574
G1 X122.049 Y92.964 E10.60629
G1 X121.341 Y92.766 E10.63685
G1 X120.659 Y92.493 E10.6674
G1 X120.141 Y92.224 E10.69166
G1 X119.955 Y92.117 E10.70058
G1 X119.339 Y91.717 E10.73112
G1 X118.771 Y91.252 E10.76164
G1 X118.256 Y90.728 E10.79218
G1 X117.801 Y90.151 E10.82273
G1 X117.475 Y89.64 E10.84793
G1 X113.485 Y82.727 E11.17978
G1 X113.153 Y82.072 E11.21031
G1 X112.894 Y81.385 E11.24083
G1 X112.711 Y80.673 E11.2714
G1 X112.607 Y79.946 E11.30193
G1 X112.581 Y79.353 E11.32661
G1 X112.581 Y79.137 E11.33559
G1 X112.621 Y78.404 E11.36611
G1 X112.74 Y77.679 E11.39665
G1 X112.938 Y76.971 E11.42722
G1 X113.211 Y76.289 E11.45776
G1 X113.485 Y75.763 E11.48242
G1 X117.475 Y68.85 E11.81426
G0 F6000 X117.908 Y69.1
G1 F600 X118.295 Y68.509 E11.84363
G1 X118.747 Y67.965 E11.87304
G1 X119.257 Y67.476 E11.90241
G1 X119.819 Y67.047 E11.93181
G1 X120.204 Y66.806 E11.95069
G1 X120.39 Y66.699 E11.95961
G1 X121.022 Y66.382 E11.98901
G1 X121.685 Y66.138 E12.01838
G1 X122.372 Y65.971 E12.04778
G1 X123.073 Y65.882 E12.07715
G1 X123.507 Y65.867 E12.09521
G1 X131.493 Y65.867 E12.42723
G1 X132.199 Y65.907 E12.45663
G1 X132.895 Y66.026 E12.48598
G1 X133.574 Y66.224 E12.51539
G1 X134.226 Y66.496 E12.54476
G1 X134.61 Y66.699 E12.56282
G1 X134.796 Y66.806 E12.57174
G1 X135.387 Y67.193 E12.60111
G1 X135.932 Y67.644 E12.63052
G1 X136.422 Y68.153 E12.65989
G1 X136.851 Y68.715 E12.68929
G1 X137.092 Y69.1 E12.70817
G1 X141.082 Y76.013 E13.04002
G1 X141.4 Y76.644 E13.0694
G1 X141.645 Y77.307 E13.09878
G1 X141.813 Y77.993 E13.12815
G1 X141.903 Y78.695 E13.15757
G1 X141.919 Y79.137 E13.17596
G1 X141.919 Y79.353 E13.18494
G1 X141.879 Y80.059 E13.21434
G1 X141.76 Y80.755 E13.24369
G1 X141.562 Y81.434 E13.2731
G1 X141.29 Y82.086 E13.30247
G1 X141.082 Y82.477 E13.32088
G1 X137.092 Y89.39 E13.65273
G1 X136.705 Y89.981 E13.6821
G1 X136.253 Y90.525 E13.7115
G1 X135.743 Y91.014 E13.74088
G1 X135.181 Y91.443 E13.77027
G1 X134.796 Y91.684 E13.78916
G1 X134.61 Y91.791 E13.79808
G1 X133.978 Y92.108 E13.82748
G1 X133.315 Y92.352 E13.85685
G1 X132.628 Y92.519 E13.88624
G1 X131.927 Y92.608 E13.91562
G1 X131.493 Y92.623 E13.93367
G1 X123.507 Y92.623 E14.26569
G1 X122.801 Y92.583 E14.29509
G1 X122.105 Y92.464 E14.32445
G1 X121.426 Y92.266 E14.35385
G1 X120.774 Y91.994 E14.38322
G1 X120.39 Y91.791 E14.40128
G1 X120.204 Y91.684 E14.4102
G1 X119.613 Y91.297 E14.43957
G1 X119.068 Y90.846 E14.46898
G1 X118.578 Y90.337 E14.49836
G1 X118.149 Y89.775 E14.52775
G1 X117.908 Y89.39 E14.54664
G1 X113.918 Y82.477 E14.87848
G1 X113.6 Y81.846 E14.90786
G1 X113.355 Y81.183 E14.93725
G1 X113.187 Y80.497 E14.96661
G1 X113.097 Y79.795 E14.99603
G1 X113.081 Y79.353 E15.01442
G1 X113.081 Y79.137 E15.0234
G1 X113.121 Y78.431 E15.0528
G1 X113.24 Y77.735 E15.08216
G1 X113.438 Y77.056 E15.11156
G1 X113.71 Y76.404 E15.14094
G1 X113.918 Y76.013 E15.15935
G1 X117.908 Y69.1 E15.49119
G0 F6000 X118.341 Y69.35
G1 F600 X118.714 Y68.784 E15.51938
G1 X119.151 Y68.265 E15.54758
G1 X119.646 Y67.802 E15.57576
G1 X120.454 Y67.24 E15.61668
G1 X120.64 Y67.133 E15.6256
G1 X121.246 Y66.83 E15.65377
G1 X121.884 Y66.601 E15.68195
G1 X122.545 Y66.448 E15.71016
G1 X123.507 Y66.367 E15.7503
G1 X131.493 Y66.367 E16.08232
G1 X132.17 Y66.407 E16.11051
G1 X132.837 Y66.526 E16.13868
G1 X133.486 Y66.723 E16.16688
G1 X134.36 Y67.133 E16.20702
G1 X134.546 Y67.24 E16.21594
G1 X135.113 Y67.612 E16.24413
G1 X135.632 Y68.048 E16.27231
G1 X136.096 Y68.542 E16.30049
G1 X136.659 Y69.35 E16.34143
G1 X140.649 Y76.263 E16.67328
G1 X140.953 Y76.869 E16.70147
G1 X141.183 Y77.506 E16.72962
G1 X141.337 Y78.167 E16.75784
G1 X141.419 Y79.137 E16.79831
G1 X141.419 Y79.353 E16.80729
G1 X141.379 Y80.03 E16.83549
G1 X141.26 Y80.697 E16.86366
G1 X141.063 Y81.346 E16.89185
G1 X140.649 Y82.227 E16.93232
G1 X136.659 Y89.14 E17.26417
G1 X136.286 Y89.706 E17.29235
G1 X135.849 Y90.225 E17.32056
G1 X135.354 Y90.688 E17.34874
G1 X134.546 Y91.25 E17.38966
G1 X134.36 Y91.357 E17.39858
G1 X133.754 Y91.66 E17.42675
G1 X133.116 Y91.889 E17.45493
G1 X132.455 Y92.042 E17.48314
G1 X131.493 Y92.123 E17.52327
G1 X123.507 Y92.123 E17.85529
G1 X122.83 Y92.083 E17.88349
G1 X122.163 Y91.964 E17.91166
G1 X121.514 Y91.767 E17.93986
G1 X120.64 Y91.357 E17.97999
G1 X120.454 Y91.25 E17.98891
G1 X119.887 Y90.878 E18.01711
G1 X119.368 Y90.442 E18.04529
G1 X118.904 Y89.948 E18.07346
G1 X118.341 Y89.14 E18.11441
G1 X114.351 Y82.227 E18.44625
G1 X114.047 Y81.621 E18.47444
G1 X113.817 Y80.984 E18.5026
G1 X113.663 Y80.323 E18.53081
G1 X113.581 Y79.353 E18.57129
G1 X113.581 Y79.137 E18.58027
G1 X113.621 Y78.46 E18.60846
G1 X113.74 Y77.793 E18.63663
G1 X113.937 Y77.144 E18.66483
G1 X114.351 Y76.263 E18.7053
G1 X118.341 Y69.35 E19.03715
G0 F6000 X118.774 Y69.6
G1 F600 X119.132 Y69.06 E19.06408
G1 X119.553 Y68.568 E19.091
G1 X120.032 Y68.132 E19.11793
G1 X120.703 Y67.673 E19.15173
G1 X120.889 Y67.566 E19.16065
G1 X121.469 Y67.279 E19.18756
G1 X122.081 Y67.064 E19.21453
G1 X122.714 Y66.927 E19.24145
G1 X123.507 Y66.867 E19.27452
G1 X131.493 Y66.867 E19.60653
G1 X132.14 Y66.907 E19.63348
G1 X132.776 Y67.026 E19.66039
G1 X133.393 Y67.223 E19.68731
G1 X134.111 Y67.566 E19.7204
G1 X134.297 Y67.673 E19.72932
G1 X134.837 Y68.03 E19.75623
G1 X135.33 Y68.451 E19.78318
G1 X135.767 Y68.929 E19.81011
G1 X136.226 Y69.6 E19.84391
G1 X140.216 Y76.513 E20.17575
G1 X140.505 Y77.093 E20.2027
G1 X140.72 Y77.704 E20.22963
G1 X140.858 Y78.336 E20.25652
G1 X140.919 Y79.137 E20.28992
G1 X140.919 Y79.353 E20.2989
G1 X140.879 Y80 E20.32585
G1 X140.76 Y80.636 E20.35275
G1 X140.563 Y81.253 E20.37968
G1 X140.216 Y81.977 E20.41306
G1 X136.226 Y88.89 E20.7449
G1 X135.868 Y89.43 E20.77184
G1 X135.447 Y89.922 E20.79876
G1 X134.968 Y90.358 E20.82569
G1 X134.297 Y90.817 E20.85949
G1 X134.111 Y90.924 E20.86841
G1 X133.531 Y91.211 E20.89531
G1 X132.919 Y91.426 E20.92228
G1 X132.286 Y91.563 E20.94921
G1 X131.493 Y91.623 E20.98227
G1 X123.507 Y91.623 E21.31429
G1 X122.86 Y91.583 E21.34124
G1 X122.224 Y91.464 E21.36814
G1 X121.607 Y91.267 E21.39507
G1 X120.889 Y90.924 E21.42815
G1 X120.703 Y90.817 E21.43707
G1 X120.163 Y90.46 E21.46399
G1 X119.67 Y90.039 E21.49094
G1 X119.233 Y89.561 E21.51787
G1 X118.774 Y88.89 E21.55167
G1 X114.784 Y81.977 E21.88351
G1 X114.495 Y81.397 E21.91045
G1 X114.28 Y80.786 E21.93738
G1 X114.142 Y80.154 E21.96428
G1 X114.081 Y79.353 E21.99767
G1 X114.081 Y79.137 E22.00666
G1 X114.121 Y78.49 E22.03361
G1 X114.24 Y77.854 E22.06051
G1 X114.437 Y77.237 E22.08743
G1 X114.784 Y76.513 E22.12081
G1 X118.774 Y69.6 E22.45266
G0 F6000 X119.207 Y69.85
G1 F600 X119.549 Y69.337 E22.47829
G1 X119.954 Y68.873 E22.5039
G1 X120.416 Y68.466 E22.5295
G1 X120.952 Y68.107 E22.55632
G1 X121.138 Y68 E22.56524
G1 X121.691 Y67.728 E22.59086
G1 X122.275 Y67.53 E22.6165
G1 X122.879 Y67.409 E22.64211
G1 X123.507 Y67.367 E22.66828
G1 X131.493 Y67.367 E23.00029
G1 X132.108 Y67.407 E23.02592
G1 X132.712 Y67.526 E23.05151
G1 X133.296 Y67.723 E23.07714
G1 X133.862 Y68 E23.10333
G1 X134.048 Y68.107 E23.11226
G1 X134.561 Y68.448 E23.13787
G1 X135.025 Y68.853 E23.16347
G1 X135.433 Y69.314 E23.18907
G1 X135.793 Y69.85 E23.21591
G1 X139.783 Y76.763 E23.54776
G1 X140.056 Y77.315 E23.57336
G1 X140.255 Y77.898 E23.59897
G1 X140.376 Y78.502 E23.62458
G1 X140.419 Y79.137 E23.65104
G1 X140.419 Y79.353 E23.66002
G1 X140.379 Y79.968 E23.68564
G1 X140.26 Y80.572 E23.71124
G1 X140.063 Y81.156 E23.73686
G1 X139.783 Y81.727 E23.7633
G1 X135.793 Y88.64 E24.09515
G1 X135.451 Y89.153 E24.12078
G1 X135.046 Y89.617 E24.14639
G1 X134.584 Y90.024 E24.17199
G1 X134.048 Y90.383 E24.19881
G1 X133.862 Y90.49 E24.20773
G1 X133.309 Y90.762 E24.23335
G1 X132.725 Y90.96 E24.25899
G1 X132.121 Y91.081 E24.2846
G1 X131.493 Y91.123 E24.31076
G1 X123.507 Y91.123 E24.64278
G1 X122.892 Y91.083 E24.66841
G1 X122.288 Y90.964 E24.694
G1 X121.704 Y90.767 E24.71962
G1 X121.138 Y90.49 E24.74582
G1 X120.952 Y90.383 E24.75474
G1 X120.439 Y90.042 E24.78035
G1 X119.975 Y89.637 E24.80596
G1 X119.567 Y89.176 E24.83155
G1 X119.207 Y88.64 E24.8584
G1 X115.217 Y81.727 E25.19024
G1 X114.944 Y81.175 E25.21585
G1 X114.745 Y80.592 E25.24146
G1 X114.624 Y79.988 E25.26707
G1 X114.581 Y79.353 E25.29353
G1 X114.581 Y79.137 E25.30251
G1 X114.621 Y78.522 E25.32813
G1 X114.74 Y77.918 E25.35373
G1 X114.937 Y77.334 E25.37935
G1 X115.217 Y76.763 E25.40579
G1 X119.207 Y69.85 E25.73764
G0 F6000 X119.64 Y70.099
G1 F600 X119.965 Y69.616 E25.76184
G1 X120.354 Y69.181 E25.7861
G1 X120.798 Y68.804 E25.81032
G1 X121.202 Y68.54 E25.83038
G1 X121.388 Y68.433 E25.8393
G1 X121.912 Y68.178 E25.86353
G1 X122.465 Y67.997 E25.88772
G1 X123.039 Y67.893 E25.91198
G1 X123.507 Y67.867 E25.93146
G1 X131.493 Y67.867 E26.26348
G1 X132.074 Y67.907 E26.2877
G1 X132.645 Y68.026 E26.31194
G1 X133.194 Y68.222 E26.33618
G1 X133.612 Y68.433 E26.35565
G1 X133.798 Y68.54 E26.36457
G1 X134.282 Y68.865 E26.38881
G1 X134.717 Y69.252 E26.41301
G1 X135.095 Y69.696 E26.43726
G1 X135.36 Y70.099 E26.45731
G1 X139.35 Y77.012 E26.78915
G1 X139.606 Y77.536 E26.8134
G1 X139.788 Y78.09 E26.83764
G1 X139.892 Y78.663 E26.86186
G1 X139.919 Y79.137 E26.88159
G1 X139.919 Y79.353 E26.89058
G1 X139.879 Y79.934 E26.91479
G1 X139.76 Y80.505 E26.93904
G1 X139.564 Y81.054 E26.96327
G1 X139.35 Y81.478 E26.98302
G1 X135.36 Y88.391 E27.31486
G1 X135.035 Y88.874 E27.33907
G1 X134.646 Y89.309 E27.36333
G1 X134.202 Y89.686 E27.38755
G1 X133.798 Y89.95 E27.40761
G1 X133.612 Y90.057 E27.41653
G1 X133.088 Y90.312 E27.44076
G1 X132.535 Y90.493 E27.46495
G1 X131.961 Y90.597 E27.4892
G1 X131.493 Y90.623 E27.50869
G1 X123.507 Y90.623 E27.84071
G1 X122.926 Y90.583 E27.86492
G1 X122.355 Y90.464 E27.88917
G1 X121.806 Y90.268 E27.91341
G1 X121.388 Y90.057 E27.93287
G1 X121.202 Y89.95 E27.9418
