;FLAVOR:Marlin
;TIME:1683
;Filament used: 0.927236m
;Layer height: 0.2
;MINX:109.762
;MINY:88.121
;MINZ:0.2
;MAXX:145.239
;MAXY:121.879
;MAXZ:30
;Generated with Cura_SteamEngine master
M140 S60
M105
M190 S60
M104 S200
M105
M109 S200
M82 ;absolute extrusion mode
M220 S100 ;reset feedrate
M221 S100 ;reset flowrate
G90 ;use absolute coordinates
M82 ;absolute extrusion mode
G28 ;home
G1 Z2 F1500 ;raise z
G92 E0 ;reset extruder

G1 X75 Y5 F5000 ;start position
G1 Z0.28 F1500 ;lower z
G1 E4 F500 ;prime the filament
G1 X180 E10 F500 ;1st line
G1 Y5.4 F5000
G1 X75 E20 F500 ;2nd line
G1 Z2 F1500 ;raise z
G92 E0 ;reset extruder
G92 E0
G92 E0
G1 F1500 E-6.5
;LAYER_COUNT:150
;LAYER:0
M107
G0 F9000 X115.694 Y92.083 Z0.2
;TYPE:SKIRT
G1 F1500 E0
G1 F1800 X116.339 Y91.388 E0.03942
G1 X117.041 Y90.749 E0.07889
G1 X117.794 Y90.172 E0.11833
G1 X118.592 Y89.661 E0.15772
G1 X119.431 Y89.218 E0.19717
G1 X120.304 Y88.848 E0.23659
G1 X121.206 Y88.552 E0.27606
G1 X122.129 Y88.334 E0.31549
G1 X123.067 Y88.194 E0.35492
G1 X124.099 Y88.132 E0.3979
G1 X124.971 Y88.121 E0.43416
G1 X130.043 Y88.121 E0.64503
G1 X130.904 Y88.132 E0.68082
G1 X131.851 Y88.186 E0.72026
G1 X132.791 Y88.319 E0.75973
G1 X133.715 Y88.53 E0.79913
G1 X134.618 Y88.819 E0.83855
G1 X135.494 Y89.183 E0.87799
G1 X136.337 Y89.62 E0.91747
G1 X137.139 Y90.125 E0.95687
G1 X137.896 Y90.697 E0.99632
G1 X138.602 Y91.33 E1.03574
G1 X139.252 Y92.021 E1.07518
G1 X139.842 Y92.763 E1.11459
G1 X140.403 Y93.614 E1.15697
G1 X140.85 Y94.365 E1.19331
G1 X143.482 Y98.926 E1.41224
G1 X143.808 Y99.509 E1.44001
G1 X144.236 Y100.356 E1.47946
G1 X144.591 Y101.236 E1.51891
G1 X144.87 Y102.142 E1.55833
G1 X145.072 Y103.069 E1.59777
G1 X145.195 Y104.009 E1.63719
G1 X145.239 Y104.957 E1.67664
G1 X145.203 Y105.904 E1.71604
G1 X145.087 Y106.846 E1.7555
G1 X144.892 Y107.774 E1.79493
G1 X144.619 Y108.682 E1.83435
G1 X144.271 Y109.565 E1.8738
G1 X143.8 Y110.505 E1.91752
G1 X143.368 Y111.273 E1.95415
G1 X140.769 Y115.771 E2.17013
G1 X140.412 Y116.371 E2.19916
G1 X139.893 Y117.165 E2.23859
G1 X139.309 Y117.913 E2.27805
G1 X138.664 Y118.608 E2.31747
G1 X137.963 Y119.247 E2.3569
G1 X137.211 Y119.825 E2.39634
G1 X136.412 Y120.337 E2.43579
G1 X135.574 Y120.78 E2.4752
G1 X134.701 Y121.15 E2.51462
G1 X133.8 Y121.446 E2.55405
G1 X132.877 Y121.665 E2.59349
G1 X131.939 Y121.805 E2.63292
G1 X130.901 Y121.868 E2.67615
G1 X130.029 Y121.879 E2.71241
G1 X124.797 Y121.878 E2.92993
G1 X124.096 Y121.868 E2.95908
G1 X123.149 Y121.814 E2.99851
G1 X122.209 Y121.681 E3.03798
G1 X121.285 Y121.47 E3.07739
G1 X120.382 Y121.181 E3.1168
G1 X119.506 Y120.817 E3.15624
G1 X118.663 Y120.38 E3.19572
G1 X117.861 Y119.875 E3.23512
G1 X117.104 Y119.303 E3.27457
G1 X116.398 Y118.67 E3.31399
G1 X115.748 Y117.979 E3.35343
G1 X115.158 Y117.237 E3.39285
G1 X114.593 Y116.381 E3.43549
G1 X114.209 Y115.737 E3.46666
G1 X111.515 Y111.068 E3.69077
G1 X111.19 Y110.486 E3.71848
G1 X110.763 Y109.639 E3.75792
G1 X110.408 Y108.759 E3.79737
G1 X110.129 Y107.853 E3.83678
G1 X109.928 Y106.926 E3.87622
G1 X109.805 Y105.985 E3.91567
G1 X109.762 Y105.038 E3.95509
G1 X109.799 Y104.09 E3.99453
G1 X109.916 Y103.149 E4.03395
G1 X110.111 Y102.221 E4.07338
G1 X110.384 Y101.312 E4.11284
G1 X110.732 Y100.43 E4.15226
G1 X111.191 Y99.514 E4.19485
G1 X111.632 Y98.727 E4.23236
G1 X114.236 Y94.22 E4.44877
G1 X114.591 Y93.624 E4.47761
G1 X115.11 Y92.83 E4.51704
G1 X115.694 Y92.083 E4.55647
G0 F9000 X116.102 Y92.376
G1 F1800 X116.736 Y91.699 E4.59503
G1 X117.426 Y91.08 E4.63357
G1 X118.166 Y90.522 E4.6721
G1 X118.952 Y90.03 E4.71065
G1 X119.778 Y89.608 E4.74921
G1 X120.637 Y89.259 E4.78776
G1 X121.522 Y88.984 E4.82629
G1 X122.428 Y88.788 E4.86483
G1 X123.348 Y88.669 E4.9034
G1 X124.106 Y88.632 E4.93495
G1 X124.971 Y88.621 E4.97091
G1 X130.043 Y88.621 E5.18178
G1 X130.897 Y88.632 E5.21729
G1 X131.823 Y88.685 E5.25585
G1 X132.741 Y88.818 E5.29442
G1 X133.643 Y89.029 E5.33293
G1 X134.524 Y89.318 E5.37148
G1 X135.378 Y89.681 E5.41006
G1 X136.196 Y90.116 E5.44858
G1 X136.974 Y90.62 E5.48712
G1 X137.706 Y91.19 E5.52569
G1 X138.386 Y91.82 E5.56423
G1 X139.009 Y92.507 E5.60278
G1 X139.57 Y93.244 E5.64129
G1 X139.974 Y93.87 E5.67227
G1 X140.417 Y94.615 E5.7083
G1 X143.046 Y99.17 E5.92696
G1 X143.372 Y99.753 E5.95473
G1 X143.789 Y100.581 E5.99327
G1 X144.133 Y101.442 E6.03182
G1 X144.402 Y102.33 E6.07039
G1 X144.593 Y103.237 E6.10893
G1 X144.706 Y104.157 E6.14747
G1 X144.739 Y105.084 E6.18603
G1 X144.691 Y106.01 E6.22458
G1 X144.565 Y106.928 E6.26311
G1 X144.359 Y107.832 E6.30165
G1 X144.077 Y108.715 E6.34019
G1 X143.719 Y109.57 E6.37873
G1 X143.364 Y110.26 E6.41099
G1 X142.935 Y111.023 E6.44738
G1 X140.339 Y115.516 E6.66312
G1 X139.982 Y116.116 E6.69214
G1 X139.474 Y116.891 E6.73067
G1 X138.901 Y117.62 E6.76922
G1 X138.268 Y118.297 E6.80775
G1 X137.578 Y118.917 E6.84632
G1 X136.838 Y119.475 E6.88485
G1 X136.052 Y119.967 E6.9234
G1 X135.227 Y120.39 E6.96195
G1 X134.368 Y120.74 E7.00051
G1 X133.483 Y121.014 E7.03903
G1 X132.577 Y121.212 E7.07758
G1 X131.657 Y121.33 E7.11615
G1 X130.894 Y121.368 E7.14791
G1 X130.029 Y121.379 E7.18387
G1 X124.804 Y121.378 E7.4011
G1 X124.103 Y121.368 E7.43025
G1 X123.177 Y121.315 E7.46881
G1 X122.259 Y121.182 E7.50738
G1 X121.357 Y120.971 E7.54589
G1 X120.476 Y120.682 E7.58444
G1 X119.622 Y120.319 E7.62302
G1 X118.804 Y119.884 E7.66154
G1 X118.026 Y119.38 E7.70008
G1 X117.294 Y118.81 E7.73865
G1 X116.614 Y118.18 E7.77719
G1 X115.991 Y117.493 E7.81574
G1 X115.43 Y116.756 E7.85425
G1 X115.023 Y116.125 E7.88547
G1 X114.562 Y115.349 E7.923
G1 X111.951 Y110.824 E8.1402
G1 X111.626 Y110.242 E8.16791
G1 X111.21 Y109.414 E8.20643
G1 X110.866 Y108.553 E8.24498
G1 X110.597 Y107.665 E8.28356
G1 X110.407 Y106.758 E8.32208
G1 X110.295 Y105.838 E8.36062
G1 X110.262 Y104.911 E8.39918
G1 X110.31 Y103.985 E8.43773
G1 X110.437 Y103.067 E8.47626
G1 X110.643 Y102.163 E8.51481
G1 X110.927 Y101.28 E8.55337
G1 X111.285 Y100.425 E8.59191
G1 X111.627 Y99.758 E8.62307
G1 X112.065 Y98.977 E8.6603
G1 X114.665 Y94.476 E8.87641
G1 X115.02 Y93.88 E8.90525
G1 X115.529 Y93.104 E8.94383
G1 X116.102 Y92.376 E8.98235
G0 F9000 X116.509 Y92.669
G1 F1800 X117.131 Y92.012 E9.01996
G1 X117.809 Y91.412 E9.0576
G1 X118.538 Y90.874 E9.09527
G1 X119.311 Y90.403 E9.1329
G1 X120.122 Y90.002 E9.17052
G1 X120.966 Y89.673 E9.20818
G1 X121.835 Y89.421 E9.2458
G1 X122.724 Y89.246 E9.28347
G1 X123.624 Y89.151 E9.32109
G1 X124.113 Y89.132 E9.34144
G1 X124.971 Y89.121 E9.37711
G1 X130.043 Y89.121 E9.58798
G1 X130.89 Y89.132 E9.6232
G1 X131.794 Y89.185 E9.66085
G1 X132.69 Y89.317 E9.6985
G1 X133.57 Y89.528 E9.73612
G1 X134.428 Y89.816 E9.77375
G1 X135.258 Y90.178 E9.8114
G1 X136.052 Y90.613 E9.84904
G1 X136.805 Y91.115 E9.88666
G1 X137.511 Y91.682 E9.92431
G1 X138.164 Y92.309 E9.96195
G1 X138.759 Y92.992 E9.99961
G1 X139.291 Y93.724 E10.03723
G1 X139.545 Y94.127 E10.05703
G1 X139.984 Y94.865 E10.09273
G1 X142.609 Y99.414 E10.31109
G1 X142.935 Y99.997 E10.33886
G1 X143.342 Y100.806 E10.37651
G1 X143.675 Y101.648 E10.41415
G1 X143.933 Y102.516 E10.4518
G1 X144.114 Y103.403 E10.48944
G1 X144.215 Y104.303 E10.52709
G1 X144.237 Y105.208 E10.56473
G1 X144.179 Y106.111 E10.60235
G1 X144.041 Y107.006 E10.64
G1 X143.825 Y107.885 E10.67763
G1 X143.532 Y108.742 E10.71528
G1 X143.164 Y109.569 E10.75292
G1 X142.928 Y110.015 E10.7739
G1 X142.502 Y110.773 E10.81005
G1 X139.91 Y115.26 E11.02548
G1 X139.553 Y115.86 E11.05451
G1 X139.056 Y116.617 E11.09216
G1 X138.494 Y117.327 E11.1298
G1 X137.872 Y117.985 E11.16745
G1 X137.194 Y118.585 E11.20509
G1 X136.466 Y119.123 E11.24272
G1 X135.694 Y119.595 E11.28034
G1 X134.882 Y119.996 E11.318
G1 X134.039 Y120.325 E11.35562
G1 X133.169 Y120.578 E11.39329
G1 X132.281 Y120.753 E11.43092
G1 X131.381 Y120.849 E11.46855
G1 X130.887 Y120.868 E11.4891
G1 X130.029 Y120.879 E11.52477
G1 X124.811 Y120.878 E11.74171
G1 X124.11 Y120.868 E11.77086
G1 X123.206 Y120.815 E11.80851
G1 X122.31 Y120.683 E11.84616
G1 X121.43 Y120.472 E11.88378
G1 X120.572 Y120.184 E11.92141
G1 X119.742 Y119.822 E11.95906
G1 X118.948 Y119.387 E11.9967
G1 X118.195 Y118.885 E12.03432
G1 X117.489 Y118.318 E12.07197
G1 X116.836 Y117.691 E12.10961
G1 X116.241 Y117.008 E12.14727
G1 X115.709 Y116.276 E12.18489
G1 X115.452 Y115.868 E12.20494
G1 X114.995 Y115.099 E12.24213
G1 X112.388 Y110.58 E12.45903
G1 X112.063 Y109.998 E12.48674
G1 X111.657 Y109.189 E12.52437
G1 X111.324 Y108.347 E12.56202
G1 X111.066 Y107.48 E12.59963
G1 X110.886 Y106.592 E12.6373
G1 X110.785 Y105.693 E12.67491
G1 X110.764 Y104.788 E12.71254
G1 X110.823 Y103.884 E12.75021
G1 X110.961 Y102.989 E12.78786
G1 X111.178 Y102.11 E12.8255
G1 X111.471 Y101.254 E12.86311
G1 X111.839 Y100.427 E12.90075
G1 X112.064 Y100.002 E12.92074
G1 X112.498 Y99.227 E12.95767
G1 X115.095 Y94.732 E13.1735
G1 X115.45 Y94.136 E13.20234
G1 X115.947 Y93.379 E13.23999
G1 X116.509 Y92.669 E13.27763
G1 F1500 E6.77763
;MESH:stern_holder.stl
G0 F9000 X126.543 Y104.497
G0 X124.531 Y103.443
G0 X126.379 Y107.955
;TYPE:WALL-INNER
G1 F1500 E13.27763
G1 F1800 X127.118 Y108.137 E13.30295
G1 X127.882 Y108.137 E13.32836
G1 X128.621 Y107.955 E13.35367
G1 X129.295 Y107.602 E13.37898
G1 X129.864 Y107.095 E13.40432
G1 X130.3 Y106.467 E13.42975
G1 X130.568 Y105.752 E13.45515
G1 X130.66 Y105 E13.48035
G1 X130.568 Y104.245 E13.50564
G1 X130.299 Y103.532 E13.53099
G1 X129.867 Y102.905 E13.55632
G1 X129.295 Y102.398 E13.58174
G1 X128.621 Y102.045 E13.60704
G1 X127.882 Y101.863 E13.63236
G1 X127.119 Y101.863 E13.65773
G1 X126.382 Y102.044 E13.68298
G1 X125.707 Y102.398 E13.70833
G1 X125.135 Y102.905 E13.73375
G1 X124.701 Y103.532 E13.75911
G1 X124.432 Y104.245 E13.78446
G1 X124.34 Y105 E13.80975
G1 X124.432 Y105.755 E13.83505
G1 X124.701 Y106.468 E13.8604
G1 X125.133 Y107.095 E13.88572
G1 X125.705 Y107.602 E13.91115
G1 X126.379 Y107.955 E13.93645
G0 F9000 X126.522 Y107.578
G1 F1800 X127.167 Y107.737 E13.95855
G1 X127.833 Y107.737 E13.9807
G1 X128.478 Y107.578 E14.00279
G1 X129.066 Y107.27 E14.02487
G1 X129.563 Y106.828 E14.04699
G1 X129.943 Y106.28 E14.06917
G1 X130.177 Y105.656 E14.09134
G1 X130.257 Y105 E14.11332
G1 X130.177 Y104.341 E14.1354
G1 X129.942 Y103.719 E14.15751
G1 X129.565 Y103.172 E14.17961
G1 X129.066 Y102.73 E14.20178
G1 X128.478 Y102.422 E14.22386
G1 X127.833 Y102.263 E14.24595
G1 X127.167 Y102.263 E14.2681
G1 X126.525 Y102.421 E14.29009
G1 X125.936 Y102.73 E14.31222
G1 X125.436 Y103.172 E14.33441
G1 X125.058 Y103.719 E14.35653
G1 X124.823 Y104.341 E14.37864
G1 X124.743 Y105 E14.40072
G1 X124.823 Y105.659 E14.4228
G1 X125.058 Y106.281 E14.44492
G1 X125.435 Y106.828 E14.46701
G1 X125.934 Y107.27 E14.48918
G1 X126.522 Y107.578 E14.51126
G0 F9000 X126.665 Y107.201
G1 F1800 X127.216 Y107.337 E14.53014
G1 X127.784 Y107.337 E14.54903
G1 X128.335 Y107.201 E14.5679
G1 X128.837 Y106.938 E14.58675
G1 X129.262 Y106.561 E14.60565
G1 X129.586 Y106.093 E14.62458
G1 X129.786 Y105.56 E14.64352
G1 X129.854 Y105 E14.66228
G1 X129.786 Y104.437 E14.68114
G1 X129.585 Y103.906 E14.70002
G1 X129.263 Y103.439 E14.71889
G1 X128.837 Y103.062 E14.73781
G1 X128.335 Y102.799 E14.75666
G1 X127.784 Y102.663 E14.77554
G1 X127.216 Y102.663 E14.79443
G1 X126.668 Y102.798 E14.8132
G1 X126.164 Y103.062 E14.83212
G1 X125.737 Y103.439 E14.85107
G1 X125.415 Y103.906 E14.86994
G1 X125.214 Y104.437 E14.88882
G1 X125.146 Y105 E14.90768
G1 X125.214 Y105.563 E14.92654
G1 X125.415 Y106.094 E14.94543
G1 X125.737 Y106.561 E14.96429
G1 X126.163 Y106.938 E14.98321
G1 X126.665 Y107.201 E15.00206
G0 F9000 X126.808 Y106.824
;TYPE:WALL-OUTER
G1 F1800 X127.265 Y106.937 E15.01772
G1 X127.735 Y106.937 E15.03335
G1 X128.192 Y106.824 E15.04901
G1 X128.608 Y106.606 E15.06463
G1 X128.961 Y106.294 E15.0803
G1 X129.229 Y105.906 E15.09599
G1 X129.395 Y105.464 E15.11169
G1 X129.451 Y105 E15.12723
G1 X129.395 Y104.533 E15.14288
G1 X129.228 Y104.093 E15.15853
G1 X128.961 Y103.706 E15.17417
G1 X128.608 Y103.394 E15.18984
G1 X128.192 Y103.176 E15.20546
G1 X127.735 Y103.063 E15.22112
G1 X127.265 Y103.063 E15.23675
G1 X126.811 Y103.175 E15.2523
G1 X126.392 Y103.394 E15.26803
G1 X126.039 Y103.706 E15.2837
G1 X125.772 Y104.093 E15.29933
G1 X125.605 Y104.533 E15.31499
G1 X125.549 Y105 E15.33063
G1 X125.605 Y105.467 E15.34627
G1 X125.772 Y105.907 E15.36193
G1 X126.039 Y106.294 E15.37757
G1 X126.392 Y106.606 E15.39323
G1 X126.808 Y106.824 E15.40886
G0 F9000 X126.652 Y107.235
G1 F1500 E8.90886
G0 F9000 X129.231 Y107.872
G0 X130.17 Y108.415
G0 X129.942 Y109.229
;TYPE:WALL-INNER
G1 F1500 E15.40886
G1 F1800 X125.058 Y109.229 E15.5713
G1 X122.615 Y105 E15.73374
G1 X125.058 Y100.771 E15.89618
G1 X129.942 Y100.771 E16.05862
G1 X132.385 Y105 E16.22106
G1 X129.942 Y109.229 E16.3835
G0 F9000 X130.173 Y109.629
G1 F1800 X124.827 Y109.629 E16.56131
G1 X122.154 Y105 E16.7391
G1 X124.827 Y100.371 E16.91688
G1 X130.173 Y100.371 E17.09469
G1 X132.846 Y105 E17.27248
G1 X130.173 Y109.629 E17.45026
G0 F9000 X130.403 Y110.029
G1 F1800 X124.596 Y110.029 E17.64341
G1 X121.692 Y105 E17.83655
G1 X124.597 Y99.971 E18.02972
G1 X130.404 Y99.971 E18.22286
G1 X133.308 Y105 E18.41601
G1 X130.403 Y110.029 E18.60918
G0 F9000 X130.634 Y110.429
;TYPE:WALL-OUTER
G1 F1800 X124.365 Y110.429 E18.81769
G1 X121.231 Y105 E19.02618
G1 X124.366 Y99.571 E19.2347
G1 X130.635 Y99.571 E19.4432
G1 X133.769 Y105 E19.6517
G1 X130.634 Y110.429 E19.86021
G0 F9000 X130.363 Y110.018
G0 X129.958 Y108.98
G0 X129.717 Y108.839
;TYPE:SKIN
G1 F1800 X125.283 Y108.839 E20.00769
G1 X123.066 Y105 E20.15514
G1 X125.283 Y101.161 E20.30258
G1 X129.717 Y101.161 E20.45006
G1 X131.934 Y105 E20.59751
G1 X129.717 Y108.839 E20.74495
G0 F9000 X129.519 Y107.926
G1 F1800 X130.158 Y107.356 E20.77343
G1 X130.649 Y106.65 E20.80204
G1 X130.95 Y105.845 E20.83062
G1 X131.052 Y105 E20.85893
G1 X130.95 Y104.151 E20.88737
G1 X130.648 Y103.35 E20.91584
G1 X130.161 Y102.644 E20.94437
G1 X129.518 Y102.074 E20.97295
G1 X128.76 Y101.678 E21.00139
G1 X127.929 Y101.473 E21.02986
G1 X127.072 Y101.473 E21.05837
G1 X126.243 Y101.677 E21.08676
G1 X125.484 Y102.074 E21.11525
G1 X124.841 Y102.644 E21.14383
G1 X124.353 Y103.349 E21.17235
G1 X124.05 Y104.151 E21.20086
G1 X123.948 Y105 E21.2293
G1 X124.05 Y105.849 E21.25774
G1 X124.352 Y106.65 E21.28622
G1 X124.839 Y107.356 E21.31474
G1 X125.482 Y107.926 E21.34332
G1 X126.24 Y108.322 E21.37177
G1 X127.071 Y108.527 E21.40023
G1 X127.929 Y108.527 E21.42877
G1 X128.76 Y108.322 E21.45724
G1 X129.519 Y107.926 E21.48571
G1 F1500 E14.98571
G0 F9000 X129.359 Y107.693
G0 X126.311 Y108.135
G0 X126.311 Y109.019
G0 X125.649 Y109.119
G1 F1500 E21.48571
G0 F9000 X125.649 Y108.678
G1 F1800 X124.997 Y108.026 E21.51638
G0 F9000 X125.819 Y108.283
G1 F1800 X126.215 Y108.678 E21.53498
G1 F1500 E15.03498
G0 F9000 X126.215 Y109.119
G0 X128.277 Y109.019
G0 X128.101 Y108.299
G1 F1500 E21.53498
G0 F9000 X128.38 Y108.581
G1 F1800 X128.477 Y108.678 E21.53955
G0 F9000 X128.83 Y108.465
G1 F1800 X129.043 Y108.678 E21.54957
G0 F9000 X129.202 Y108.272
G1 F1800 X129.609 Y108.678 E21.56869
G0 F9000 X129.826 Y108.33
G1 F1800 X129.574 Y108.078 E21.58054
G0 F9000 X129.879 Y107.818
G1 F1800 X130.033 Y107.971 E21.58776
G0 F9000 X130.239 Y107.612
G1 F1800 X130.179 Y107.552 E21.59058
G1 F1500 E15.09058
G0 F9000 X129.887 Y107.222
G0 X130.754 Y105.798
G0 X131.449 Y106.2
G0 X131.656 Y106.041
G1 F1500 E21.59058
G0 F9000 X131.275 Y105.819
G1 F1800 X131.13 Y105.674 E21.5974
G0 F9000 X131.482 Y105.461
G1 F1800 X131.19 Y105.169 E21.61114
G0 F9000 X131.689 Y105.102
G1 F1800 X131.16 Y104.573 E21.63602
G0 F9000 X131.195 Y104.042
G1 F1800 X131.033 Y103.881 E21.64362
G0 F9000 X130.608 Y104.04
G0 X129.763 Y102.665
G0 X130.056 Y102.337
G1 F1800 X129.039 Y101.321 E21.69143
G0 F9000 X128.636 Y101.483
G1 F1800 X128.474 Y101.321 E21.69905
G1 F1500 E15.19905
G0 F9000 X128.474 Y100.881
G0 X126.473 Y100.981
G0 X126.663 Y101.759
G1 F1500 E21.69905
G0 F9000 X126.37 Y101.48
G1 F1800 X126.211 Y101.321 E21.70653
G0 F9000 X125.965 Y101.64
G1 F1800 X125.645 Y101.321 E21.72156
G0 F9000 X125.266 Y101.507
G1 F1800 X125.594 Y101.835 E21.73698
G0 F9000 X125.255 Y102.062
G1 F1800 X125.058 Y101.865 E21.74625
G0 F9000 X124.851 Y102.224
G1 F1800 X124.954 Y102.327 E21.7511
