;FLAVOR:Marlin
;TIME:23700
;Filament used: 28.998m
;Layer height: 0.2
;MINX:83.881
;MINY:38.75
;MINZ:0.2
;MAXX:162.643
;MAXY:171.25
;MAXZ:120
;Generated with Cura_SteamEngine master
M140 S60
M105
M190 S60
M104 S200
M105
M109 S200
M82 ;absolute extrusion mode
M220 S100 ;reset feedrate
M221 S100 ;reset flowrate
G90 ;use absolute coordinates
M82 ;absolute extrusion mode
G28 ;home
G1 Z2 F1500 ;raise z
G92 E0 ;reset extruder

G1 X75 Y5 F5000 ;start position
G1 Z0.28 F1500 ;lower z
G1 E4 F500 ;prime the filament
G1 X180 E10 F500 ;1st line
G1 Y5.4 F5000
G1 X75 E20 F500 ;2nd line
G1 Z2 F1500 ;raise z
G92 E0 ;reset extruder
G92 E0
G92 E0
G1 F1500 E-6.5
;LAYER_COUNT:600
;LAYER:0
M107
G0 F9000 X85.374 Y44.424 Z0.2
;TYPE:SKIRT
G1 F1500 E0
G1 F1800 X85.88 Y43.621 E0.03946
G1 X86.451 Y42.864 E0.07888
G1 X87.083 Y42.157 E0.11831
G1 X87.773 Y41.506 E0.15775
G1 X88.516 Y40.916 E0.19719
G1 X89.305 Y40.39 E0.23662
G1 X90.136 Y39.933 E0.27604
G1 X91.003 Y39.547 E0.3155
G1 X91.899 Y39.236 E0.35493
G1 X92.818 Y39.001 E0.39437
G1 X93.753 Y38.845 E0.43378
G1 X94.825 Y38.763 E0.47848
G1 X95.146 Y38.754 E0.49183
G1 X95.461 Y38.75 E0.50493
G1 X114.424 Y38.75 E1.29332
G1 X115.282 Y38.761 E1.32899
G1 X115.916 Y38.788 E1.35537
G1 X116.936 Y38.86 E1.39789
G1 X119.523 Y39.007 E1.50561
G1 X122.004 Y39.078 E1.6088
G1 X124.514 Y39.078 E1.71316
G1 X127.059 Y39.007 E1.81901
G1 X129.567 Y38.866 E1.92344
G1 X130.359 Y38.803 E1.95648
G1 X130.759 Y38.777 E1.97314
G1 X131.087 Y38.763 E1.98679
G1 X131.407 Y38.754 E2.0001
G1 X131.723 Y38.75 E2.01324
G1 X150.847 Y38.751 E2.80832
G1 X151.545 Y38.761 E2.83734
G1 X152.492 Y38.815 E2.87678
G1 X153.431 Y38.948 E2.91621
G1 X154.356 Y39.16 E2.95566
G1 X155.259 Y39.448 E2.99507
G1 X156.135 Y39.812 E3.03451
G1 X156.977 Y40.249 E3.07395
G1 X157.779 Y40.755 E3.11337
G1 X158.536 Y41.326 E3.15279
G1 X159.242 Y41.96 E3.19224
G1 X159.893 Y42.65 E3.23168
G1 X160.482 Y43.393 E3.2711
G1 X161.007 Y44.183 E3.31054
G1 X161.464 Y45.014 E3.34997
G1 X161.849 Y45.881 E3.38941
G1 X162.16 Y46.777 E3.42884
G1 X162.394 Y47.696 E3.46826
G1 X162.549 Y48.632 E3.50771
G1 X162.629 Y49.692 E3.5519
G1 X162.638 Y50.01 E3.56513
G1 X162.643 Y50.328 E3.57835
G1 X162.642 Y159.403 E8.11316
G1 X162.633 Y160.13 E8.14339
G1 X162.581 Y161.077 E8.18282
G1 X162.45 Y162.017 E8.22228
G1 X162.24 Y162.942 E8.26172
G1 X161.953 Y163.846 E8.30115
G1 X161.591 Y164.722 E8.34056
G1 X161.156 Y165.565 E8.38
G1 X160.652 Y166.368 E8.41941
G1 X160.082 Y167.126 E8.45884
G1 X159.45 Y167.834 E8.4983
G1 X158.76 Y168.485 E8.53774
G1 X158.019 Y169.076 E8.57714
G1 X157.23 Y169.603 E8.61659
G1 X156.399 Y170.061 E8.65604
G1 X155.533 Y170.448 E8.69547
G1 X154.638 Y170.76 E8.73488
G1 X153.719 Y170.996 E8.77433
G1 X152.784 Y171.154 E8.81375
G1 X151.699 Y171.237 E8.85899
G1 X151.378 Y171.246 E8.87234
G1 X151.063 Y171.25 E8.88544
G1 X131.938 Y171.249 E9.68057
G1 X131.243 Y171.239 E9.70946
G1 X130.61 Y171.212 E9.7358
G1 X129.593 Y171.14 E9.77819
G1 X127.001 Y170.993 E9.88613
G1 X124.52 Y170.922 E9.98932
G1 X122.01 Y170.922 E10.09367
G1 X119.465 Y170.993 E10.19952
G1 X116.957 Y171.134 E10.30396
G1 X116.165 Y171.197 E10.33699
G1 X115.765 Y171.223 E10.35365
G1 X115.437 Y171.237 E10.3673
G1 X115.117 Y171.246 E10.38061
G1 X114.801 Y171.25 E10.39375
G1 X95.677 Y171.249 E11.18883
G1 X94.979 Y171.239 E11.21786
G1 X94.032 Y171.185 E11.25729
G1 X93.093 Y171.052 E11.29672
G1 X92.168 Y170.84 E11.33618
G1 X91.265 Y170.552 E11.37558
G1 X90.389 Y170.188 E11.41502
G1 X89.547 Y169.751 E11.45446
G1 X88.745 Y169.245 E11.49389
G1 X87.988 Y168.674 E11.53331
G1 X87.282 Y168.04 E11.57276
G1 X86.631 Y167.35 E11.6122
G1 X86.042 Y166.607 E11.65162
G1 X85.517 Y165.817 E11.69105
G1 X85.06 Y164.986 E11.73048
G1 X84.675 Y164.119 E11.76992
G1 X84.364 Y163.223 E11.80935
G1 X84.13 Y162.304 E11.84878
G1 X83.975 Y161.368 E11.88822
G1 X83.894 Y160.295 E11.93296
G1 X83.885 Y159.963 E11.94677
G1 X83.881 Y159.658 E11.95945
G1 X83.882 Y50.522 E16.4968
G1 X83.891 Y49.857 E16.52445
G1 X83.944 Y48.91 E16.56388
G1 X84.076 Y47.971 E16.6033
G1 X84.287 Y47.046 E16.64275
G1 X84.575 Y46.142 E16.68219
G1 X84.939 Y45.266 E16.72163
G1 X85.374 Y44.424 E16.76103
G0 F9000 X85.871 Y44.564
G1 F1800 X86.375 Y43.785 E16.79961
G1 X86.944 Y43.053 E16.83815
G1 X87.574 Y42.373 E16.87669
G1 X88.26 Y41.749 E16.91525
G1 X88.997 Y41.187 E16.95378
G1 X89.78 Y40.691 E16.99232
G1 X90.603 Y40.263 E17.03088
G1 X91.459 Y39.909 E17.0694
G1 X92.343 Y39.629 E17.10795
G1 X93.248 Y39.427 E17.1465
G1 X94.167 Y39.303 E17.18505
G1 X94.839 Y39.263 E17.21304
G1 X95.16 Y39.254 E17.22639
G1 X95.461 Y39.25 E17.23891
G1 X114.424 Y39.25 E18.0273
G1 X115.274 Y39.261 E18.06264
G1 X115.88 Y39.287 E18.08786
G1 X116.869 Y39.357 E18.12908
G1 X119.481 Y39.505 E18.23785
G1 X122.025 Y39.578 E18.34366
G1 X124.528 Y39.578 E18.44772
G1 X127.066 Y39.507 E18.55328
G1 X129.589 Y39.365 E18.65834
G1 X130.398 Y39.301 E18.69208
G1 X130.788 Y39.277 E18.70832
G1 X131.101 Y39.263 E18.72135
G1 X131.421 Y39.254 E18.73466
G1 X131.723 Y39.25 E18.74721
G1 X150.84 Y39.251 E19.54201
G1 X151.538 Y39.261 E19.57103
G1 X152.464 Y39.314 E19.60959
G1 X153.381 Y39.447 E19.64811
G1 X154.284 Y39.659 E19.68668
G1 X155.165 Y39.947 E19.72521
G1 X156.018 Y40.31 E19.76375
G1 X156.837 Y40.746 E19.80233
G1 X157.615 Y41.25 E19.84087
G1 X158.346 Y41.819 E19.87938
G1 X159.026 Y42.45 E19.91795
G1 X159.649 Y43.136 E19.95648
G1 X160.211 Y43.874 E19.99504
G1 X160.707 Y44.657 E20.03358
G1 X161.133 Y45.481 E20.07214
G1 X161.487 Y46.337 E20.11065
G1 X161.766 Y47.222 E20.14923
G1 X161.968 Y48.127 E20.18778
G1 X162.091 Y49.046 E20.22633
G1 X162.13 Y49.706 E20.25382
G1 X162.139 Y50.024 E20.26705
G1 X162.143 Y50.328 E20.27969
G1 X162.142 Y159.397 E24.81425
G1 X162.133 Y160.124 E24.84448
G1 X162.082 Y161.05 E24.88303
G1 X161.951 Y161.968 E24.92158
G1 X161.741 Y162.871 E24.96013
G1 X161.454 Y163.752 E24.99865
G1 X161.093 Y164.606 E25.0372
G1 X160.659 Y165.426 E25.07577
G1 X160.156 Y166.205 E25.11432
G1 X159.588 Y166.937 E25.15284
G1 X158.959 Y167.618 E25.19138
G1 X158.274 Y168.243 E25.22994
G1 X157.537 Y168.806 E25.26849
G1 X156.755 Y169.303 E25.30702
G1 X155.932 Y169.731 E25.34558
G1 X155.076 Y170.087 E25.38413
G1 X154.193 Y170.368 E25.42265
G1 X153.288 Y170.571 E25.46121
G1 X152.369 Y170.696 E25.49977
G1 X151.685 Y170.737 E25.52826
G1 X151.364 Y170.746 E25.54161
G1 X151.063 Y170.75 E25.55413
G1 X131.945 Y170.749 E26.34896
G1 X131.25 Y170.739 E26.37786
G1 X130.645 Y170.713 E26.40303
G1 X129.656 Y170.643 E26.44426
G1 X127.043 Y170.495 E26.55307
G1 X124.499 Y170.422 E26.65888
G1 X121.996 Y170.422 E26.76294
G1 X119.458 Y170.493 E26.8685
G1 X116.935 Y170.635 E26.97356
G1 X116.126 Y170.699 E27.0073
G1 X115.736 Y170.723 E27.02354
G1 X115.423 Y170.737 E27.03657
G1 X115.103 Y170.746 E27.04988
G1 X114.801 Y170.75 E27.06243
G1 X95.684 Y170.749 E27.85723
G1 X94.986 Y170.739 E27.88625
G1 X94.06 Y170.686 E27.92481
G1 X93.143 Y170.553 E27.96333
G1 X92.24 Y170.341 E28.0019
G1 X91.359 Y170.053 E28.04043
G1 X90.506 Y169.69 E28.07897
G1 X89.687 Y169.254 E28.11755
G1 X88.909 Y168.75 E28.15609
G1 X88.178 Y168.181 E28.1946
G1 X87.498 Y167.55 E28.23317
G1 X86.875 Y166.864 E28.2717
G1 X86.313 Y166.126 E28.31026
G1 X85.817 Y165.343 E28.3488
G1 X85.391 Y164.519 E28.38736
G1 X85.037 Y163.663 E28.42587
G1 X84.758 Y162.778 E28.46445
G1 X84.556 Y161.873 E28.503
G1 X84.433 Y160.954 E28.54155
G1 X84.394 Y160.281 E28.56958
G1 X84.385 Y159.949 E28.58339
G1 X84.381 Y159.658 E28.59549
G1 X84.382 Y50.529 E33.13254
G1 X84.391 Y49.864 E33.16019
G1 X84.443 Y48.938 E33.19875
G1 X84.576 Y48.02 E33.23732
G1 X84.786 Y47.117 E33.27586
G1 X85.074 Y46.236 E33.3144
G1 X85.436 Y45.383 E33.35292
G1 X85.871 Y44.564 E33.39148
G0 F9000 X86.368 Y44.707
G1 F1800 X86.87 Y43.954 E33.4291
G1 X87.436 Y43.248 E33.46672
G1 X88.063 Y42.594 E33.50439
G1 X88.745 Y41.999 E33.54202
G1 X89.477 Y41.466 E33.57966
G1 X90.253 Y40.999 E33.61732
G1 X91.067 Y40.603 E33.65495
G1 X91.912 Y40.28 E33.69256
G1 X92.784 Y40.034 E33.73023
G1 X93.673 Y39.865 E33.76785
G1 X94.853 Y39.763 E33.81709
G1 X95.174 Y39.754 E33.83045
G1 X95.461 Y39.75 E33.84238
G1 X114.424 Y39.75 E34.63077
G1 X115.267 Y39.761 E34.66582
G1 X115.845 Y39.786 E34.68987
G1 X116.806 Y39.854 E34.72993
G1 X119.474 Y40.005 E34.84103
G1 X122.011 Y40.078 E34.94655
G1 X124.542 Y40.078 E35.05177
G1 X127.074 Y40.007 E35.15708
G1 X129.657 Y39.862 E35.26464
G1 X130.438 Y39.8 E35.29721
G1 X130.816 Y39.776 E35.31296
G1 X131.115 Y39.763 E35.3254
G1 X131.435 Y39.754 E35.33871
G1 X131.723 Y39.75 E35.35069
G1 X150.833 Y39.751 E36.14519
G1 X151.531 Y39.761 E36.17421
G1 X152.435 Y39.814 E36.21186
G1 X153.33 Y39.946 E36.24947
G1 X154.211 Y40.157 E36.28713
G1 X155.069 Y40.445 E36.32476
G1 X155.899 Y40.808 E36.36243
G1 X156.693 Y41.242 E36.40005
G1 X157.446 Y41.745 E36.43769
G1 X158.152 Y42.312 E36.47534
G1 X158.804 Y42.939 E36.51295
G1 X159.399 Y43.621 E36.55058
G1 X159.932 Y44.353 E36.58822
G1 X160.398 Y45.13 E36.62589
G1 X160.793 Y45.944 E36.66351
G1 X161.115 Y46.79 E36.70114
G1 X161.361 Y47.661 E36.73877
G1 X161.53 Y48.551 E36.77643
G1 X161.63 Y49.72 E36.82521
G1 X161.639 Y50.038 E36.83844
G1 X161.643 Y50.328 E36.8505
G1 X161.642 Y159.391 E41.38481
G1 X161.633 Y160.118 E41.41504
G1 X161.582 Y161.022 E41.45268
G1 X161.451 Y161.918 E41.49033
G1 X161.242 Y162.798 E41.52793
G1 X160.956 Y163.657 E41.56557
G1 X160.595 Y164.488 E41.60324
G1 X160.162 Y165.283 E41.64088
G1 X159.661 Y166.037 E41.67851
G1 X159.095 Y166.744 E41.71617
G1 X158.47 Y167.398 E41.75377
G1 X157.788 Y167.994 E41.79143
G1 X157.057 Y168.528 E41.82907
G1 X156.282 Y168.995 E41.86669
G1 X155.468 Y169.392 E41.90434
G1 X154.623 Y169.716 E41.94196
G1 X153.752 Y169.964 E41.97961
G1 X152.863 Y170.134 E42.01724
G1 X151.671 Y170.237 E42.06699
G1 X151.35 Y170.246 E42.08034
G1 X151.063 Y170.25 E42.09227
G1 X131.953 Y170.249 E42.88677
G1 X131.258 Y170.239 E42.91567
G1 X130.681 Y170.214 E42.93968
G1 X129.724 Y170.146 E42.97957
G1 X127.05 Y169.995 E43.09092
G1 X124.513 Y169.922 E43.19644
G1 X121.982 Y169.922 E43.30167
G1 X119.45 Y169.993 E43.40697
G1 X116.867 Y170.138 E43.51453
G1 X116.086 Y170.2 E43.54711
G1 X115.708 Y170.224 E43.56285
G1 X115.409 Y170.237 E43.57529
G1 X115.089 Y170.246 E43.5886
G1 X114.801 Y170.25 E43.60058
G1 X95.691 Y170.249 E44.39508
G1 X94.993 Y170.239 E44.4241
G1 X94.089 Y170.186 E44.46175
G1 X93.194 Y170.054 E44.49936
G1 X92.313 Y169.843 E44.53703
G1 X91.455 Y169.555 E44.57465
G1 X90.625 Y169.192 E44.61232
G1 X89.831 Y168.758 E44.64994
G1 X89.078 Y168.255 E44.68759
G1 X88.372 Y167.688 E44.72523
G1 X87.72 Y167.061 E44.76284
G1 X87.125 Y166.379 E44.80047
G1 X86.592 Y165.647 E44.83811
G1 X86.126 Y164.87 E44.87578
G1 X85.731 Y164.056 E44.9134
G1 X85.409 Y163.21 E44.95103
G1 X85.163 Y162.339 E44.98866
G1 X84.994 Y161.449 E45.02632
G1 X84.894 Y160.268 E45.0756
G1 X84.885 Y159.936 E45.08941
G1 X84.881 Y159.658 E45.10097
G1 X84.882 Y50.535 E49.63777
G1 X84.891 Y49.87 E49.66542
G1 X84.943 Y48.966 E49.70307
G1 X85.075 Y48.071 E49.74068
G1 X85.285 Y47.19 E49.77834
G1 X85.572 Y46.332 E49.81595
G1 X85.934 Y45.502 E49.8536
G1 X86.368 Y44.707 E49.89125
G1 F1500 E43.39125
;MESH:laptopplate.stl
G0 F9000 X94.466 Y50.42
G0 X95.551 Y50.42
G0 X96.713 Y158.418
G0 X113.731 Y158.6
;TYPE:WALL-INNER
G1 F1500 E49.89125
G1 F1800 X96.531 Y158.6 E50.46333
G1 X96.531 Y51.4 E54.02882
G1 X113.731 Y51.4 E54.60089
G1 X113.731 Y158.6 E58.16638
G0 F9000 X114.131 Y159
G1 F1800 X96.131 Y159 E58.76506
G1 X96.131 Y51 E62.35715
G1 X114.131 Y51 E62.95584
G1 X114.131 Y159 E66.54793
G0 F9000 X114.531 Y159.4
G1 F1800 X95.731 Y159.4 E67.17322
G1 X95.731 Y50.6 E70.79192
G1 X114.531 Y50.6 E71.41721
G1 X114.531 Y159.4 E75.03592
G0 F9000 X114.931 Y159.8
;TYPE:WALL-OUTER
G1 F1800 X95.331 Y159.8 E75.68782
G1 X95.331 Y50.2 E79.33313
G1 X114.931 Y50.2 E79.98502
G1 X114.931 Y159.8 E83.63034
G0 F9000 X114.661 Y159.53
G0 X113.621 Y158.21
G0 X113.341 Y158.21
;TYPE:SKIN
G1 F1800 X96.921 Y158.21 E84.17647
G1 X96.921 Y51.79 E87.71601
G1 X113.341 Y51.79 E88.26214
G1 X113.341 Y158.21 E91.80169
G0 F9000 X113.621 Y158.21
G0 X97.52 Y158.49
G0 X97.52 Y158.048
G1 F1800 X97.08 Y157.608 E91.82238
G0 F9000 X97.08 Y157.042
G1 F1800 X98.086 Y158.048 E91.8697
G0 F9000 X98.652 Y158.048
G1 F1800 X97.08 Y156.477 E91.94362
G0 F9000 X97.08 Y155.911
G1 F1800 X99.217 Y158.048 E92.04414
G0 F9000 X99.783 Y158.048
G1 F1800 X97.08 Y155.345 E92.17128
G0 F9000 X97.08 Y154.78
G1 F1800 X100.349 Y158.048 E92.32502
G0 F9000 X100.914 Y158.048
G1 F1800 X97.08 Y154.214 E92.50536
G0 F9000 X97.08 Y153.648
G1 F1800 X101.48 Y158.048 E92.71232
G0 F9000 X102.046 Y158.048
G1 F1800 X97.08 Y153.082 E92.94591
G0 F9000 X97.08 Y152.517
G1 F1800 X102.611 Y158.048 E93.20607
G0 F9000 X103.177 Y158.048
G1 F1800 X97.08 Y151.951 E93.49285
G0 F9000 X97.08 Y151.385
G1 F1800 X103.743 Y158.048 E93.80626
G0 F9000 X104.308 Y158.048
G1 F1800 X97.08 Y150.82 E94.14624
G0 F9000 X97.08 Y150.254
G1 F1800 X104.874 Y158.048 E94.51285
G0 F9000 X105.44 Y158.048
G1 F1800 X97.08 Y149.688 E94.90608
G0 F9000 X97.08 Y149.123
G1 F1800 X106.005 Y158.048 E95.32588
G0 F9000 X106.571 Y158.048
G1 F1800 X97.08 Y148.557 E95.77231
G0 F9000 X97.08 Y147.991
G1 F1800 X107.137 Y158.048 E96.24536
G0 F9000 X107.702 Y158.048
G1 F1800 X97.08 Y147.426 E96.74499
G0 F9000 X97.08 Y146.86
G1 F1800 X108.268 Y158.048 E97.27123
G0 F9000 X108.834 Y158.048
G1 F1800 X97.08 Y146.294 E97.82411
G0 F9000 X97.08 Y145.729
G1 F1800 X109.4 Y158.048 E98.40358
G0 F9000 X109.965 Y158.048
G1 F1800 X97.08 Y145.163 E99.00965
G0 F9000 X97.08 Y144.597
G1 F1800 X110.531 Y158.048 E99.64234
G0 F9000 X111.097 Y158.048
G1 F1800 X97.08 Y144.031 E100.30166
G0 F9000 X97.08 Y143.466
G1 F1800 X111.662 Y158.048 E100.98755
G0 F9000 X112.228 Y158.048
G1 F1800 X97.08 Y142.9 E101.70007
G0 F9000 X97.08 Y142.334
G1 F1800 X112.794 Y158.048 E102.43921
G0 F9000 X113.18 Y157.87
G1 F1800 X97.08 Y141.769 E103.19652
G0 F9000 X97.08 Y141.203
G1 F1800 X113.18 Y157.304 E103.95384
G0 F9000 X113.18 Y156.738
G1 F1800 X97.08 Y140.637 E104.71116
G0 F9000 X97.08 Y140.072
G1 F1800 X113.18 Y156.173 E105.46848
G0 F9000 X113.18 Y155.607
G1 F1800 X97.08 Y139.506 E106.2258
G0 F9000 X97.08 Y138.94
G1 F1800 X113.18 Y155.041 E106.98311
G0 F9000 X113.18 Y154.475
G1 F1800 X97.08 Y138.375 E107.74041
G0 F9000 X97.08 Y137.809
G1 F1800 X113.18 Y153.91 E108.49773
G0 F9000 X113.18 Y153.344
G1 F1800 X97.08 Y137.243 E109.25505
G0 F9000 X97.08 Y136.678
G1 F1800 X113.18 Y152.778 E110.01234
G0 F9000 X113.18 Y152.213
G1 F1800 X97.08 Y136.112 E110.76966
G0 F9000 X97.08 Y135.546
G1 F1800 X113.18 Y151.647 E111.52698
G0 F9000 X113.18 Y151.081
G1 F1800 X97.08 Y134.981 E112.28427
G0 F9000 X97.08 Y134.415
G1 F1800 X113.18 Y150.516 E113.04159
G0 F9000 X113.18 Y149.95
G1 F1800 X97.08 Y133.849 E113.79891
G0 F9000 X97.08 Y133.283
G1 F1800 X113.18 Y149.384 E114.55623
G0 F9000 X113.18 Y148.819
G1 F1800 X97.08 Y132.718 E115.31354
G0 F9000 X97.08 Y132.152
G1 F1800 X113.18 Y148.253 E116.07086
G0 F9000 X113.18 Y147.687
G1 F1800 X97.08 Y131.586 E116.82818
G0 F9000 X97.08 Y131.021
G1 F1800 X113.18 Y147.122 E117.5855
G0 F9000 X113.18 Y146.556
G1 F1800 X97.08 Y130.455 E118.34282
G0 F9000 X97.08 Y129.889
G1 F1800 X113.18 Y145.99 E119.10013
G0 F9000 X113.18 Y145.424
G1 F1800 X97.08 Y129.324 E119.85743
G0 F9000 X97.08 Y128.758
G1 F1800 X113.18 Y144.859 E120.61475
G0 F9000 X113.18 Y144.293
G1 F1800 X97.08 Y128.192 E121.37207
G0 F9000 X97.08 Y127.627
G1 F1800 X113.18 Y143.727 E122.12936
G0 F9000 X113.18 Y143.162
G1 F1800 X97.08 Y127.061 E122.88668
G0 F9000 X97.08 Y126.495
G1 F1800 X113.18 Y142.596 E123.644
G0 F9000 X113.18 Y142.03
G1 F1800 X97.08 Y125.93 E124.40129
G0 F9000 X97.08 Y125.364
G1 F1800 X113.18 Y141.465 E125.15861
G0 F9000 X113.18 Y140.899
G1 F1800 X97.08 Y124.798 E125.91593
G0 F9000 X97.08 Y124.233
G1 F1800 X113.18 Y140.333 E126.67322
G0 F9000 X113.18 Y139.768
G1 F1800 X97.08 Y123.667 E127.43054
G0 F9000 X97.08 Y123.101
G1 F1800 X113.18 Y139.202 E128.18786
G0 F9000 X113.18 Y138.636
G1 F1800 X97.08 Y122.535 E128.94518
G0 F9000 X97.08 Y121.97
G1 F1800 X113.18 Y138.071 E129.70249
G0 F9000 X113.18 Y137.505
G1 F1800 X97.08 Y121.404 E130.45981
G0 F9000 X97.08 Y120.838
G1 F1800 X113.18 Y136.939 E131.21713
