;FLAVOR:Marlin
;TIME:1815
;Filament used: 0.361626m
;Layer height: 0.1
;MINX:105.743
;MINY:83.243
;MINZ:0.144
;MAXX:149.236
;MAXY:126.76
;MAXZ:6.664
;Generated with Cura_SteamEngine master
M140 S60
M105
M190 S60
M104 S210
M105
M109 S210
M82 ;absolute extrusion mode
M220 S100 ;reset feedrate
M221 S100 ;reset flowrate
G90 ;use absolute coordinates
M82 ;absolute extrusion mode
G28 ;home
G1 Z2 F1500 ;raise z
G92 E0 ;reset extruder

G1 X75 Y5 F5000 ;start position
G1 Z0.28 F1500 ;lower z
G1 E4 F500 ;prime the filament
G1 X180 E10 F500 ;1st line
G1 Y5.4 F5000
G1 X75 E20 F500 ;2nd line
G1 Z2 F1500 ;raise z
G92 E0 ;reset extruder
G92 E0
G92 E0
G1 F1500 E-6.5
;LAYER_COUNT:60
;LAYER:-7
M107
G0 F9000 X111.338 Y91.831 Z0.144
;TYPE:SUPPORT-INTERFACE
G1 F1500 E0
G1 F787.5 X111.424 Y91.729 E0.00399
G1 X112.286 Y90.751 E0.04302
G1 X112.378 Y90.651 E0.04709
G1 X112.817 Y90.201 E0.0659
G1 X113.518 Y89.534 E0.09487
G1 X113.614 Y89.446 E0.09877
G1 X113.984 Y89.135 E0.11324
G1 X114.093 Y89.04 E0.11756
G1 X114.449 Y88.747 E0.13137
G1 X114.569 Y88.653 E0.13593
G1 X115.66 Y87.844 E0.17659
G1 X115.809 Y87.742 E0.18199
G1 X116.343 Y87.392 E0.2011
G1 X117.188 Y86.88 E0.23068
G1 X117.37 Y86.78 E0.23689
G1 X117.605 Y86.665 E0.24473
G1 X117.992 Y86.453 E0.25793
G1 X118.425 Y86.236 E0.27243
G1 X118.494 Y86.204 E0.27471
G1 X119.818 Y85.625 E0.31797
G1 X119.924 Y85.582 E0.32139
G1 X120.44 Y85.388 E0.33789
G1 X120.513 Y85.362 E0.34021
G1 X121.639 Y84.991 E0.3757
G1 X122.103 Y84.867 E0.39008
G1 X122.695 Y84.719 E0.40834
G1 X122.804 Y84.694 E0.41169
G1 X124.185 Y84.424 E0.45381
G1 X124.332 Y84.4 E0.45827
G1 X124.899 Y84.322 E0.4754
G1 X125.926 Y84.214 E0.50632
G1 X126.059 Y84.203 E0.51031
G1 X126.618 Y84.177 E0.52706
G1 X127.262 Y84.159 E0.54635
G1 X127.622 Y84.154 E0.55712
G1 X127.745 Y84.157 E0.56081
G1 X128.867 Y84.204 E0.59442
G1 X129.035 Y84.216 E0.59946
G1 X129.651 Y84.27 E0.61797
G1 X130.438 Y84.362 E0.64169
G1 X131.248 Y84.5 E0.66629
G1 X131.764 Y84.601 E0.68203
G1 X131.915 Y84.634 E0.68665
G1 X132.98 Y84.89 E0.71944
G1 X133.1 Y84.921 E0.72315
G1 X133.42 Y85.018 E0.73316
G1 X134.282 Y85.289 E0.76021
G1 X135.532 Y85.77 E0.8003
G1 X135.668 Y85.826 E0.80471
G1 X136.196 Y86.059 E0.82198
G1 X136.857 Y86.371 E0.84386
G1 X137.688 Y86.819 E0.87212
G1 X138.236 Y87.137 E0.89109
G1 X138.473 Y87.281 E0.89939
G1 X139.528 Y87.982 E0.9373
G1 X140.032 Y88.35 E0.95598
G1 X140.106 Y88.405 E0.95874
G1 X140.876 Y89.014 E0.98813
G1 X141.002 Y89.122 E0.9931
G1 X141.243 Y89.344 E1.00291
G1 X141.488 Y89.555 E1.01259
G1 X141.872 Y89.909 E1.02822
G1 X142.301 Y90.32 E1.046
G1 X142.972 Y91.04 E1.07547
G1 X143.07 Y91.149 E1.07985
G1 X143.468 Y91.61 E1.09808
G1 X143.831 Y92.046 E1.11507
G1 X144.447 Y92.873 E1.14593
G1 X144.857 Y93.469 E1.16759
G1 X145.362 Y94.26 E1.19568
G1 X145.713 Y94.877 E1.21693
G1 X145.979 Y95.368 E1.23365
G1 X146.211 Y95.816 E1.24875
G1 X146.684 Y96.86 E1.28306
G1 X146.948 Y97.515 E1.3042
G1 X147.435 Y98.93 E1.34899
G1 X147.475 Y99.066 E1.35324
G1 X147.628 Y99.611 E1.37018
G1 X147.693 Y99.868 E1.37812
G1 X147.768 Y100.154 E1.38697
G1 X147.983 Y101.176 E1.41823
G1 X148.005 Y101.287 E1.42162
G1 X148.106 Y101.893 E1.44001
G1 X148.154 Y102.2 E1.44931
G1 X148.286 Y103.522 E1.48908
G1 X148.323 Y104.213 E1.50979
G1 X148.344 Y104.973 E1.53255
G1 X148.322 Y105.812 E1.55767
G1 X148.287 Y106.457 E1.57701
G1 X148.161 Y107.74 E1.6156
G1 X148.106 Y108.112 E1.62686
G1 X147.989 Y108.803 E1.64783
G1 X147.794 Y109.756 E1.67695
G1 X147.762 Y109.889 E1.68105
G1 X147.627 Y110.399 E1.69684
G1 X147.449 Y111.025 E1.71632
G1 X147.248 Y111.67 E1.73654
G1 X146.923 Y112.545 E1.76449
G1 X146.709 Y113.071 E1.78148
G1 X146.596 Y113.322 E1.78972
G1 X146.483 Y113.599 E1.79868
G1 X146.404 Y113.775 E1.80445
G1 X145.991 Y114.605 E1.83221
G1 X145.932 Y114.719 E1.83605
G1 X145.724 Y115.101 E1.84907
G1 X145.565 Y115.372 E1.85847
G1 X145.407 Y115.663 E1.86838
G1 X145.309 Y115.828 E1.87413
G1 X144.769 Y116.664 E1.90392
G1 X144.494 Y117.059 E1.91833
G1 X144.369 Y117.223 E1.9245
G1 X143.984 Y117.756 E1.94418
G1 X143.887 Y117.882 E1.94894
G1 X143.393 Y118.481 E1.97218
G1 X142.959 Y118.975 E1.99187
G1 X142.284 Y119.698 E2.02148
G1 X141.758 Y120.198 E2.0432
G1 X141.386 Y120.538 E2.05829
G1 X141.191 Y120.706 E2.06599
G1 X140.937 Y120.933 E2.07619
G1 X140.156 Y121.555 E2.10607
G1 X140.043 Y121.642 E2.11034
G1 X139.525 Y122.021 E2.12956
G1 X139.014 Y122.38 E2.14825
G1 X138.204 Y122.881 E2.17676
G1 X138.068 Y122.962 E2.1815
G1 X137.538 Y123.264 E2.19976
G1 X136.908 Y123.601 E2.22115
G1 X136.82 Y123.647 E2.22412
G1 X136.105 Y123.98 E2.24773
G1 X135.567 Y124.215 E2.2653
G1 X134.602 Y124.598 E2.29638
G1 X134.442 Y124.655 E2.30147
G1 X134.019 Y124.791 E2.31477
G1 X133.891 Y124.835 E2.31882
G1 X133.364 Y125 E2.33535
G1 X133.075 Y125.086 E2.34437
G1 X133.003 Y125.105 E2.3466
G1 X131.835 Y125.384 E2.38255
G1 X131.755 Y125.402 E2.385
G1 X131.151 Y125.519 E2.40342
G1 X130.381 Y125.648 E2.42679
G1 X129.548 Y125.741 E2.45188
G1 X128.924 Y125.793 E2.47062
G1 X128.829 Y125.799 E2.47347
G1 X127.644 Y125.847 E2.50897
G1 X127.209 Y125.841 E2.522
G1 X126.507 Y125.819 E2.54302
G1 X125.542 Y125.754 E2.57197
G1 X125.377 Y125.738 E2.57694
G1 X124.867 Y125.675 E2.59232
G1 X124.291 Y125.595 E2.60973
G1 X124.159 Y125.572 E2.61374
G1 X122.708 Y125.284 E2.65802
G1 X122.593 Y125.258 E2.66155
G1 X121.998 Y125.107 E2.67992
G1 X121.642 Y125.01 E2.69097
G1 X120.513 Y124.639 E2.72654
G1 X120.391 Y124.595 E2.73042
G1 X119.797 Y124.37 E2.74944
G1 X119.22 Y124.137 E2.76806
G1 X118.426 Y123.765 E2.79431
G1 X118.286 Y123.697 E2.79897
G1 X117.81 Y123.456 E2.81494
G1 X116.886 Y122.945 E2.84655
G1 X116.755 Y122.868 E2.8511
G1 X116.247 Y122.546 E2.8691
G1 X115.736 Y122.211 E2.88739
G1 X115.649 Y122.149 E2.89059
G1 X114.519 Y121.307 E2.93277
G1 X114.402 Y121.215 E2.93723
G1 X113.993 Y120.877 E2.95311
G1 X113.905 Y120.8 E2.95661
G1 X112.911 Y119.894 E2.99687
G1 X112.403 Y119.372 E3.01867
G1 X112.308 Y119.265 E3.02296
G1 X111.778 Y118.693 E3.0463
G1 X111.678 Y118.578 E3.05086
G1 X111.231 Y118.034 E3.07194
G1 X110.813 Y117.493 E3.0924
G1 X110.194 Y116.634 E3.1241
G1 X109.881 Y116.142 E3.14155
G1 X109.618 Y115.711 E3.15667
G1 X109.465 Y115.444 E3.16588
G1 X109.324 Y115.213 E3.17398
G1 X109.241 Y115.065 E3.17906
G1 X108.781 Y114.174 E3.20907
G1 X108.524 Y113.629 E3.22711
G1 X108.464 Y113.495 E3.23151
G1 X108.088 Y112.612 E3.26024
G1 X108.044 Y112.498 E3.26389
G1 X107.933 Y112.187 E3.27378
G1 X107.849 Y111.954 E3.28119
G1 X107.649 Y111.37 E3.29967
G1 X107.619 Y111.268 E3.30285
G1 X107.241 Y109.909 E3.34508
G1 X107.216 Y109.81 E3.34813
G1 X107.092 Y109.256 E3.36513
G1 X107.074 Y109.166 E3.36788
G1 X106.873 Y108.055 E3.40167
G1 X106.811 Y107.554 E3.41678
G1 X106.748 Y106.989 E3.4338
G1 X106.741 Y106.896 E3.43659
G1 X106.657 Y105.363 E3.48255
G1 X106.655 Y105.282 E3.48498
G1 X106.657 Y104.642 E3.50413
G1 X106.693 Y103.637 E3.53424
G1 X106.702 Y103.502 E3.53829
G1 X106.748 Y103.003 E3.55329
G1 X106.82 Y102.36 E3.57266
G1 X106.873 Y101.949 E3.58506
G1 X106.893 Y101.826 E3.58879
G1 X107.086 Y100.78 E3.62063
G1 X107.108 Y100.671 E3.62396
G1 X107.229 Y100.136 E3.64038
G1 X107.26 Y100.007 E3.64435
G1 X107.458 Y99.241 E3.66803
G1 X107.701 Y98.473 E3.69215
G1 X107.902 Y97.891 E3.71058
G1 X108.264 Y96.958 E3.74053
G1 X108.329 Y96.805 E3.74551
G1 X108.501 Y96.434 E3.75775
G1 X108.564 Y96.286 E3.76257
G1 X108.807 Y95.774 E3.77953
G1 X108.923 Y95.535 E3.78748
G1 X108.978 Y95.432 E3.79098
G1 X109.593 Y94.328 E3.82881
G1 X109.915 Y93.804 E3.84722
G1 X110.486 Y92.947 E3.87804
G1 X110.55 Y92.857 E3.88135
G1 X110.872 Y92.433 E3.89729
G1 X110.929 Y92.355 E3.90018
G1 X111.338 Y91.831 E3.92008
G0 F9000 X111 Y92.264
G1 F787.5 X111 Y117.735 E4.68253
G0 F9000 X112 Y118.932
G1 F787.5 X112 Y91.075 E5.5164
G0 F9000 X113 Y90.026
G1 F787.5 X113 Y119.975 E6.4129
G0 F9000 X114 Y120.882
G1 F787.5 X114 Y89.121 E7.36364
G0 F9000 X115 Y88.333
G1 F787.5 X115 Y121.665 E8.3614
G0 F9000 X116 Y122.384
G1 F787.5 X116 Y87.616 E9.40215
G0 F9000 X117 Y86.993
G1 F787.5 X117 Y123.008 E10.48023
G0 F9000 X118 Y123.552
G1 F787.5 X118 Y86.448 E11.5909
G0 F9000 X119 Y85.982
G1 F787.5 X119 Y124.033 E12.72993
G0 F9000 X120 Y124.446
G1 F787.5 X120 Y85.553 E13.89416
G0 F9000 X121 Y85.201
G1 F787.5 X121 Y124.799 E15.07949
G0 F9000 X122 Y125.107
G1 F787.5 X122 Y84.894 E16.28323
G0 F9000 X123 Y84.655
G1 F787.5 X123 Y125.341 E17.50113
G0 F9000 X124 Y125.54
G1 F787.5 X124 Y84.46 E18.73082
G0 F9000 X125 Y84.311
G1 F787.5 X125 Y125.691 E19.9695
G0 F9000 X126 Y125.784
G1 F787.5 X126 Y84.207 E21.21407
G0 F9000 X127 Y84.166
G1 F787.5 X127 Y125.834 E22.46136
G0 F9000 X128 Y125.833
G1 F787.5 X128 Y84.168 E23.70857
G0 F9000 X129 Y84.214
G1 F787.5 X129 Y125.787 E24.95302
G0 F9000 X130 Y125.691
G1 F787.5 X130 Y84.311 E26.19169
G0 F9000 X131 Y84.458
G1 F787.5 X131 Y125.545 E27.42159
G0 F9000 X132 Y125.345
G1 F787.5 X132 Y84.655 E28.63961
G0 F9000 X133 Y84.896
G1 F787.5 X133 Y125.106 E29.84327
G0 F9000 X134 Y124.798
G1 F787.5 X134 Y85.201 E31.02857
G0 F9000 X135 Y85.566
G1 F787.5 X135 Y124.441 E32.19226
G0 F9000 X136 Y124.026
G1 F787.5 X136 Y85.973 E33.33134
G0 F9000 X137 Y86.449
G1 F787.5 X137 Y123.552 E34.44198
G0 F9000 X138 Y123.001
G1 F787.5 X138 Y87.001 E35.51961
G0 F9000 X139 Y87.632
G1 F787.5 X139 Y122.389 E36.56003
G0 F9000 X140 Y121.674
G1 F787.5 X140 Y88.327 E37.55825
G0 F9000 X141 Y89.121
G1 F787.5 X141 Y120.877 E38.50883
G0 F9000 X142 Y119.968
G1 F787.5 X142 Y90.032 E39.40494
G0 F9000 X143 Y91.072
G1 F787.5 X143 Y118.929 E40.23882
G0 F9000 X144 Y117.734
G1 F787.5 X144 Y92.273 E41.00097
G0 F9000 X145 Y93.693
G1 F787.5 X145 Y116.307 E41.6779
G0 F9000 X146 Y114.587
G1 F787.5 X146 Y95.409 E42.25198
G0 F9000 X147 Y97.667
G1 F787.5 X147 Y112.338 E42.69114
G1 F1500 E36.19114
G0 F9000 X147.858 Y112.655
G0 X148.452 Y110.81
G0 X148.886 Y108.98
G0 X148 Y108.739
G1 F1500 E42.69114
G1 F787.5 X148 Y101.262 E42.91496
G1 F1500 E36.41496
G0 F9000 X148.879 Y100.991
G0 X148.305 Y98.649
G0 X147.527 Y96.505
G0 X146.511 Y94.432
G0 X145.193 Y92.344
G0 X143.756 Y90.545
G0 X142.5 Y89.243
G0 X140.667 Y87.683
G0 X138.703 Y86.351
G0 X136.572 Y85.225
G0 X134.326 Y84.343
G0 X132.121 Y83.744
G0 X129.75 Y83.362
G0 X127.239 Y83.245
G0 X125.613 Y83.315
G0 X124.026 Y83.523
G0 X121.39 Y84.11
G0 X119.466 Y84.781
G0 X117.536 Y85.661
G0 X115.831 Y86.634
G0 X113.879 Y88.032
G0 X112.11 Y89.615
G0 X110.561 Y91.341
G0 X109.239 Y93.17
G0 X110 Y93.676
G1 F1500 E42.91496
G1 F787.5 X110 Y116.329 E43.59305
G0 F9000 X109 Y114.598
G1 F787.5 X109 Y95.392 E44.16797
G0 F9000 X108 Y97.638
G1 F787.5 X108 Y112.374 E44.60908
G1 F1500 E38.10908
G0 F9000 X107.058 Y112.451
G0 X106.644 Y111.073
G0 X106.176 Y109.337
G0 X107 Y108.756
G1 F1500 E44.60908
G1 F787.5 X107 Y101.246 E44.83388
G1 F1500 E38.33388
G0 F300 X107 Y101.246 Z0.294
G0 F9000 X106.1 Y101.081
G0 X105.791 Y103.426
G0 X105.743 Y105.402
G0 X105.913 Y107.746
G0 X106.358 Y110.146
G0 X107.06 Y112.459
G0 X107.965 Y114.586
G0 X109.104 Y116.625
G0 X110.249 Y118.229
G0 X111.095 Y119.301
G0 X111.971 Y118.901
;TIME_ELAPSED:122.314745
;LAYER:-6
;TYPE:SUPPORT
G1 F1500 E44.83388
G1 F787.5 X113.504 Y120.433 E44.90146
G1 X112.91 Y119.892 E44.92652
G1 X112.403 Y119.37 E44.94921
G1 X112.307 Y119.264 E44.95366
G0 F9000 X113.504 Y120.433
G1 F787.5 X113.905 Y120.799 E44.97059
G1 X113.993 Y120.876 E44.97424
G1 X114.402 Y121.214 E44.99078
G1 X114.519 Y121.306 E44.99543
G1 X115.648 Y122.148 E45.03934
G1 X115.735 Y122.209 E45.04265
G1 X116.246 Y122.545 E45.06172
G1 X116.755 Y122.867 E45.0805
G1 X116.886 Y122.944 E45.08524
G1 X117.151 Y123.091 E45.09469
G1 X109.404 Y115.343 E45.43633
G1 X109.323 Y115.212 E45.44114
G1 X109.24 Y115.064 E45.44643
G1 X108.78 Y114.172 E45.47772
G1 X108.523 Y113.627 E45.49651
G1 X108.463 Y113.494 E45.50106
G1 X108.403 Y113.353 E45.50584
G1 X119.155 Y124.105 E45.97997
G1 X119.22 Y124.136 E45.98222
G1 X119.797 Y124.369 E46.00162
G1 X120.391 Y124.594 E46.02143
G1 X120.512 Y124.638 E46.02544
G1 X120.758 Y124.718 E46.03351
G1 X107.773 Y111.733 E46.60611
G1 X107.648 Y111.369 E46.61811
G1 X107.618 Y111.267 E46.62142
G1 X107.357 Y110.327 E46.65184
G1 X122.183 Y125.152 E47.3056
G1 X122.593 Y125.257 E47.3188
G1 X122.707 Y125.283 E47.32245
G1 X123.45 Y125.43 E47.34606
G1 X107.048 Y109.028 E48.06935
G1 X106.873 Y108.054 E48.1002
G1 X106.845 Y107.835 E48.10709
G1 X124.654 Y125.644 E48.89241
G1 X124.866 Y125.674 E48.89909
G1 X125.377 Y125.737 E48.91514
G1 X125.542 Y125.753 E48.92031
G1 X125.768 Y125.768 E48.92737
G1 X106.732 Y106.732 E49.76681
G1 X106.673 Y105.683 E49.79957
G1 X126.818 Y125.828 E50.68791
G1 X127.208 Y125.84 E50.70007
G1 X127.643 Y125.847 E50.71364
G1 X127.819 Y125.839 E50.71913
G1 X106.655 Y104.675 E51.6524
G1 X106.655 Y104.641 E51.65346
G1 X106.688 Y103.718 E51.68226
G1 X128.771 Y125.801 E52.65606
G1 X128.828 Y125.799 E52.65784
G1 X128.923 Y125.793 E52.6608
G1 X129.546 Y125.741 E52.6803
G1 X129.685 Y125.725 E52.68466
G1 X106.768 Y102.809 E53.69521
G1 X106.819 Y102.36 E53.7093
G1 X106.872 Y101.949 E53.72222
G1 X106.875 Y101.925 E53.72298
G1 X130.565 Y125.616 E54.76766
G1 X131.15 Y125.519 E54.78615
G1 X131.408 Y125.469 E54.79435
G1 X107.028 Y101.088 E55.86946
G1 X107.085 Y100.779 E55.87925
G1 X107.106 Y100.67 E55.88272
G1 X107.198 Y100.268 E55.89557
G1 X132.221 Y125.291 E56.99902
G1 X133.001 Y125.104 E57.02403
G1 X133.019 Y125.099 E57.02461
G1 X107.396 Y99.476 E58.15451
G1 X107.457 Y99.241 E58.16208
G1 X107.623 Y98.714 E58.17931
G1 X133.778 Y124.869 E59.33267
G1 X133.889 Y124.834 E59.3363
G1 X134.018 Y124.79 E59.34055
G1 X134.441 Y124.655 E59.35439
G1 X134.524 Y124.625 E59.35715
G1 X107.872 Y97.973 E60.53242
G1 X107.9 Y97.891 E60.53512
G1 X108.146 Y97.256 E60.55636
G1 X135.235 Y124.346 E61.75093
G1 X135.566 Y124.214 E61.76204
G1 X135.933 Y124.054 E61.77452
G1 X108.44 Y96.561 E62.98689
G1 X108.499 Y96.433 E62.99128
G1 X108.562 Y96.286 E62.99627
G1 X108.753 Y95.883 E63.01017
G1 X136.612 Y123.742 E64.23867
G1 X136.818 Y123.646 E64.24576
G1 X136.907 Y123.6 E64.24889
G1 X137.267 Y123.407 E64.26162
G1 X109.088 Y95.229 E65.50421
G1 X109.443 Y94.593 E65.52692
G1 X137.904 Y123.054 E66.78197
G1 X138.067 Y122.962 E66.78781
G1 X138.202 Y122.881 E66.79272
G1 X138.522 Y122.683 E66.80445
G1 X109.81 Y93.971 E68.07057
G1 X109.914 Y93.804 E68.0767
G1 X110.201 Y93.372 E68.09287
G1 X139.128 Y122.299 E69.36847
G1 X139.524 Y122.02 E69.38358
G1 X139.705 Y121.886 E69.3906
G1 X110.603 Y92.784 E70.67391
G1 X110.871 Y92.432 E70.68771
G1 X110.928 Y92.355 E70.6907
G1 X111.031 Y92.222 E70.69594
G1 X140.27 Y121.461 E71.9853
G1 X140.822 Y121.023 E72.00727
G1 X111.471 Y91.672 E73.30156
G1 X111.935 Y91.146 E73.32344
G1 X141.353 Y120.564 E74.62068
G1 X141.385 Y120.538 E74.62197
G1 X141.757 Y120.197 E74.63771
G1 X141.869 Y120.09 E74.64254
G1 X112.403 Y90.624 E75.9419
G1 X112.816 Y90.201 E75.96034
G1 X112.895 Y90.126 E75.96373
G1 X142.372 Y119.603 E77.26358
G1 X142.85 Y119.091 E77.28542
G1 X113.402 Y89.644 E78.58397
G1 X113.517 Y89.533 E78.58896
G1 X113.613 Y89.446 E78.593
G1 X113.929 Y89.181 E78.60586
G1 X143.316 Y118.567 E79.90172
G1 X143.392 Y118.48 E79.90532
G1 X143.766 Y118.027 E79.92364
G1 X114.469 Y88.731 E81.21553
G1 X114.568 Y88.652 E81.21948
G1 X115.035 Y88.307 E81.23758
G1 X144.193 Y117.465 E82.52337
G1 X144.368 Y117.222 E82.5327
G1 X144.493 Y117.058 E82.53913
G1 X144.61 Y116.891 E82.54549
G1 X115.604 Y87.885 E83.82457
G1 X115.659 Y87.844 E83.82671
G1 X115.792 Y87.751 E83.83177
G1 X116.196 Y87.488 E83.8468
G1 X145.005 Y116.297 E85.1172
G1 X145.308 Y115.827 E85.13463
G1 X145.39 Y115.691 E85.13959
G1 X116.808 Y87.109 E86.39997
G1 X117.186 Y86.88 E86.41375
G1 X117.369 Y86.779 E86.42027
G1 X117.436 Y86.747 E86.42258
G1 X145.747 Y115.059 E87.67104
G1 X145.931 Y114.719 E87.68309
G1 X145.99 Y114.605 E87.6871
G1 X146.088 Y114.409 E87.69393
G1 X118.084 Y86.406 E88.9288
G1 X118.424 Y86.235 E88.94067
G1 X118.493 Y86.204 E88.94303
G1 X118.757 Y86.088 E88.95202
G1 X146.416 Y113.748 E90.17172
G1 X146.482 Y113.598 E90.17683
G1 X146.595 Y113.321 E90.18616
G1 X146.708 Y113.071 E90.19472
G1 X146.714 Y113.056 E90.19522
G1 X119.446 Y85.788 E91.39766
G1 X119.817 Y85.624 E91.41031
G1 X119.923 Y85.581 E91.41388
