;FLAVOR:Marlin
;TIME:736
;Filament used: 0.11373m
;Layer height: 0.1
;MINX:121.525
;MINY:99.025
;MINZ:0.12
;MAXX:133.475
;MAXY:110.975
;MAXZ:5.22
;Generated with Cura_SteamEngine master
M140 S60
M105
M190 S60
M104 S210
M105
M109 S210
M82 ;absolute extrusion mode
M220 S100 ;reset feedrate
M221 S100 ;reset flowrate
G90 ;use absolute coordinates
M82 ;absolute extrusion mode
G28 ;home
G1 Z2 F1500 ;raise z
G92 E0 ;reset extruder

G1 X75 Y5 F5000 ;start position
G1 Z0.28 F1500 ;lower z
G1 E4 F500 ;prime the filament
G1 X180 E10 F500 ;1st line
G1 Y5.4 F5000
G1 X75 E20 F500 ;2nd line
G1 Z2 F1500 ;raise z
G92 E0 ;reset extruder
G92 E0
G92 E0
G1 F1500 E-6.5
;LAYER_COUNT:52
;LAYER:0
M107
;MESH:handler_hdd_ver_2.stl
G0 F6000 X126.988 Y107.577 Z0.12
;TYPE:WALL-INNER
G1 F1500 E0
G1 F1050 X127.5 Y107.628 E0.00642
G1 X128.012 Y107.577 E0.01284
G1 X128.505 Y107.428 E0.01926
G1 X128.96 Y107.185 E0.02569
G1 X129.359 Y106.859 E0.03212
G1 X129.685 Y106.46 E0.03855
G1 X129.928 Y106.005 E0.04498
G1 X130.077 Y105.512 E0.0514
G1 X130.128 Y105 E0.05782
G1 X130.077 Y104.488 E0.06424
G1 X129.928 Y103.995 E0.07066
G1 X129.685 Y103.54 E0.07709
G1 X129.359 Y103.141 E0.08352
G1 X128.96 Y102.815 E0.08995
G1 X128.505 Y102.572 E0.09638
G1 X128.012 Y102.423 E0.10281
G1 X127.5 Y102.372 E0.10922
G1 X126.988 Y102.423 E0.11564
G1 X126.495 Y102.572 E0.12206
G1 X126.04 Y102.815 E0.1285
G1 X125.641 Y103.141 E0.13492
G1 X125.315 Y103.54 E0.14135
G1 X125.072 Y103.995 E0.14778
G1 X124.923 Y104.488 E0.15421
G1 X124.872 Y105 E0.16063
G1 X124.923 Y105.512 E0.16704
G1 X125.072 Y106.005 E0.17347
G1 X125.315 Y106.46 E0.1799
G1 X125.641 Y106.859 E0.18633
G1 X126.04 Y107.185 E0.19275
G1 X126.495 Y107.428 E0.19919
G1 X126.988 Y107.577 E0.20561
G0 F6000 X127.037 Y107.331
G1 F1050 X127.5 Y107.377 E0.21141
G1 X127.963 Y107.331 E0.21722
G1 X128.409 Y107.196 E0.22303
G1 X128.821 Y106.976 E0.22885
G1 X129.181 Y106.681 E0.23466
G1 X129.476 Y106.321 E0.24046
G1 X129.696 Y105.909 E0.24629
G1 X129.831 Y105.463 E0.2521
G1 X129.877 Y105 E0.2579
G1 X129.831 Y104.537 E0.26371
G1 X129.696 Y104.091 E0.26952
G1 X129.476 Y103.679 E0.27535
G1 X129.181 Y103.319 E0.28115
G1 X128.821 Y103.024 E0.28696
G1 X128.409 Y102.804 E0.29278
G1 X127.963 Y102.669 E0.29859
G1 X127.5 Y102.623 E0.3044
G1 X127.037 Y102.669 E0.3102
G1 X126.591 Y102.804 E0.31601
G1 X126.179 Y103.024 E0.32184
G1 X125.819 Y103.319 E0.32764
G1 X125.524 Y103.679 E0.33345
G1 X125.304 Y104.091 E0.33927
G1 X125.169 Y104.537 E0.34508
G1 X125.123 Y105 E0.35089
G1 X125.169 Y105.463 E0.35669
G1 X125.304 Y105.909 E0.3625
G1 X125.524 Y106.321 E0.36833
G1 X125.819 Y106.681 E0.37413
G1 X126.179 Y106.976 E0.37994
G1 X126.591 Y107.196 E0.38576
G1 X127.037 Y107.331 E0.39158
G0 F6000 X127.086 Y107.085
;TYPE:WALL-OUTER
G1 F1050 X127.5 Y107.126 E0.39676
G1 X127.914 Y107.085 E0.40195
G1 X128.313 Y106.964 E0.40715
G1 X128.681 Y106.767 E0.41236
G1 X129.003 Y106.503 E0.41755
G1 X129.267 Y106.181 E0.42275
G1 X129.464 Y105.813 E0.42795
G1 X129.585 Y105.414 E0.43315
G1 X129.626 Y105 E0.43834
G1 X129.585 Y104.586 E0.44353
G1 X129.464 Y104.187 E0.44873
G1 X129.267 Y103.819 E0.45394
G1 X129.003 Y103.497 E0.45913
G1 X128.681 Y103.233 E0.46433
G1 X128.313 Y103.036 E0.46953
G1 X127.914 Y102.915 E0.47473
G1 X127.5 Y102.874 E0.47992
G1 X127.086 Y102.915 E0.48511
G1 X126.687 Y103.036 E0.49031
G1 X126.319 Y103.233 E0.49552
G1 X125.997 Y103.497 E0.50071
G1 X125.733 Y103.819 E0.5059
G1 X125.536 Y104.187 E0.51111
G1 X125.415 Y104.586 E0.51631
G1 X125.374 Y105 E0.5215
G1 X125.415 Y105.414 E0.52669
G1 X125.536 Y105.813 E0.53189
G1 X125.733 Y106.181 E0.53709
G1 X125.997 Y106.503 E0.54229
G1 X126.319 Y106.767 E0.54748
G1 X126.687 Y106.964 E0.55269
G1 X127.086 Y107.085 E0.55789
G0 F6000 X127.033 Y107.354
G1 F1500 E-5.94211
G0 F6000 X127.5 Y107.744
G0 X127.648 Y110.33
G0 X128.12 Y110.438
;TYPE:WALL-INNER
G1 F1500 E0.55789
G1 F1050 X127.497 Y110.473 E0.56567
G1 X126.867 Y110.437 E0.57354
G1 X126.284 Y110.339 E0.58091
G1 X125.692 Y110.168 E0.5886
G1 X125.124 Y109.933 E0.59627
G1 X124.581 Y109.631 E0.60402
G1 X124.092 Y109.284 E0.61149
G1 X123.627 Y108.869 E0.61927
G1 X123.218 Y108.411 E0.62693
G1 X122.857 Y107.901 E0.63472
G1 X122.567 Y107.373 E0.64223
G1 X122.326 Y106.793 E0.65007
G1 X122.165 Y106.228 E0.65739
G1 X122.061 Y105.609 E0.66522
G1 X122.027 Y104.993 E0.67292
G1 X122.064 Y104.358 E0.68085
G1 X122.159 Y103.794 E0.68799
G1 X122.334 Y103.185 E0.69589
G1 X122.57 Y102.617 E0.70356
G1 X122.857 Y102.1 E0.71094
G1 X123.229 Y101.578 E0.71893
G1 X123.627 Y101.131 E0.7264
G1 X124.104 Y100.707 E0.73436
G1 X124.59 Y100.365 E0.74177
G1 X125.135 Y100.064 E0.74953
G1 X125.707 Y99.828 E0.75725
G1 X126.284 Y99.664 E0.76473
G1 X126.886 Y99.562 E0.77235
G1 X127.509 Y99.527 E0.78013
G1 X128.141 Y99.564 E0.78803
G1 X128.726 Y99.663 E0.79543
G1 X129.3 Y99.828 E0.80288
G1 X129.879 Y100.07 E0.8107
G1 X130.425 Y100.373 E0.81849
G1 X130.908 Y100.715 E0.82587
G1 X131.386 Y101.146 E0.8339
G1 X131.785 Y101.592 E0.84136
G1 X132.139 Y102.095 E0.84904
G1 X132.431 Y102.623 E0.85656
G1 X132.673 Y103.21 E0.86448
G1 X132.835 Y103.779 E0.87186
G1 X132.939 Y104.394 E0.87964
G1 X132.973 Y105 E0.88721
G1 X132.937 Y105.631 E0.89509
G1 X132.839 Y106.21 E0.90242
G1 X132.667 Y106.81 E0.9102
G1 X132.437 Y107.367 E0.91772
G1 X132.136 Y107.911 E0.92547
G1 X131.775 Y108.417 E0.93322
G1 X131.368 Y108.874 E0.94086
G1 X130.916 Y109.278 E0.94842
G1 X130.414 Y109.634 E0.95609
G1 X129.87 Y109.935 E0.96385
G1 X129.301 Y110.171 E0.97153
G1 X128.723 Y110.336 E0.97903
G1 X128.12 Y110.438 E0.98666
G0 F6000 X128.149 Y110.687
G1 F1050 X127.497 Y110.724 E0.9948
G1 X126.846 Y110.687 E1.00293
G1 X126.227 Y110.582 E1.01077
G1 X125.606 Y110.403 E1.01883
G1 X125.015 Y110.158 E1.02681
G1 X124.447 Y109.843 E1.03491
G1 X123.938 Y109.482 E1.04269
G1 X123.45 Y109.046 E1.05085
G1 X123.024 Y108.569 E1.05883
G1 X122.644 Y108.032 E1.06703
G1 X122.341 Y107.482 E1.07487
G1 X122.091 Y106.879 E1.08301
G1 X121.92 Y106.279 E1.09079
G1 X121.812 Y105.638 E1.0989
G1 X121.776 Y104.993 E1.10695
G1 X121.814 Y104.337 E1.11515
G1 X121.916 Y103.737 E1.12274
G1 X122.099 Y103.099 E1.13102
G1 X122.345 Y102.508 E1.139
G1 X122.645 Y101.966 E1.14673
G1 X123.032 Y101.423 E1.15505
G1 X123.45 Y100.954 E1.16288
G1 X123.942 Y100.516 E1.1711
G1 X124.461 Y100.15 E1.17902
G1 X125.021 Y99.841 E1.187
G1 X125.624 Y99.592 E1.19513
G1 X126.227 Y99.42 E1.20295
G1 X126.865 Y99.312 E1.21102
G1 X127.51 Y99.276 E1.21908
G1 X128.161 Y99.314 E1.22722
G1 X128.783 Y99.42 E1.23509
G1 X129.386 Y99.593 E1.24291
G1 X129.989 Y99.845 E1.25106
G1 X130.554 Y100.159 E1.25912
G1 X131.066 Y100.521 E1.26694
G1 X131.563 Y100.969 E1.27529
G1 X131.979 Y101.434 E1.28307
G1 X132.354 Y101.966 E1.29119
G1 X132.655 Y102.511 E1.29896
G1 X132.909 Y103.128 E1.30728
G1 X133.081 Y103.731 E1.3151
G1 X133.188 Y104.365 E1.32312
G1 X133.224 Y105 E1.33105
G1 X133.187 Y105.652 E1.3392
G1 X133.082 Y106.27 E1.34701
G1 X132.903 Y106.893 E1.3551
G1 X132.661 Y107.479 E1.36301
G1 X132.347 Y108.046 E1.37109
G1 X131.972 Y108.572 E1.37915
G1 X131.546 Y109.05 E1.38713
G1 X131.074 Y109.472 E1.39503
G1 X130.543 Y109.848 E1.40315
G1 X129.979 Y110.16 E1.41118
G1 X129.387 Y110.406 E1.41918
G1 X128.771 Y110.582 E1.42717
G1 X128.149 Y110.687 E1.43504
G0 F6000 X128.17 Y110.937
;TYPE:WALL-OUTER
G1 F1050 X127.497 Y110.975 E1.44345
G1 X126.825 Y110.937 E1.45184
G1 X126.17 Y110.825 E1.46013
G1 X125.52 Y110.638 E1.46857
G1 X124.906 Y110.383 E1.47686
G1 X124.318 Y110.057 E1.48524
G1 X123.78 Y109.676 E1.49347
G1 X123.272 Y109.222 E1.50196
G1 X122.827 Y108.723 E1.5103
G1 X122.434 Y108.169 E1.51877
G1 X122.114 Y107.587 E1.52706
G1 X121.857 Y106.967 E1.53543
G1 X121.674 Y106.324 E1.54377
G1 X121.563 Y105.667 E1.55208
G1 X121.525 Y104.993 E1.5605
G1 X121.564 Y104.318 E1.56893
G1 X121.673 Y103.68 E1.577
G1 X121.864 Y103.013 E1.58566
G1 X122.12 Y102.399 E1.59395
G1 X122.433 Y101.832 E1.60203
G1 X122.835 Y101.268 E1.61067
G1 X123.271 Y100.779 E1.61884
G1 X123.784 Y100.322 E1.62741
G1 X124.332 Y99.935 E1.63578
G1 X124.909 Y99.617 E1.644
G1 X125.541 Y99.356 E1.65252
G1 X126.179 Y99.174 E1.6608
G1 X126.836 Y99.063 E1.66911
G1 X127.51 Y99.025 E1.67753
G1 X128.182 Y99.064 E1.68593
G1 X128.84 Y99.177 E1.69425
G1 X129.472 Y99.358 E1.70245
G1 X130.099 Y99.62 E1.71093
G1 X130.688 Y99.947 E1.71933
G1 X131.22 Y100.324 E1.72746
G1 X131.736 Y100.788 E1.73612
G1 X132.177 Y101.282 E1.74438
G1 X132.569 Y101.837 E1.75285
G1 X132.879 Y102.399 E1.76086
G1 X133.145 Y103.045 E1.76957
G1 X133.327 Y103.682 E1.77783
G1 X133.437 Y104.337 E1.78612
G1 X133.475 Y105 E1.7944
G1 X133.437 Y105.673 E1.80281
G1 X133.325 Y106.327 E1.81108
G1 X133.139 Y106.976 E1.8195
G1 X132.885 Y107.591 E1.8278
G1 X132.559 Y108.18 E1.8362
G1 X132.169 Y108.727 E1.84458
G1 X131.724 Y109.226 E1.85292
G1 X131.226 Y109.671 E1.86125
G1 X130.677 Y110.06 E1.86964
G1 X130.088 Y110.386 E1.87804
G1 X129.473 Y110.641 E1.88634
G1 X128.828 Y110.825 E1.89471
G1 X128.17 Y110.937 E1.90303
G0 F6000 X128.14 Y110.664
G0 X128.103 Y110.198
;TYPE:SKIN
G1 F1050 X127.497 Y110.233 E1.9106
G1 X126.884 Y110.197 E1.91826
G1 X126.346 Y110.106 E1.92507
G1 X125.77 Y109.94 E1.93254
G1 X125.228 Y109.716 E1.93986
G1 X124.708 Y109.427 E1.94728
G1 X124.238 Y109.093 E1.95447
G1 X123.797 Y108.699 E1.96185
G1 X123.402 Y108.257 E1.96924
G1 X123.063 Y107.778 E1.97656
G1 X122.778 Y107.258 E1.98395
G1 X122.554 Y106.718 E1.99125
G1 X122.398 Y106.17 E1.99835
G1 X122.301 Y105.591 E2.00567
G1 X122.267 Y104.993 E2.01315
G1 X122.304 Y104.372 E2.0209
G1 X122.392 Y103.856 E2.02743
G1 X122.565 Y103.252 E2.03527
G1 X122.784 Y102.727 E2.04236
G1 X123.058 Y102.233 E2.04941
G1 X123.425 Y101.718 E2.0573
G1 X123.796 Y101.3 E2.06427
G1 X124.251 Y100.897 E2.07185
G1 X124.716 Y100.57 E2.07894
G1 X125.239 Y100.281 E2.08639
G1 X125.789 Y100.054 E2.09381
G1 X126.342 Y99.897 E2.10098
G1 X126.903 Y99.802 E2.10808
G1 X127.509 Y99.767 E2.11565
G1 X128.124 Y99.804 E2.12334
G1 X128.664 Y99.896 E2.13017
G1 X129.23 Y100.058 E2.13751
G1 X129.766 Y100.282 E2.14476
G1 X130.303 Y100.58 E2.15242
G1 X130.754 Y100.9 E2.15931
G1 X131.216 Y101.316 E2.16707
G1 X131.6 Y101.745 E2.17425
G1 X131.936 Y102.223 E2.18154
G1 X132.214 Y102.727 E2.18872
G1 X132.446 Y103.289 E2.1963
G1 X132.602 Y103.837 E2.20341
G1 X132.699 Y104.408 E2.21063
G1 X132.733 Y105 E2.21803
G1 X132.697 Y105.614 E2.2257
G1 X132.606 Y106.151 E2.23249
G1 X132.44 Y106.73 E2.24
G1 X132.221 Y107.262 E2.24718
G1 X131.939 Y107.772 E2.25445
G1 X131.579 Y108.277 E2.26218
G1 X131.203 Y108.7 E2.26924
G1 X130.767 Y109.089 E2.27653
G1 X130.287 Y109.43 E2.28387
G1 X129.757 Y109.723 E2.29143
G1 X129.231 Y109.941 E2.29853
G1 X128.664 Y110.103 E2.30588
G1 X128.103 Y110.198 E2.31298
G1 F1500 E-4.18702
G0 F6000 X128.135 Y110.399
G0 X128.465 Y110.243
G0 X128.035 Y107.691
G1 F1500 E2.31298
G0 F6000 X128.06 Y107.813
G1 F1050 X128.597 Y107.651 E2.31997
G1 X129.094 Y107.386 E2.327
G1 X129.53 Y107.03 E2.33402
G1 X129.886 Y106.594 E2.34104
G1 X130.151 Y106.097 E2.34807
G1 X130.313 Y105.56 E2.35506
G1 X130.37 Y105 E2.36208
G1 X130.313 Y104.44 E2.3691
G1 X130.151 Y103.903 E2.3761
G1 X129.886 Y103.406 E2.38312
G1 X129.53 Y102.97 E2.39014
G1 X129.094 Y102.614 E2.39717
G1 X128.597 Y102.349 E2.40419
G1 X128.06 Y102.187 E2.41119
G1 X127.5 Y102.13 E2.41821
G1 X126.94 Y102.187 E2.42523
G1 X126.403 Y102.349 E2.43222
G1 X125.906 Y102.614 E2.43925
G1 X125.47 Y102.97 E2.44627
G1 X125.114 Y103.406 E2.45329
G1 X124.849 Y103.903 E2.46031
G1 X124.687 Y104.44 E2.46731
G1 X124.63 Y105 E2.47433
G1 X124.687 Y105.56 E2.48135
G1 X124.849 Y106.097 E2.48835
G1 X125.114 Y106.594 E2.49537
G1 X125.47 Y107.03 E2.50239
G1 X125.906 Y107.386 E2.50941
G1 X126.403 Y107.651 E2.51644
G1 X126.94 Y107.813 E2.52343
G1 X127.5 Y107.87 E2.53046
G1 X128.06 Y107.813 E2.53748
G1 F1500 E-3.96252
G0 F6000 X128.019 Y107.611
G0 X125.976 Y107.282
G0 X126.763 Y106.109
G0 X122.26 Y109.274
G0 X123.321 Y108.324
G0 X122.718 Y107.574
G1 F1500 E2.53748
G0 F6000 X122.984 Y107.428
G1 F1050 X125.072 Y109.515 E2.5743
G0 F6000 X125.72 Y109.81
G1 F1050 X122.683 Y106.773 E2.62787
G0 F6000 X122.527 Y106.264
G1 F1050 X126.231 Y109.968 E2.6932
G0 F6000 X126.676 Y110.059
G1 F1050 X122.439 Y105.822 E2.76794
G0 F6000 X122.39 Y105.419
G1 F1050 X127.077 Y110.107 E2.85062
G0 F6000 X127.453 Y110.129
G1 F1050 X122.369 Y105.044 E2.9403
G0 F6000 X122.383 Y104.705
G1 F1050 X127.792 Y110.114 E3.03571
G0 F6000 X128.124 Y110.092
G1 F1050 X122.403 Y104.371 E3.13662
G0 F6000 X122.455 Y104.07
G1 F1050 X125.021 Y106.636 E3.18188
G0 F6000 X124.703 Y105.965
G1 F1050 X122.516 Y103.778 E3.22046
G0 F6000 X122.595 Y103.503
G1 F1050 X124.578 Y105.486 E3.25544
G0 F6000 X124.538 Y105.093
G1 F1050 X122.678 Y103.233 E3.28825
G0 F6000 X122.782 Y102.983
G1 F1050 X124.554 Y104.755 E3.3195
G0 F6000 X124.587 Y104.434
G1 F1050 X122.89 Y102.738 E3.34943
G0 F6000 X123.016 Y102.51
G1 F1050 X124.666 Y104.16 E3.37853
G0 F6000 X124.748 Y103.888
G1 F1050 X123.144 Y102.284 E3.40682
G0 F6000 X123.29 Y102.077
G1 F1050 X124.867 Y103.654 E3.43464
G0 F6000 X124.991 Y103.424
G1 F1050 X123.437 Y101.87 E3.46205
G0 F6000 X123.594 Y101.674
G1 F1050 X125.138 Y103.217 E3.48928
G0 F6000 X125.297 Y103.023
G1 F1050 X123.76 Y101.486 E3.51639
G0 F6000 X123.936 Y101.309
G1 F1050 X125.468 Y102.84 E3.5434
G0 F6000 X125.662 Y102.681
G1 F1050 X124.124 Y101.143 E3.57053
G0 F6000 X124.311 Y100.976
G1 F1050 X125.858 Y102.524 E3.59783
G0 F6000 X126.089 Y102.401
G1 F1050 X124.518 Y100.83 E3.62554
G0 F6000 X124.727 Y100.685
G1 F1050 X126.32 Y102.278 E3.65364
G0 F6000 X126.584 Y102.189
G1 F1050 X124.95 Y100.554 E3.68247
G0 F6000 X125.177 Y100.428
G1 F1050 X126.856 Y102.107 E3.71208
G0 F6000 X127.165 Y102.063
G1 F1050 X125.418 Y100.315 E3.74291
G0 F6000 X125.668 Y100.212
G1 F1050 X127.485 Y102.029 E3.77496
G0 F6000 X127.876 Y102.067
G1 F1050 X125.927 Y100.118 E3.80933
G0 F6000 X126.203 Y100.04
G1 F1050 X128.325 Y102.162 E3.84676
G0 F6000 X128.929 Y102.413
G1 F1050 X126.49 Y99.974 E3.88978
G0 F6000 X126.792 Y99.922
G1 F1050 X132.578 Y105.708 E3.99184
G0 F6000 X132.528 Y106.011
G1 F1050 X130.085 Y103.569 E4.03493
G0 F6000 X130.336 Y104.173
G1 F1050 X132.46 Y106.297 E4.07239
G0 F6000 X132.381 Y106.572
G1 F1050 X130.43 Y104.621 E4.1068
G0 F6000 X130.468 Y105.013
G1 F1050 X132.289 Y106.833 E4.13892
G0 F6000 X132.186 Y107.084
G1 F1050 X130.435 Y105.333 E4.1698
G0 F6000 X130.391 Y105.642
G1 F1050 X132.073 Y107.324 E4.19947
G0 F6000 X131.946 Y107.551
G1 F1050 X130.309 Y105.913 E4.22835
G0 F6000 X130.22 Y106.178
G1 F1050 X131.814 Y107.772 E4.25647
G0 F6000 X131.667 Y107.979
G1 F1050 X130.097 Y106.408 E4.28417
G0 F6000 X129.974 Y106.64
G1 F1050 X131.521 Y108.186 E4.31145
G0 F6000 X131.357 Y108.376
G1 F1050 X129.817 Y106.836 E4.33861
G0 F6000 X129.657 Y107.03
G1 F1050 X131.191 Y108.564 E4.36567
G0 F6000 X131.011 Y108.737
G1 F1050 X129.476 Y107.203 E4.39274
G0 F6000 X129.282 Y107.362
G1 F1050 X130.824 Y108.904 E4.41994
G0 F6000 X130.63 Y109.063
G1 F1050 X129.075 Y107.509 E4.44736
G0 F6000 X128.845 Y107.632
G1 F1050 X130.423 Y109.209 E4.47518
G0 F6000 X130.214 Y109.354
G1 F1050 X128.611 Y107.751 E4.50346
G0 F6000 X128.339 Y107.833
G1 F1050 X129.986 Y109.48 E4.53251
G0 F6000 X129.759 Y109.607
G1 F1050 X128.065 Y107.912 E4.5624
G0 F6000 X127.745 Y107.946
G1 F1050 X129.514 Y109.715 E4.5936
G0 F6000 X129.264 Y109.819
G1 F1050 X127.407 Y107.961 E4.62637
G0 F6000 X127.012 Y107.92
G1 F1050 X128.996 Y109.904 E4.66136
G0 F6000 X128.72 Y109.981
G1 F1050 X126.533 Y107.794 E4.69994
G0 F6000 X125.862 Y107.478
G1 F1050 X128.426 Y110.041 E4.74515
G0 F6000 X128.476 Y110.342
G0 X129.835 Y109.846
G0 X130.853 Y109.206
G0 X131.705 Y108.351
G0 X132.349 Y107.331
G0 X132.67 Y106.404
G0 X132.913 Y105.402
G0 X132.609 Y105.385
G1 F1050 X127.113 Y99.89 E4.84209
G0 F6000 X127.448 Y99.871
G1 F1050 X132.629 Y105.052 E4.93348
G0 F6000 X132.614 Y104.683
G1 F1050 X127.816 Y99.885 E5.01811
G0 F6000 X128.204 Y99.919
G1 F1050 X132.578 Y104.294 E5.09527
G0 F6000 X132.505 Y103.867
G1 F1050 X128.63 Y99.992 E5.16362
G0 F6000 X129.121 Y100.13
G1 F1050 X132.366 Y103.375 E5.22086
G0 F6000 X132.128 Y102.783
G1 F1050 X129.712 Y100.367 E5.26347
G0 F6000 X129.829 Y100.089
G0 X130.816 Y100.694
