;FLAVOR:Marlin
;TIME:34409
;Filament used: 8.12631m
;Layer height: 0.1
;MINX:74.826
;MINY:52.291
;MINZ:0.144
;MAXX:180.211
;MAXY:157.704
;MAXZ:15.664
;Generated with Cura_SteamEngine master
M140 S60
M105
M190 S60
M104 S210
M105
M109 S210
M82 ;absolute extrusion mode
M220 S100 ;reset feedrate
M221 S100 ;reset flowrate
G90 ;use absolute coordinates
M82 ;absolute extrusion mode
G28 ;home
G1 Z2 F1500 ;raise z
G92 E0 ;reset extruder

G1 X75 Y5 F5000 ;start position
G1 Z0.28 F1500 ;lower z
G1 E4 F500 ;prime the filament
G1 X180 E10 F500 ;1st line
G1 Y5.4 F5000
G1 X75 E20 F500 ;2nd line
G1 Z2 F1500 ;raise z
G92 E0 ;reset extruder
G92 E0
G92 E0
G1 F1500 E-6.5
;LAYER_COUNT:150
;LAYER:-7
M107
G0 F9000 X78.719 Y59.102 Z0.144
;TYPE:SUPPORT-INTERFACE
G1 F1500 E0
G1 F787.5 X78.832 Y58.954 E0.00557
G1 X79.42 Y58.248 E0.03308
G1 X79.517 Y58.139 E0.03744
G1 X79.993 Y57.633 E0.05824
G1 X80.133 Y57.495 E0.06412
G1 X80.819 Y56.859 E0.09213
G1 X80.958 Y56.74 E0.0976
G1 X81.646 Y56.188 E0.12401
G1 X81.8 Y56.073 E0.12976
G1 X82.527 Y55.572 E0.15619
G1 X82.695 Y55.465 E0.16215
G1 X83.468 Y55.012 E0.18897
G1 X83.61 Y54.935 E0.19381
G1 X84.44 Y54.527 E0.22149
G1 X84.571 Y54.469 E0.22578
G1 X85.422 Y54.125 E0.25326
G1 X85.599 Y54.061 E0.25889
G1 X86.443 Y53.791 E0.28542
G1 X86.62 Y53.741 E0.29092
G1 X87.49 Y53.53 E0.31772
G1 X87.654 Y53.496 E0.32273
G1 X88.56 Y53.346 E0.35022
G1 X88.732 Y53.324 E0.35541
G1 X89.632 Y53.242 E0.38247
G1 X89.796 Y53.232 E0.38739
G1 X90.528 Y53.211 E0.40931
G1 X164.472 Y53.203 E2.62275
G1 X165.466 Y53.239 E2.65253
G1 X165.625 Y53.251 E2.6573
G1 X166.52 Y53.348 E2.68425
G1 X166.695 Y53.374 E2.68955
G1 X167.592 Y53.54 E2.71685
G1 X167.754 Y53.576 E2.72182
G1 X168.628 Y53.805 E2.74887
G1 X168.786 Y53.852 E2.7538
G1 X169.642 Y54.144 E2.78087
G1 X169.818 Y54.211 E2.78651
G1 X170.626 Y54.554 E2.81279
G1 X170.815 Y54.641 E2.81901
G1 X171.604 Y55.048 E2.84559
G1 X171.741 Y55.125 E2.85029
G1 X172.52 Y55.599 E2.87759
G1 X172.688 Y55.71 E2.88362
G1 X173.398 Y56.219 E2.90977
G1 X173.546 Y56.332 E2.91534
G1 X174.243 Y56.912 E2.94249
G1 X174.361 Y57.017 E2.94721
G1 X174.905 Y57.531 E2.96962
G1 X174.971 Y57.597 E2.97241
G1 X175.641 Y58.319 E3.0019
G1 X175.76 Y58.458 E3.00737
G1 X176.312 Y59.146 E3.03378
G1 X176.427 Y59.3 E3.03953
G1 X176.928 Y60.027 E3.06596
G1 X177.035 Y60.195 E3.07192
G1 X177.488 Y60.968 E3.09874
G1 X177.565 Y61.11 E3.10358
G1 X177.973 Y61.94 E3.13126
G1 X178.031 Y62.071 E3.13555
G1 X178.375 Y62.922 E3.16303
G1 X178.436 Y63.092 E3.16843
G1 X178.707 Y63.935 E3.19494
G1 X178.759 Y64.12 E3.20069
G1 X178.97 Y64.99 E3.22749
G1 X179.004 Y65.154 E3.2325
G1 X179.153 Y66.051 E3.25972
G1 X179.176 Y66.228 E3.26506
G1 X179.258 Y67.132 E3.29224
G1 X179.268 Y67.288 E3.29692
G1 X179.289 Y68.023 E3.31893
G1 X179.296 Y141.965 E5.53231
G1 X179.261 Y142.947 E5.56173
G1 X179.247 Y143.129 E5.56719
G1 X179.15 Y144.026 E5.5942
G1 X179.126 Y144.189 E5.59913
G1 X178.961 Y145.083 E5.62635
G1 X178.923 Y145.254 E5.63159
G1 X178.694 Y146.128 E5.65863
G1 X178.647 Y146.286 E5.66357
G1 X178.355 Y147.144 E5.6907
G1 X178.292 Y147.31 E5.69601
G1 X177.937 Y148.143 E5.72312
G1 X177.86 Y148.308 E5.72857
G1 X177.456 Y149.095 E5.75505
G1 X177.367 Y149.254 E5.7605
G1 X176.902 Y150.018 E5.78728
G1 X176.797 Y150.177 E5.79298
G1 X176.278 Y150.902 E5.81967
G1 X176.164 Y151.049 E5.82524
G1 X175.592 Y151.738 E5.85205
G1 X175.485 Y151.858 E5.85686
G1 X174.968 Y152.405 E5.87939
G1 X174.888 Y152.485 E5.88277
G1 X174.184 Y153.137 E5.9115
G1 X174.041 Y153.26 E5.91714
G1 X173.353 Y153.812 E5.94355
G1 X173.199 Y153.927 E5.9493
G1 X172.472 Y154.428 E5.97573
G1 X172.304 Y154.535 E5.98169
G1 X171.531 Y154.988 E6.00851
G1 X171.389 Y155.065 E6.01335
G1 X170.559 Y155.473 E6.04103
G1 X170.428 Y155.531 E6.04532
G1 X169.571 Y155.878 E6.073
G1 X169.408 Y155.936 E6.07818
G1 X168.556 Y156.209 E6.10496
G1 X168.379 Y156.259 E6.11046
G1 X167.509 Y156.47 E6.13726
G1 X167.345 Y156.504 E6.14227
G1 X166.439 Y156.654 E6.16976
G1 X166.267 Y156.676 E6.17495
G1 X165.367 Y156.758 E6.20201
G1 X165.203 Y156.768 E6.20693
G1 X164.471 Y156.789 E6.22885
G1 X90.528 Y156.797 E8.44227
G1 X89.534 Y156.761 E8.47204
G1 X89.375 Y156.749 E8.47681
G1 X88.48 Y156.652 E8.50376
G1 X88.305 Y156.626 E8.50906
G1 X87.408 Y156.46 E8.53636
G1 X87.246 Y156.424 E8.54133
G1 X86.372 Y156.195 E8.56838
G1 X86.213 Y156.148 E8.57334
G1 X85.358 Y155.856 E8.60038
G1 X85.182 Y155.789 E8.60602
G1 X84.374 Y155.446 E8.6323
G1 X84.185 Y155.359 E8.63853
G1 X83.394 Y154.951 E8.66517
G1 X83.252 Y154.871 E8.67005
G1 X82.48 Y154.401 E8.6971
G1 X82.312 Y154.29 E8.70313
G1 X81.602 Y153.781 E8.72928
G1 X81.454 Y153.668 E8.73485
G1 X80.742 Y153.075 E8.76259
G1 X80.639 Y152.983 E8.76672
G1 X80.083 Y152.457 E8.78964
G1 X80.008 Y152.38 E8.79285
G1 X79.359 Y151.681 E8.82141
G1 X79.24 Y151.542 E8.82688
G1 X78.688 Y150.854 E8.85329
G1 X78.567 Y150.692 E8.85934
G1 X78.072 Y149.973 E8.88547
G1 X77.96 Y149.797 E8.89171
G1 X77.504 Y149.018 E8.91873
G1 X77.435 Y148.89 E8.92309
G1 X77.023 Y148.052 E8.95104
G1 X76.969 Y147.929 E8.95506
G1 X76.621 Y147.068 E8.98286
G1 X76.561 Y146.901 E8.98817
G1 X76.283 Y146.034 E9.01543
G1 X76.241 Y145.881 E9.02018
G1 X76.028 Y145.002 E9.04725
G1 X75.994 Y144.836 E9.05232
G1 X75.845 Y143.932 E9.07975
G1 X75.823 Y143.763 E9.08485
G1 X75.742 Y142.868 E9.11175
G1 X75.732 Y142.704 E9.11667
G1 X75.711 Y141.963 E9.13886
G1 X75.703 Y68.028 E11.35204
G1 X75.739 Y67.034 E11.38181
G1 X75.751 Y66.875 E11.38658
G1 X75.848 Y65.98 E11.41353
G1 X75.874 Y65.805 E11.41883
G1 X76.038 Y64.917 E11.44586
G1 X76.076 Y64.746 E11.4511
G1 X76.309 Y63.855 E11.47867
G1 X76.352 Y63.714 E11.48308
G1 X76.644 Y62.858 E11.51016
G1 X76.711 Y62.682 E11.51579
G1 X77.054 Y61.874 E11.54207
G1 X77.141 Y61.685 E11.5483
G1 X77.55 Y60.892 E11.57501
G1 X77.625 Y60.759 E11.57958
G1 X78.099 Y59.98 E11.60687
G1 X78.205 Y59.819 E11.61264
G1 X78.719 Y59.102 E11.63905
G0 F9000 X79 Y58.752
G1 F787.5 X79 Y151.242 E14.40766
G0 F9000 X80 Y152.371
G1 F787.5 X80 Y57.626 E17.24377
G0 F9000 X81 Y56.706
G1 F787.5 X81 Y153.289 E20.13489
G0 F9000 X82 Y154.066
G1 F787.5 X82 Y55.935 E23.07236
G0 F9000 X83 Y55.286
G1 F787.5 X83 Y154.717 E26.04874
G0 F9000 X84 Y155.263
G1 F787.5 X84 Y54.743 E29.05772
G0 F9000 X85 Y54.295
G1 F787.5 X85 Y155.711 E32.09352
G0 F9000 X86 Y156.075
G1 F787.5 X86 Y53.932 E35.15108
G0 F9000 X87 Y53.648
G1 F787.5 X87 Y156.359 E38.22564
G0 F9000 X88 Y156.569
G1 F787.5 X88 Y53.438 E41.31278
G0 F9000 X89 Y53.299
G1 F787.5 X89 Y156.708 E44.40823
G0 F9000 X90 Y156.777
G1 F787.5 X90 Y53.226 E47.50794
G0 F9000 X91 Y53.21
G1 F787.5 X91 Y156.797 E50.60873
G0 F9000 X92 Y156.797
G1 F787.5 X92 Y53.21 E53.70951
G0 F9000 X93 Y53.21
G1 F787.5 X93 Y156.797 E56.8103
G0 F9000 X94 Y156.797
G1 F787.5 X94 Y53.21 E59.91109
G0 F9000 X95 Y53.21
G1 F787.5 X95 Y156.797 E63.01187
G0 F9000 X96 Y156.797
G1 F787.5 X96 Y53.21 E66.11266
G0 F9000 X97 Y53.21
G1 F787.5 X97 Y156.797 E69.21344
G0 F9000 X98 Y156.797
G1 F787.5 X98 Y53.21 E72.31423
G0 F9000 X99 Y53.21
G1 F787.5 X99 Y156.797 E75.41501
G0 F9000 X100 Y156.796
G1 F787.5 X100 Y53.209 E78.5158
G0 F9000 X101 Y53.209
G1 F787.5 X101 Y156.796 E81.61659
G0 F9000 X102 Y156.796
G1 F787.5 X102 Y53.209 E84.71737
G0 F9000 X103 Y53.209
G1 F787.5 X103 Y156.796 E87.81816
G0 F9000 X104 Y156.796
G1 F787.5 X104 Y53.209 E90.91894
G0 F9000 X105 Y53.209
G1 F787.5 X105 Y156.796 E94.01973
G0 F9000 X106 Y156.796
G1 F787.5 X106 Y53.209 E97.12052
G0 F9000 X107 Y53.209
G1 F787.5 X107 Y156.796 E100.2213
G0 F9000 X108 Y156.796
G1 F787.5 X108 Y53.209 E103.32209
G0 F9000 X109 Y53.209
G1 F787.5 X109 Y156.796 E106.42287
G0 F9000 X110 Y156.795
G1 F787.5 X110 Y53.208 E109.52366
G0 F9000 X111 Y53.208
G1 F787.5 X111 Y156.795 E112.62444
G0 F9000 X112 Y156.795
G1 F787.5 X112 Y53.208 E115.72523
G0 F9000 X113 Y53.208
G1 F787.5 X113 Y156.795 E118.82602
G0 F9000 X114 Y156.795
G1 F787.5 X114 Y53.208 E121.9268
G0 F9000 X115 Y53.208
G1 F787.5 X115 Y156.795 E125.02759
G0 F9000 X116 Y156.795
G1 F787.5 X116 Y53.208 E128.12837
G0 F9000 X117 Y53.208
G1 F787.5 X117 Y156.795 E131.22916
G0 F9000 X118 Y156.795
G1 F787.5 X118 Y53.208 E134.32995
G0 F9000 X119 Y53.207
G1 F787.5 X119 Y156.794 E137.43073
G0 F9000 X120 Y156.794
G1 F787.5 X120 Y53.207 E140.53152
G0 F9000 X121 Y53.207
G1 F787.5 X121 Y156.794 E143.6323
G0 F9000 X122 Y156.794
G1 F787.5 X122 Y53.207 E146.73309
G0 F9000 X123 Y53.207
G1 F787.5 X123 Y156.794 E149.83387
G0 F9000 X124 Y156.794
G1 F787.5 X124 Y53.207 E152.93466
G0 F9000 X125 Y53.207
G1 F787.5 X125 Y156.794 E156.03545
G0 F9000 X126 Y156.794
G1 F787.5 X126 Y53.207 E159.13623
G0 F9000 X127 Y53.207
G1 F787.5 X127 Y156.794 E162.23702
G0 F9000 X128 Y156.793
G1 F787.5 X128 Y53.206 E165.3378
G0 F9000 X129 Y53.206
G1 F787.5 X129 Y156.793 E168.43859
G0 F9000 X130 Y156.793
G1 F787.5 X130 Y53.206 E171.53938
G0 F9000 X131 Y53.206
G1 F787.5 X131 Y156.793 E174.64016
G0 F9000 X132 Y156.793
G1 F787.5 X132 Y53.206 E177.74095
G0 F9000 X133 Y53.206
G1 F787.5 X133 Y156.793 E180.84173
G0 F9000 X134 Y156.793
G1 F787.5 X134 Y53.206 E183.94252
G0 F9000 X135 Y53.206
G1 F787.5 X135 Y156.793 E187.0433
G0 F9000 X136 Y156.793
G1 F787.5 X136 Y53.206 E190.14409
G0 F9000 X137 Y53.205
G1 F787.5 X137 Y156.792 E193.24488
G0 F9000 X138 Y156.792
G1 F787.5 X138 Y53.205 E196.34566
G0 F9000 X139 Y53.205
G1 F787.5 X139 Y156.792 E199.44645
G0 F9000 X140 Y156.792
G1 F787.5 X140 Y53.205 E202.54723
G0 F9000 X141 Y53.205
G1 F787.5 X141 Y156.792 E205.64802
G0 F9000 X142 Y156.792
G1 F787.5 X142 Y53.205 E208.74881
G0 F9000 X143 Y53.205
G1 F787.5 X143 Y156.792 E211.84959
G0 F9000 X144 Y156.792
G1 F787.5 X144 Y53.205 E214.95038
G0 F9000 X145 Y53.205
G1 F787.5 X145 Y156.792 E218.05116
G0 F9000 X146 Y156.791
G1 F787.5 X146 Y53.204 E221.15195
G0 F9000 X147 Y53.204
G1 F787.5 X147 Y156.791 E224.25274
G0 F9000 X148 Y156.791
G1 F787.5 X148 Y53.204 E227.35352
G0 F9000 X149 Y53.204
G1 F787.5 X149 Y156.791 E230.45431
G0 F9000 X150 Y156.791
G1 F787.5 X150 Y53.204 E233.55509
G0 F9000 X151 Y53.204
G1 F787.5 X151 Y156.791 E236.65588
G0 F9000 X152 Y156.791
G1 F787.5 X152 Y53.204 E239.75666
G0 F9000 X153 Y53.204
G1 F787.5 X153 Y156.791 E242.85745
G0 F9000 X154 Y156.791
G1 F787.5 X154 Y53.204 E245.95824
G0 F9000 X155 Y53.204
G1 F787.5 X155 Y156.791 E249.05902
G0 F9000 X156 Y156.79
G1 F787.5 X156 Y53.203 E252.15981
G0 F9000 X157 Y53.203
G1 F787.5 X157 Y156.79 E255.26059
G0 F9000 X158 Y156.79
G1 F787.5 X158 Y53.203 E258.36138
G0 F9000 X159 Y53.203
G1 F787.5 X159 Y156.79 E261.46217
G0 F9000 X160 Y156.79
G1 F787.5 X160 Y53.203 E264.56295
G0 F9000 X161 Y53.203
G1 F787.5 X161 Y156.79 E267.66374
G0 F9000 X162 Y156.79
G1 F787.5 X162 Y53.203 E270.76452
G0 F9000 X163 Y53.203
G1 F787.5 X163 Y156.79 E273.86531
G0 F9000 X164 Y156.79
G1 F787.5 X164 Y53.203 E276.96609
G0 F9000 X165 Y53.223
G1 F787.5 X165 Y156.774 E280.0658
G0 F9000 X166 Y156.701
G1 F787.5 X166 Y53.292 E283.16126
G0 F9000 X167 Y53.431
G1 F787.5 X167 Y156.562 E286.2484
G0 F9000 X168 Y156.351
G1 F787.5 X168 Y53.641 E289.32293
G0 F9000 X169 Y53.925
G1 F787.5 X169 Y156.067 E292.38046
G0 F9000 X170 Y155.705
G1 F787.5 X170 Y54.289 E295.41626
G0 F9000 X171 Y54.737
G1 F787.5 X171 Y155.257 E298.42524
G0 F9000 X172 Y154.714
G1 F787.5 X172 Y55.283 E301.40162
G0 F9000 X173 Y55.934
G1 F787.5 X173 Y154.065 E304.33908
G0 F9000 X174 Y153.293
G1 F787.5 X174 Y56.71 E307.23021
G0 F9000 X175 Y57.629
G1 F787.5 X175 Y152.372 E310.06626
G0 F9000 X176 Y151.247
G1 F787.5 X176 Y58.758 E312.83484
G0 F9000 X177 Y60.141
G1 F787.5 X177 Y149.857 E315.5204
G0 F9000 X178 Y147.996
G1 F787.5 X178 Y62.001 E318.09459
G1 F1500 E311.59459
G0 F9000 X178.874 Y61.718
G0 X179.449 Y63.303
G0 X179.864 Y64.794
G0 X179 Y65.135
G1 F1500 E318.09459
G1 F787.5 X179 Y144.872 E320.48145
G1 F1500 E313.98145
G0 F9000 X179.9 Y145.037
G0 X179.518 Y146.569
G0 X178.774 Y148.512
G0 X178.155 Y149.719
G0 X177.009 Y151.452
G0 X175.563 Y153.104
G0 X173.91 Y154.537
G0 X172.776 Y155.319
G0 X170.942 Y156.303
G0 X169.697 Y156.803
G0 X167.705 Y157.364
G0 X166.366 Y157.585
G0 X164.474 Y157.704
G0 X89.489 Y157.674
G0 X88.152 Y157.528
G0 X86.123 Y157.075
G0 X84.836 Y156.636
G0 X82.956 Y155.754
G0 X81.797 Y155.045
G0 X80.148 Y153.771
G0 X78.673 Y152.286
G0 X78.434 Y151.987
G0 X77.312 Y150.482
G0 X78 Y149.859
G1 F1500 E320.48145
G1 F787.5 X78 Y60.142 E323.16705
G0 F9000 X77 Y62.001
G1 F787.5 X77 Y147.999 E325.74132
G1 F1500 E319.24132
G0 F9000 X76.126 Y148.282
G0 X75.545 Y146.678
G0 X75.136 Y145.206
G0 X76 Y144.865
G1 F1500 E325.74132
G1 F787.5 X76 Y65.122 E328.12836
G1 F1500 E321.62836
G0 F300 X76 Y65.122 Z0.294
G0 F9000 X75.1 Y64.956
G0 X74.826 Y66.989
G0 X74.83 Y142.933
G0 X75.095 Y145.008
G0 X75.408 Y146.3
G0 X76.126 Y148.282
G0 X76.709 Y149.47
G0 X77.614 Y150.894
G0 X78.382 Y151.934
G0 X79.095 Y151.361
;TIME_ELAPSED:847.535713
;LAYER:-6
;TYPE:SUPPORT
G1 F1500 E328.12836
G1 F787.5 X81.139 Y153.406 E328.21851
G1 X80.741 Y153.074 E328.23468
G1 X80.639 Y152.981 E328.23898
G1 X80.082 Y152.456 E328.26285
G1 X80.008 Y152.379 E328.26618
G1 X79.358 Y151.68 E328.29594
G1 X79.239 Y151.541 E328.30165
G1 F1500 E321.80165
G0 F9000 X78.673 Y152.286
G0 X79.508 Y153.127
G0 X80.554 Y154.109
G0 X81.139 Y153.406
G1 F1500 E328.30165
G1 F787.5 X81.453 Y153.667 E328.31438
G1 X81.601 Y153.78 E328.32018
G1 X82.311 Y154.289 E328.34742
G1 X82.48 Y154.4 E328.35373
G1 X83.251 Y154.87 E328.38188
G1 X83.394 Y154.95 E328.38699
G1 X83.971 Y155.248 E328.40724
G1 X77.262 Y148.538 E328.70311
G1 X77.023 Y148.051 E328.72003
G1 X76.968 Y147.928 E328.72423
G1 X76.621 Y147.067 E328.75317
G1 X76.561 Y146.9 E328.75871
G1 X76.535 Y146.822 E328.76127
G1 X85.678 Y155.964 E329.16443
G1 X86.213 Y156.147 E329.18206
G1 X86.371 Y156.194 E329.1872
G1 X87.084 Y156.38 E329.21018
G1 X76.131 Y145.427 E329.69317
G1 X76.028 Y145 E329.70687
G1 X75.994 Y144.835 E329.71212
G1 X75.888 Y144.194 E329.73238
G1 X88.321 Y156.627 E330.28064
G1 X88.48 Y156.651 E330.28565
G1 X89.374 Y156.747 E330.31369
G1 X89.435 Y156.752 E330.3156
G1 X75.76 Y143.077 E330.91863
G1 X75.741 Y142.867 E330.9252
G1 X75.731 Y142.703 E330.93032
G1 X75.712 Y142.039 E330.95104
G1 X90.467 Y156.793 E331.60167
G1 X90.528 Y156.796 E331.60357
G1 X91.459 Y156.795 E331.6326
G1 X75.709 Y141.046 E332.32711
G1 X75.709 Y140.056 E332.35798
G1 X92.449 Y156.795 E333.09614
G1 X93.439 Y156.795 E333.12701
G1 X75.709 Y139.066 E333.90883
G1 X75.709 Y138.076 E333.9397
G1 X94.429 Y156.795 E334.76518
G1 X95.419 Y156.795 E334.79605
G1 X75.709 Y137.086 E335.66518
G1 X75.709 Y136.096 E335.69605
G1 X96.409 Y156.795 E336.60884
G1 X97.399 Y156.795 E336.63971
G1 X75.709 Y135.106 E337.59615
G1 X75.709 Y134.116 E337.62702
G1 X98.388 Y156.795 E338.6271
G1 X99.378 Y156.795 E338.65797
G1 X75.709 Y133.126 E339.70171
G1 X75.709 Y132.136 E339.73258
G1 X100.368 Y156.795 E340.81997
G1 X101.358 Y156.795 E340.85084
G1 X75.709 Y131.146 E341.98188
G1 X75.709 Y130.156 E342.01275
G1 X102.348 Y156.795 E343.18746
G1 X103.337 Y156.795 E343.21829
G1 X75.709 Y129.166 E344.43663
G1 X75.708 Y128.175 E344.46753
G1 X104.327 Y156.795 E345.72957
G1 X105.317 Y156.794 E345.76044
G1 X75.708 Y127.185 E347.06611
G1 X75.708 Y126.195 E347.09698
G1 X106.307 Y156.794 E348.44631
G1 X107.297 Y156.794 E348.47718
G1 X75.708 Y125.205 E349.87016
G1 X75.708 Y124.216 E349.901
G1 X108.287 Y156.794 E351.33762
G1 X109.276 Y156.794 E351.36846
G1 X75.708 Y123.226 E352.84871
G1 X75.708 Y122.236 E352.87958
G1 X110.266 Y156.794 E354.40349
G1 X111.256 Y156.794 E354.43436
G1 X75.707 Y121.245 E356.00197
G1 X75.707 Y120.255 E356.03284
G1 X112.246 Y156.794 E357.6441
G1 X113.236 Y156.793 E357.67497
G1 X75.707 Y119.265 E359.32987
G1 X75.707 Y118.275 E359.36074
G1 X114.226 Y156.793 E361.05929
G1 X115.215 Y156.793 E361.09013
G1 X75.707 Y117.285 E362.83232
G1 X75.707 Y116.295 E362.86319
G1 X116.205 Y156.793 E364.64904
G1 X117.195 Y156.793 E364.67991
G1 X75.707 Y115.305 E366.50941
G1 X75.707 Y114.315 E366.54028
G1 X118.185 Y156.793 E368.41344
G1 X119.175 Y156.793 E368.4443
G1 X75.707 Y113.325 E370.36112
G1 X75.707 Y112.335 E370.39199
G1 X120.165 Y156.793 E372.35246
G1 X121.154 Y156.793 E372.3833
G1 X75.707 Y111.345 E374.3874
G1 X75.707 Y110.355 E374.41827
G1 X122.144 Y156.793 E376.46603
