;FLAVOR:Marlin
;TIME:5366
;Filament used: 1.13552m
;Layer height: 0.1
;MINX:96.626
;MINY:56.873
;MINZ:0.12
;MAXX:158.373
;MAXY:113.126
;MAXZ:18.02
;Generated with Cura_SteamEngine master
M140 S60
M105
M190 S60
M104 S210
M105
M109 S210
M82 ;absolute extrusion mode
M220 S100 ;reset feedrate
M221 S100 ;reset flowrate
G90 ;use absolute coordinates
M82 ;absolute extrusion mode
G28 ;home
G1 Z2 F1500 ;raise z
G92 E0 ;reset extruder

G1 X75 Y5 F5000 ;start position
G1 Z0.28 F1500 ;lower z
G1 E4 F500 ;prime the filament
G1 X180 E10 F500 ;1st line
G1 Y5.4 F5000
G1 X75 E20 F500 ;2nd line
G1 Z2 F1500 ;raise z
G92 E0 ;reset extruder
G92 E0
G92 E0
G1 F1500 E-6.5
;LAYER_COUNT:180
;LAYER:0
M107
G0 F6000 X103.758 Y69.929 Z0.12
;TYPE:SKIRT
G1 F1500 E0
G1 F1050 X105.098 Y68.014 E0.04081
G1 X105.646 Y67.317 E0.05629
G1 X107.182 Y65.577 E0.09682
G1 X107.807 Y64.945 E0.11234
G1 X109.525 Y63.393 E0.15277
G1 X110.231 Y62.826 E0.16858
G1 X112.135 Y61.468 E0.20942
G1 X112.892 Y60.99 E0.22505
G1 X114.914 Y59.87 E0.26541
G1 X115.723 Y59.481 E0.28109
G1 X117.875 Y58.592 E0.32175
G1 X118.722 Y58.297 E0.33741
G1 X120.959 Y57.659 E0.37803
G1 X121.841 Y57.461 E0.39381
G1 X124.151 Y57.081 E0.43469
G1 X125.041 Y56.987 E0.45032
G1 X127.349 Y56.873 E0.49067
G1 X128.247 Y56.88 E0.50635
G1 X130.574 Y57.031 E0.54707
G1 X131.463 Y57.139 E0.5627
G1 X133.74 Y57.55 E0.60311
G1 X134.61 Y57.759 E0.61873
G1 X136.833 Y58.428 E0.65927
G1 X137.692 Y58.742 E0.67524
G1 X139.857 Y59.679 E0.71643
G1 X140.649 Y60.076 E0.7319
G1 X142.639 Y61.218 E0.77196
G1 X143.389 Y61.707 E0.7876
G1 X145.268 Y63.091 E0.82835
G1 X145.963 Y63.667 E0.84411
G1 X147.665 Y65.251 E0.88471
G1 X148.283 Y65.895 E0.90029
G1 X149.787 Y67.652 E0.94068
G1 X150.332 Y68.368 E0.95639
G1 X151.641 Y70.308 E0.99726
G1 X152.104 Y71.087 E1.01308
G1 X153.174 Y73.15 E1.05366
G1 X153.538 Y73.963 E1.06921
G1 X154.092 Y75.411 E1.09629
G1 X154.353 Y75.6 E1.10191
G1 X155.208 Y76.386 E1.12219
G1 X155.678 Y76.887 E1.13419
G1 X156.155 Y77.445 E1.14701
G1 X156.612 Y78.093 E1.16085
G1 X156.817 Y78.438 E1.16786
G1 X157.151 Y79.032 E1.17976
G1 X157.502 Y79.736 E1.1935
G1 X157.516 Y79.768 E1.19411
G1 X157.899 Y80.855 E1.21423
G1 X158.079 Y81.516 E1.22619
G1 X158.291 Y82.577 E1.24509
G1 X158.295 Y82.608 E1.24563
G1 X158.358 Y83.443 E1.26025
G1 X158.373 Y84.124 E1.27215
G1 X158.359 Y84.806 E1.28406
G1 X158.271 Y85.595 E1.29792
G1 X158.174 Y86.091 E1.30675
G1 X158.021 Y86.758 E1.3187
G1 X157.761 Y87.646 E1.33485
G1 X157.751 Y87.674 E1.33537
G1 X157.376 Y88.551 E1.35203
G1 X157.07 Y89.162 E1.36396
G1 X156.767 Y89.713 E1.37494
G1 X156.325 Y90.372 E1.38879
G1 X155.97 Y90.813 E1.39868
G1 X155.515 Y91.339 E1.41082
G1 X154.966 Y91.912 E1.42468
G1 X154.748 Y92.107 E1.42979
G1 X154.424 Y93.338 E1.45202
G1 X154.147 Y94.191 E1.46768
G1 X153.312 Y96.337 E1.50789
G1 X152.941 Y97.15 E1.52349
G1 X151.869 Y99.186 E1.56367
G1 X151.407 Y99.954 E1.57932
G1 X150.127 Y101.831 E1.61899
G1 X149.577 Y102.546 E1.63474
G1 X148.07 Y104.288 E1.67496
G1 X147.451 Y104.927 E1.6905
G1 X145.766 Y106.48 E1.73051
G1 X145.075 Y107.047 E1.74612
G1 X143.233 Y108.393 E1.78595
G1 X142.476 Y108.883 E1.8017
G1 X140.465 Y110.025 E1.84208
G1 X139.66 Y110.423 E1.85776
G1 X137.555 Y111.319 E1.89771
G1 X136.703 Y111.625 E1.91352
G1 X134.487 Y112.28 E1.95387
G1 X133.618 Y112.484 E1.96946
G1 X131.371 Y112.879 E2.00929
G1 X130.484 Y112.984 E2.02489
G1 X128.19 Y113.123 E2.06502
G1 X127.289 Y113.126 E2.08075
G1 X124.994 Y113.002 E2.12089
G1 X124.105 Y112.903 E2.1365
G1 X121.86 Y112.523 E2.17626
G1 X120.985 Y112.323 E2.19194
G1 X118.77 Y111.682 E2.2322
G1 X117.926 Y111.384 E2.24783
G1 X115.813 Y110.502 E2.28781
G1 X115.001 Y110.108 E2.30357
G1 X112.999 Y108.988 E2.34363
G1 X112.249 Y108.51 E2.35916
G1 X110.398 Y107.18 E2.39896
G1 X109.695 Y106.612 E2.41474
G1 X107.976 Y105.049 E2.45531
G1 X107.35 Y104.411 E2.47092
G1 X105.847 Y102.695 E2.51075
G1 X105.291 Y101.981 E2.52655
G1 X103.986 Y100.091 E2.56666
G1 X103.524 Y99.334 E2.58214
G1 X102.439 Y97.308 E2.62227
G1 X102.057 Y96.484 E2.63813
G1 X101.655 Y95.467 E2.65723
G1 X101.15 Y95.128 E2.66785
G1 X100.643 Y94.716 E2.67926
G1 X100.08 Y94.218 E2.69238
G1 X99.513 Y93.663 E2.70623
G1 X99.185 Y93.284 E2.71499
G1 X98.777 Y92.738 E2.72689
G1 X98.344 Y92.104 E2.74029
G1 X97.93 Y91.427 E2.75415
G1 X97.46 Y90.391 E2.77402
G1 X97.2 Y89.687 E2.78712
G1 X96.875 Y88.555 E2.80769
G1 X96.752 Y87.781 E2.82137
G1 X96.672 Y87.045 E2.8343
G1 X96.626 Y86.194 E2.84918
G1 X96.626 Y86.164 E2.8497
G1 X96.698 Y85.099 E2.86834
G1 X96.799 Y84.359 E2.88138
G1 X96.946 Y83.579 E2.89524
G1 X97.059 Y83.16 E2.90282
G1 X97.311 Y82.441 E2.91612
G1 X97.59 Y81.752 E2.9291
G1 X97.811 Y81.255 E2.9386
G1 X98.192 Y80.559 E2.95246
G1 X98.544 Y80.034 E2.96349
G1 X98.983 Y79.433 E2.97649
G1 X99.537 Y78.757 E2.99175
G1 X99.559 Y78.733 E2.99232
G1 X100.239 Y78.083 E3.00875
G1 X100.659 Y76.549 E3.03652
G1 X100.942 Y75.706 E3.05205
G1 X101.8 Y73.56 E3.0924
G1 X102.181 Y72.745 E3.10811
G1 X103.272 Y70.723 E3.14823
G1 X103.279 Y70.727 E3.14837
G1 X103.758 Y69.929 E3.16462
G0 F6000 X104.045 Y70.13
G1 F1050 X105.385 Y68.215 E3.20544
G1 X105.909 Y67.549 E3.22023
G1 X107.445 Y65.809 E3.26076
G1 X108.042 Y65.205 E3.27559
G1 X109.76 Y63.653 E3.31602
G1 X110.434 Y63.111 E3.33112
G1 X112.338 Y61.753 E3.37196
G1 X113.062 Y61.296 E3.38691
G1 X115.084 Y60.176 E3.42727
G1 X115.857 Y59.804 E3.44225
G1 X118.009 Y58.915 E3.48291
G1 X118.818 Y58.634 E3.49786
G1 X121.055 Y57.996 E3.53848
G1 X121.898 Y57.807 E3.55356
G1 X124.208 Y57.427 E3.59444
G1 X125.058 Y57.336 E3.60937
G1 X127.366 Y57.222 E3.64972
G1 X128.224 Y57.229 E3.6647
G1 X130.551 Y57.38 E3.70542
G1 X131.401 Y57.484 E3.72037
G1 X133.678 Y57.895 E3.76078
G1 X134.51 Y58.094 E3.77572
G1 X136.733 Y58.763 E3.81625
G1 X137.553 Y59.063 E3.8315
G1 X139.718 Y60 E3.87269
G1 X140.474 Y60.379 E3.88746
G1 X142.464 Y61.521 E3.92752
G1 X143.182 Y61.989 E3.94249
G1 X145.061 Y63.373 E3.98324
G1 X145.725 Y63.923 E3.99829
G1 X147.427 Y65.507 E4.03889
G1 X148.017 Y66.123 E4.05379
G1 X149.521 Y67.88 E4.09417
G1 X150.042 Y68.564 E4.10919
G1 X151.351 Y70.504 E4.15005
G1 X151.793 Y71.248 E4.16516
G1 X152.863 Y73.311 E4.20574
G1 X153.212 Y74.088 E4.22062
G1 X153.803 Y75.634 E4.24952
G1 X154.136 Y75.874 E4.25668
G1 X154.953 Y76.626 E4.27607
G1 X155.423 Y77.127 E4.28807
G1 X155.879 Y77.66 E4.30032
G1 X156.512 Y78.61 E4.32025
G1 X156.846 Y79.204 E4.33215
G1 X157.181 Y79.876 E4.34526
G1 X157.195 Y79.908 E4.34587
G1 X157.562 Y80.947 E4.36511
G1 X157.742 Y81.608 E4.37708
G1 X157.944 Y82.622 E4.39513
G1 X157.948 Y82.653 E4.39567
G1 X158.008 Y83.45 E4.40963
G1 X158.023 Y84.131 E4.42153
G1 X158.009 Y84.785 E4.43295
G1 X157.922 Y85.556 E4.4465
G1 X157.833 Y86.012 E4.45461
G1 X157.68 Y86.679 E4.46656
G1 X157.432 Y87.528 E4.482
G1 X157.422 Y87.556 E4.48252
G1 X157.063 Y88.395 E4.49846
G1 X156.757 Y89.006 E4.51039
G1 X156.467 Y89.533 E4.52089
G1 X156.034 Y90.176 E4.53443
G1 X155.705 Y90.584 E4.54358
G1 X155.25 Y91.11 E4.55573
G1 X154.713 Y91.67 E4.56927
G1 X154.437 Y91.916 E4.57573
G1 X154.086 Y93.249 E4.5998
G1 X153.821 Y94.064 E4.61476
G1 X152.986 Y96.21 E4.65497
G1 X152.631 Y96.987 E4.66989
G1 X151.559 Y99.023 E4.71007
G1 X151.118 Y99.757 E4.72502
G1 X149.838 Y101.634 E4.76469
G1 X149.312 Y102.317 E4.77974
G1 X147.805 Y104.059 E4.81996
G1 X147.214 Y104.669 E4.8348
G1 X145.529 Y106.222 E4.87481
G1 X144.869 Y106.765 E4.88973
G1 X143.027 Y108.111 E4.92957
G1 X142.303 Y108.579 E4.94462
G1 X140.292 Y109.721 E4.985
G1 X139.523 Y110.101 E4.99998
G1 X137.418 Y110.997 E5.03993
G1 X136.604 Y111.289 E5.05503
G1 X134.388 Y111.944 E5.09538
G1 X133.558 Y112.139 E5.11027
G1 X131.311 Y112.534 E5.15011
G1 X130.463 Y112.634 E5.16502
G1 X128.169 Y112.773 E5.20515
G1 X127.308 Y112.776 E5.22018
G1 X125.013 Y112.652 E5.26031
G1 X124.163 Y112.557 E5.27525
G1 X121.918 Y112.177 E5.31501
G1 X121.082 Y111.986 E5.32998
G1 X118.867 Y111.345 E5.37025
G1 X118.06 Y111.061 E5.38518
G1 X115.947 Y110.179 E5.42517
G1 X115.172 Y109.802 E5.44022
G1 X113.17 Y108.682 E5.48027
G1 X112.453 Y108.226 E5.49511
G1 X110.602 Y106.896 E5.53491
G1 X109.931 Y106.353 E5.54998
G1 X108.212 Y104.79 E5.59055
G1 X107.613 Y104.18 E5.60548
G1 X106.11 Y102.464 E5.64531
G1 X105.579 Y101.782 E5.6604
G1 X104.274 Y99.892 E5.70051
G1 X103.832 Y99.169 E5.71531
G1 X102.747 Y97.143 E5.75544
G1 X102.383 Y96.356 E5.77058
G1 X101.941 Y95.238 E5.79157
G1 X101.346 Y94.837 E5.8041
G1 X100.875 Y94.453 E5.81471
G1 X100.312 Y93.955 E5.82784
G1 X99.759 Y93.412 E5.84137
G1 X99.456 Y93.062 E5.84945
G1 X99.066 Y92.541 E5.86082
G1 X98.633 Y91.907 E5.87422
G1 X98.229 Y91.245 E5.88776
G1 X97.788 Y90.27 E5.90645
G1 X97.528 Y89.566 E5.91956
G1 X97.218 Y88.484 E5.93921
G1 X97.1 Y87.743 E5.95231
G1 X97.02 Y87.007 E5.96524
G1 X96.976 Y86.194 E5.97946
G1 X96.976 Y86.164 E5.97998
G1 X97.045 Y85.146 E5.9978
G1 X97.146 Y84.406 E6.01084
G1 X97.387 Y83.286 E6.03084
G1 X97.635 Y82.573 E6.04402
G1 X97.914 Y81.884 E6.057
G1 X98.126 Y81.408 E6.0661
G1 X98.499 Y80.727 E6.07966
G1 X98.826 Y80.24 E6.0899
G1 X99.265 Y79.639 E6.1029
G1 X99.795 Y78.993 E6.11749
G1 X99.817 Y78.969 E6.11806
G1 X100.533 Y78.285 E6.13535
G1 X100.551 Y78.27 E6.13576
G1 X100.997 Y76.641 E6.16525
G1 X101.267 Y75.836 E6.18008
G1 X102.125 Y73.69 E6.22043
G1 X102.49 Y72.911 E6.23545
G1 X103.581 Y70.889 E6.27557
G1 X103.586 Y70.892 E6.27568
G1 X104.045 Y70.13 E6.29121
G0 F6000 X104.331 Y70.33
G1 F1050 X105.671 Y68.415 E6.33202
G1 X106.171 Y67.781 E6.34612
G1 X107.707 Y66.041 E6.38665
G1 X108.276 Y65.465 E6.40079
G1 X109.994 Y63.913 E6.44121
G1 X110.638 Y63.396 E6.45563
G1 X112.542 Y62.038 E6.49647
G1 X113.231 Y61.603 E6.5107
G1 X115.253 Y60.483 E6.55106
G1 X115.991 Y60.128 E6.56536
G1 X118.143 Y59.239 E6.60602
G1 X118.914 Y58.97 E6.62028
G1 X121.151 Y58.332 E6.6609
G1 X121.954 Y58.152 E6.67527
G1 X124.264 Y57.772 E6.71614
G1 X125.075 Y57.686 E6.73038
G1 X127.383 Y57.572 E6.77073
G1 X128.202 Y57.578 E6.78504
G1 X130.529 Y57.729 E6.82575
G1 X131.338 Y57.828 E6.83999
G1 X133.615 Y58.239 E6.88039
G1 X134.409 Y58.429 E6.89464
G1 X136.632 Y59.098 E6.93518
G1 X137.414 Y59.384 E6.94972
G1 X139.579 Y60.321 E6.99091
G1 X140.3 Y60.683 E7.005
G1 X142.29 Y61.825 E7.04507
G1 X142.974 Y62.271 E7.05932
G1 X144.853 Y63.655 E7.10007
G1 X145.486 Y64.18 E7.11443
G1 X147.188 Y65.764 E7.15503
G1 X147.751 Y66.35 E7.16922
G1 X149.255 Y68.107 E7.20961
G1 X149.752 Y68.76 E7.22394
G1 X151.061 Y70.7 E7.2648
G1 X151.482 Y71.41 E7.27922
G1 X152.552 Y73.473 E7.3198
G1 X152.885 Y74.213 E7.33397
G1 X153.514 Y75.857 E7.3647
G1 X153.895 Y76.129 E7.37288
G1 X153.919 Y76.148 E7.37341
G1 X154.698 Y76.865 E7.3919
G1 X155.168 Y77.366 E7.40389
G1 X155.603 Y77.876 E7.4156
G1 X156.207 Y78.781 E7.4346
G1 X156.541 Y79.375 E7.4465
G1 X156.86 Y80.016 E7.459
G1 X156.874 Y80.048 E7.45961
G1 X157.224 Y81.039 E7.47796
G1 X157.404 Y81.7 E7.48992
G1 X157.597 Y82.667 E7.50714
G1 X157.601 Y82.698 E7.50769
G1 X157.658 Y83.458 E7.521
G1 X157.673 Y84.139 E7.53289
G1 X157.66 Y84.764 E7.54381
G1 X157.574 Y85.517 E7.55704
G1 X157.491 Y85.934 E7.56446
G1 X157.338 Y86.601 E7.57641
G1 X157.102 Y87.41 E7.59113
G1 X157.092 Y87.438 E7.59165
G1 X156.75 Y88.238 E7.60684
G1 X156.444 Y88.849 E7.61877
G1 X156.167 Y89.353 E7.62881
G1 X155.743 Y89.98 E7.64203
G1 X155.44 Y90.355 E7.65045
G1 X154.985 Y90.881 E7.66259
G1 X154.46 Y91.427 E7.67582
G1 X154.149 Y91.702 E7.68307
G1 X154.126 Y91.72 E7.68358
G1 X153.747 Y93.16 E7.70958
G1 X153.495 Y93.937 E7.72384
G1 X152.66 Y96.083 E7.76405
G1 X152.322 Y96.824 E7.77827
G1 X151.25 Y98.86 E7.81845
G1 X150.829 Y99.559 E7.8327
G1 X149.549 Y101.436 E7.87237
G1 X149.047 Y102.088 E7.88674
G1 X147.54 Y103.83 E7.92696
G1 X146.977 Y104.412 E7.9411
G1 X145.292 Y105.965 E7.98111
G1 X144.662 Y106.482 E7.99535
G1 X142.82 Y107.828 E8.03518
G1 X142.13 Y108.274 E8.04953
G1 X140.119 Y109.416 E8.08991
G1 X139.386 Y109.779 E8.10419
G1 X137.281 Y110.675 E8.14414
G1 X136.505 Y110.954 E8.15854
G1 X134.289 Y111.609 E8.19889
G1 X133.497 Y111.795 E8.2131
G1 X131.25 Y112.19 E8.25293
G1 X130.442 Y112.285 E8.26714
G1 X128.148 Y112.424 E8.30727
G1 X127.327 Y112.427 E8.32161
G1 X125.032 Y112.303 E8.36174
G1 X124.222 Y112.212 E8.37597
G1 X121.977 Y111.832 E8.41573
G1 X121.179 Y111.65 E8.43002
G1 X118.964 Y111.009 E8.47029
G1 X118.195 Y110.738 E8.48452
G1 X116.082 Y109.856 E8.52451
G1 X115.343 Y109.497 E8.53885
G1 X113.341 Y108.377 E8.57891
G1 X112.657 Y107.942 E8.59306
G1 X110.806 Y106.612 E8.63286
G1 X110.166 Y106.094 E8.64724
G1 X108.447 Y104.531 E8.68781
G1 X107.877 Y103.949 E8.70203
G1 X106.374 Y102.233 E8.74187
G1 X105.867 Y101.583 E8.75626
G1 X104.562 Y99.693 E8.79637
G1 X104.141 Y99.003 E8.81048
G1 X103.056 Y96.977 E8.85061
G1 X102.708 Y96.227 E8.86505
G1 X102.224 Y95.002 E8.88805
G1 X102.169 Y94.97 E8.88916
G1 X101.542 Y94.546 E8.90238
G1 X101.107 Y94.191 E8.91218
G1 X100.544 Y93.693 E8.92531
G1 X100.004 Y93.162 E8.93853
G1 X99.727 Y92.84 E8.94595
G1 X99.355 Y92.344 E8.95677
G1 X98.922 Y91.71 E8.97018
G1 X98.528 Y91.062 E8.98342
G1 X98.116 Y90.149 E9.00091
G1 X97.856 Y89.445 E9.01402
G1 X97.561 Y88.413 E9.03276
G1 X97.448 Y87.705 E9.04528
G1 X97.368 Y86.969 E9.05821
G1 X97.326 Y86.194 E9.07176
G1 X97.326 Y86.164 E9.07228
G1 X97.392 Y85.194 E9.08926
G1 X97.493 Y84.454 E9.1023
G1 X97.723 Y83.386 E9.12138
G1 X97.96 Y82.704 E9.13398
G1 X98.239 Y82.015 E9.14696
G1 X98.442 Y81.56 E9.15566
G1 X98.806 Y80.896 E9.16889
G1 X99.109 Y80.447 E9.17834
G1 X99.548 Y79.846 E9.19134
G1 X100.053 Y79.23 E9.20525
G1 X100.075 Y79.206 E9.20582
G1 X100.757 Y78.553 E9.22231
G1 X100.859 Y78.468 E9.22462
G1 X101.334 Y76.734 E9.25602
G1 X101.592 Y75.966 E9.27016
G1 X102.45 Y73.82 E9.31052
G1 X102.798 Y73.077 E9.32485
G1 X103.823 Y71.177 E9.36254
G1 X103.892 Y71.057 E9.36496
G1 X104.331 Y70.33 E9.37979
G0 F6000 X104.618 Y70.531
G1 F1050 X105.958 Y68.616 E9.4206
G1 X106.433 Y68.012 E9.43402
G1 X107.969 Y66.272 E9.47455
G1 X108.511 Y65.725 E9.48799
G1 X110.229 Y64.173 E9.52842
G1 X110.841 Y63.681 E9.54213
G1 X112.745 Y62.323 E9.58297
G1 X113.401 Y61.909 E9.59652
G1 X115.423 Y60.789 E9.63688
G1 X116.124 Y60.451 E9.65047
G1 X118.276 Y59.562 E9.69112
G1 X119.01 Y59.307 E9.70469
G1 X121.247 Y58.669 E9.74531
G1 X122.011 Y58.498 E9.75898
G1 X124.321 Y58.118 E9.79986
G1 X125.092 Y58.035 E9.8134
G1 X127.4 Y57.921 E9.85375
G1 X128.179 Y57.927 E9.86735
G1 X130.506 Y58.078 E9.90807
G1 X131.276 Y58.173 E9.92162
G1 X133.553 Y58.584 E9.96202
G1 X134.308 Y58.765 E9.97558
G1 X136.531 Y59.434 E10.01612
G1 X137.275 Y59.705 E10.02994
G1 X139.44 Y60.642 E10.07114
G1 X140.126 Y60.986 E10.08454
G1 X142.116 Y62.128 E10.1246
G1 X142.767 Y62.553 E10.13818
G1 X144.646 Y63.937 E10.17893
G1 X145.248 Y64.436 E10.19258
G1 X146.95 Y66.02 E10.23318
G1 X147.485 Y66.578 E10.24668
G1 X148.989 Y68.335 E10.28706
G1 X149.462 Y68.956 E10.30069
G1 X150.771 Y70.896 E10.34156
G1 X151.172 Y71.571 E10.35527
G1 X152.242 Y73.634 E10.39585
G1 X152.558 Y74.338 E10.40932
G1 X153.224 Y76.08 E10.44189
G1 X153.677 Y76.404 E10.45161
G1 X153.701 Y76.423 E10.45215
G1 X154.443 Y77.104 E10.46973
G1 X154.913 Y77.605 E10.48173
G1 X155.328 Y78.092 E10.4929
G1 X155.902 Y78.953 E10.51097
G1 X156.236 Y79.547 E10.52287
G1 X156.54 Y80.156 E10.53476
G1 X156.554 Y80.188 E10.53537
G1 X156.886 Y81.131 E10.55282
G1 X157.066 Y81.792 E10.56479
G1 X157.25 Y82.712 E10.58117
G1 X157.254 Y82.743 E10.58171
G1 X157.308 Y83.466 E10.59437
G1 X157.323 Y84.147 E10.60627
G1 X157.31 Y84.743 E10.61668
G1 X157.226 Y85.477 E10.62958
G1 X157.15 Y85.856 E10.63633
G1 X156.997 Y86.523 E10.64828
G1 X156.772 Y87.292 E10.66227
G1 X156.762 Y87.32 E10.66279
G1 X156.437 Y88.081 E10.67724
G1 X156.131 Y88.692 E10.68917
G1 X155.866 Y89.172 E10.69874
G1 X155.453 Y89.784 E10.71163
G1 X155.176 Y90.126 E10.71932
G1 X154.721 Y90.652 E10.73146
G1 X153.949 Y91.413 E10.75039
G1 X153.818 Y91.516 E10.7533
G1 X153.409 Y93.071 E10.78138
G1 X153.168 Y93.81 E10.79495
G1 X152.333 Y95.956 E10.83516
G1 X152.012 Y96.661 E10.84869
G1 X150.94 Y98.697 E10.88887
G1 X150.54 Y99.362 E10.90242
G1 X149.26 Y101.239 E10.94209
G1 X148.783 Y101.859 E10.95575
G1 X147.276 Y103.601 E10.99597
G1 X146.739 Y104.155 E11.00944
G1 X145.054 Y105.708 E11.04945
G1 X144.456 Y106.2 E11.06298
