;FLAVOR:Marlin
;TIME:7560
;Filament used: 1.65614m
;Layer height: 0.1
;MINX:88.941
;MINY:69.223
;MINZ:0.144
;MAXX:166.043
;MAXY:140.768
;MAXZ:18.664
;Generated with Cura_SteamEngine master
M140 S60
M105
M190 S60
M104 S210
M105
M109 S210
M82 ;absolute extrusion mode
M220 S100 ;reset feedrate
M221 S100 ;reset flowrate
G90 ;use absolute coordinates
M82 ;absolute extrusion mode
G28 ;home
G1 Z2 F1500 ;raise z
G92 E0 ;reset extruder

G1 X75 Y5 F5000 ;start position
G1 Z0.28 F1500 ;lower z
G1 E4 F500 ;prime the filament
G1 X180 E10 F500 ;1st line
G1 Y5.4 F5000
G1 X75 E20 F500 ;2nd line
G1 Z2 F1500 ;raise z
G92 E0 ;reset extruder
G92 E0
G92 E0
G1 F1500 E-6.5
;LAYER_COUNT:180
;LAYER:-7
M107
G0 F9000 X100.494 Y82.827 Z0.144
;TYPE:SUPPORT-INTERFACE
G1 F1500 E0
G1 F787.5 X101.18 Y81.998 E0.03221
G1 X101.521 Y81.631 E0.04721
G1 X101.589 Y81.558 E0.05019
G1 X103.074 Y80.018 E0.11423
G1 X103.203 Y79.889 E0.11969
G1 X103.858 Y79.257 E0.14694
G1 X103.972 Y79.154 E0.15154
G1 X104.408 Y78.78 E0.16873
G1 X106.094 Y77.389 E0.23416
G1 X106.187 Y77.315 E0.23772
G1 X106.94 Y76.739 E0.2661
G1 X107.037 Y76.67 E0.26966
G1 X107.529 Y76.337 E0.28744
G1 X109.362 Y75.147 E0.35286
G1 X110.279 Y74.597 E0.38487
G1 X110.38 Y74.539 E0.38836
G1 X110.857 Y74.29 E0.40446
G1 X112.843 Y73.301 E0.47088
G1 X112.934 Y73.258 E0.47389
G1 X113.818 Y72.858 E0.50293
G1 X113.962 Y72.798 E0.5076
G1 X114.454 Y72.608 E0.52339
G1 X116.551 Y71.848 E0.59016
G1 X117.561 Y71.521 E0.62194
G1 X117.672 Y71.489 E0.6254
G1 X118.245 Y71.342 E0.6431
G1 X120.361 Y70.838 E0.70822
G1 X120.46 Y70.816 E0.71125
G1 X121.419 Y70.624 E0.74053
G1 X121.539 Y70.604 E0.74417
G1 X122.12 Y70.523 E0.76173
G1 X124.3 Y70.261 E0.82746
G1 X125.35 Y70.172 E0.859
G1 X125.487 Y70.165 E0.86311
G1 X126.041 Y70.151 E0.87969
G1 X128.236 Y70.138 E0.9454
G1 X128.329 Y70.139 E0.94819
G1 X129.319 Y70.17 E0.97783
G1 X129.439 Y70.178 E0.98143
G1 X129.842 Y70.213 E0.99354
G1 X130.023 Y70.231 E0.99899
G1 X132.179 Y70.465 E1.06391
G1 X132.307 Y70.481 E1.06777
G1 X133.226 Y70.614 E1.09556
G1 X133.381 Y70.641 E1.10027
G1 X133.943 Y70.758 E1.11746
G1 X136.061 Y71.237 E1.18246
G1 X136.174 Y71.265 E1.18594
G1 X137.112 Y71.513 E1.21499
G1 X137.212 Y71.542 E1.2181
G1 X137.739 Y71.714 E1.2347
G1 X139.842 Y72.449 E1.30138
G1 X140.824 Y72.831 E1.33292
G1 X140.958 Y72.888 E1.33728
G1 X141.441 Y73.109 E1.35318
G1 X143.456 Y74.083 E1.42018
G1 X144.39 Y74.577 E1.4518
G1 X144.493 Y74.635 E1.45534
G1 X144.977 Y74.927 E1.47226
G1 X146.89 Y76.138 E1.54004
G1 X147.709 Y76.7 E1.56977
G1 X147.831 Y76.789 E1.57429
G1 X148.257 Y77.118 E1.5904
G1 X150.051 Y78.565 E1.6594
G1 X150.81 Y79.224 E1.68948
G1 X150.883 Y79.291 E1.69245
G1 X151.3 Y79.699 E1.70991
G1 X152.898 Y81.319 E1.77803
G1 X153.55 Y82.031 E1.80693
G1 X153.648 Y82.143 E1.81138
G1 X153.988 Y82.559 E1.82747
G1 X155.413 Y84.38 E1.89668
G1 X155.986 Y85.17 E1.9259
G1 X156.062 Y85.281 E1.92992
G1 X156.365 Y85.754 E1.94674
G1 X157.499 Y87.598 E2.01154
G1 X157.561 Y87.704 E2.01521
G1 X158.034 Y88.539 E2.04394
G1 X158.116 Y88.696 E2.04924
G1 X158.345 Y89.163 E2.06481
G1 X159.431 Y91.494 E2.14179
G1 X159.444 Y91.485 E2.14226
G1 X159.575 Y91.739 E2.15082
G1 X159.95 Y92.284 E2.17062
G1 X160.25 Y92.633 E2.1844
G1 X160.802 Y93.221 E2.20854
G1 X160.933 Y93.372 E2.21452
G1 X161.483 Y94.051 E2.24068
G1 X161.608 Y94.219 E2.24695
G1 X162.324 Y95.276 E2.28516
G1 X162.398 Y95.392 E2.28928
G1 X162.717 Y95.915 E2.30762
G1 X163.223 Y96.817 E2.33858
G1 X163.306 Y96.981 E2.34408
G1 X163.685 Y97.794 E2.37093
G1 X163.761 Y97.975 E2.37681
G1 X164.222 Y99.232 E2.41689
G1 X164.452 Y99.972 E2.44008
G1 X164.71 Y100.926 E2.46967
G1 X164.75 Y101.094 E2.47484
G1 X164.918 Y101.967 E2.50145
G1 X164.947 Y102.163 E2.50738
G1 X165.084 Y103.483 E2.54711
G1 X165.094 Y103.61 E2.55092
G1 X165.132 Y104.314 E2.57202
G1 X165.148 Y105.268 E2.60058
G1 X165.145 Y105.449 E2.606
G1 X165.097 Y106.316 E2.632
G1 X165.074 Y106.547 E2.63894
G1 X164.892 Y107.834 E2.67785
G1 X164.875 Y107.933 E2.68086
G1 X164.755 Y108.55 E2.69968
G1 X164.735 Y108.645 E2.70258
G1 X164.518 Y109.585 E2.73146
G1 X164.479 Y109.729 E2.73593
G1 X164.217 Y110.575 E2.76244
G1 X164.14 Y110.789 E2.76924
G1 X163.659 Y111.973 E2.8075
G1 X163.592 Y112.127 E2.81253
G1 X163.31 Y112.73 E2.83245
G1 X162.852 Y113.619 E2.86239
G1 X162.776 Y113.754 E2.86703
G1 X162.307 Y114.525 E2.89404
G1 X162.191 Y114.699 E2.9003
G1 X161.421 Y115.748 E2.93925
G1 X161.333 Y115.86 E2.94352
G1 X160.961 Y116.317 E2.96115
G1 X160.805 Y116.498 E2.96831
G1 X160.404 Y117.018 E2.98796
G1 X160.07 Y117.588 E3.00774
G1 X159.891 Y117.984 E3.02075
G1 X159.863 Y118.054 E3.02301
G1 X159.636 Y118.572 E3.03993
G1 X158.703 Y120.579 E3.10619
G1 X158.632 Y120.724 E3.11102
G1 X158.201 Y121.569 E3.13941
G1 X158.136 Y121.687 E3.14345
G1 X157.837 Y122.197 E3.16114
G1 X156.654 Y124.129 E3.22896
G1 X156.108 Y124.951 E3.2585
G1 X156.017 Y125.081 E3.26325
G1 X155.701 Y125.502 E3.279
G1 X154.268 Y127.335 E3.34865
G1 X153.621 Y128.104 E3.37873
G1 X153.547 Y128.186 E3.38204
G1 X153.139 Y128.619 E3.39985
G1 X151.536 Y130.246 E3.46822
G1 X150.806 Y130.936 E3.49829
G1 X150.722 Y131.011 E3.50166
G1 X150.299 Y131.366 E3.51819
G1 X148.483 Y132.831 E3.58803
G1 X147.682 Y133.429 E3.61795
G1 X147.589 Y133.495 E3.62137
G1 X147.121 Y133.805 E3.63817
G1 X145.242 Y134.999 E3.70481
G1 X144.32 Y135.54 E3.73681
G1 X144.212 Y135.599 E3.7405
G1 X143.676 Y135.872 E3.7585
G1 X141.677 Y136.84 E3.82499
G1 X141.597 Y136.877 E3.82763
G1 X140.716 Y137.265 E3.85644
G1 X140.581 Y137.321 E3.86082
G1 X140.05 Y137.517 E3.87776
G1 X137.864 Y138.283 E3.9471
G1 X136.944 Y138.566 E3.97591
G1 X136.807 Y138.605 E3.98017
G1 X136.256 Y138.741 E3.99716
G1 X134.073 Y139.235 E4.06416
G1 X133.044 Y139.431 E4.09552
G1 X132.852 Y139.461 E4.10133
G1 X132.326 Y139.529 E4.11721
G1 X129.996 Y139.78 E4.18736
G1 X129.037 Y139.848 E4.21614
G1 X128.902 Y139.854 E4.22019
G1 X128.333 Y139.862 E4.23722
G1 X126.15 Y139.851 E4.30257
G1 X126.056 Y139.849 E4.30538
G1 X125.071 Y139.809 E4.33489
G1 X124.958 Y139.8 E4.33828
G1 X124.377 Y139.742 E4.35576
G1 X122.191 Y139.479 E4.42167
G1 X122.052 Y139.46 E4.42587
G1 X121.125 Y139.315 E4.45396
G1 X120.974 Y139.287 E4.45855
G1 X120.453 Y139.175 E4.4745
G1 X118.243 Y138.649 E4.54251
G1 X117.244 Y138.374 E4.57352
G1 X117.105 Y138.331 E4.57788
G1 X116.601 Y138.161 E4.5938
G1 X114.418 Y137.371 E4.66329
G1 X113.504 Y137.001 E4.69281
G1 X113.339 Y136.929 E4.6982
G1 X112.97 Y136.756 E4.7104
G1 X110.788 Y135.671 E4.78334
G1 X109.913 Y135.193 E4.81319
G1 X109.813 Y135.135 E4.81665
G1 X109.336 Y134.84 E4.83344
G1 X107.463 Y133.624 E4.90029
G1 X107.372 Y133.562 E4.90358
G1 X106.574 Y133.001 E4.93278
G1 X106.477 Y132.929 E4.9364
G1 X106.149 Y132.671 E4.94889
G1 X104.263 Y131.118 E5.02202
G1 X103.523 Y130.459 E5.05168
G1 X103.413 Y130.357 E5.05617
G1 X103 Y129.944 E5.07366
G1 X101.409 Y128.293 E5.14229
G1 X100.758 Y127.567 E5.17148
G1 X100.682 Y127.476 E5.17503
G1 X100.326 Y127.029 E5.19214
G1 X98.991 Y125.284 E5.2579
G1 X98.897 Y125.157 E5.26263
G1 X98.354 Y124.389 E5.29079
G1 X98.268 Y124.259 E5.29546
G1 X97.979 Y123.8 E5.31169
G1 X96.782 Y121.794 E5.38162
G1 X96.323 Y120.955 E5.41024
G1 X96.255 Y120.822 E5.41472
G1 X96.01 Y120.309 E5.43173
G1 X95.09 Y118.275 E5.49856
G1 X95.054 Y118.193 E5.50124
G1 X94.779 Y117.522 E5.52295
G1 X94.491 Y116.929 E5.54268
G1 X93.951 Y116.151 E5.57103
G1 X93.747 Y115.907 E5.58055
G1 X93.147 Y115.137 E5.60977
G1 X93.05 Y115.003 E5.61472
G1 X92.563 Y114.276 E5.64092
G1 X92.439 Y114.072 E5.64806
G1 X91.828 Y112.968 E5.68583
G1 X91.776 Y112.868 E5.68921
G1 X91.485 Y112.272 E5.70906
G1 X91.097 Y111.405 E5.73749
G1 X91.03 Y111.236 E5.74294
G1 X90.731 Y110.408 E5.76929
G1 X90.672 Y110.218 E5.77524
G1 X90.336 Y108.964 E5.8141
G1 X90.301 Y108.816 E5.81866
G1 X90.187 Y108.288 E5.83483
G1 X90.167 Y108.186 E5.83794
G1 X90.008 Y107.282 E5.86541
G1 X89.979 Y107.078 E5.87158
G1 X89.89 Y106.21 E5.8977
G1 X89.877 Y105.984 E5.90448
G1 X89.856 Y104.74 E5.94172
G1 X89.858 Y104.579 E5.94654
G1 X89.874 Y104.068 E5.96184
G1 X89.88 Y103.917 E5.96637
G1 X89.945 Y102.991 E5.99415
G1 X89.962 Y102.825 E5.99915
G1 X90.086 Y101.95 E6.0256
G1 X90.124 Y101.747 E6.03179
G1 X90.446 Y100.364 E6.07429
G1 X90.601 Y99.821 E6.09119
G1 X90.916 Y98.84 E6.12204
G1 X90.984 Y98.653 E6.12799
G1 X91.309 Y97.854 E6.15381
G1 X91.406 Y97.642 E6.16079
G1 X92.052 Y96.383 E6.20315
G1 X92.405 Y95.776 E6.22417
G1 X92.887 Y95.004 E6.25141
G1 X92.983 Y94.863 E6.25652
G1 X93.517 Y94.132 E6.28362
G1 X93.631 Y93.989 E6.28909
G1 X94.237 Y93.296 E6.31665
G1 X94.639 Y92.773 E6.3364
G1 X95.102 Y91.918 E6.3655
G1 X95.243 Y91.59 E6.37619
G1 X96.16 Y89.563 E6.44278
G1 X96.198 Y89.483 E6.44544
G1 X96.636 Y88.604 E6.47483
G1 X96.702 Y88.481 E6.47901
G1 X96.964 Y88.021 E6.49486
G1 X98.099 Y86.124 E6.56103
G1 X98.179 Y85.996 E6.56555
G1 X98.682 Y85.221 E6.59321
G1 X98.763 Y85.105 E6.59744
G1 X99.079 Y84.674 E6.61344
G1 X100.494 Y82.827 E6.68309
G0 F9000 X101 Y82.215
G1 F787.5 X101 Y127.836 E8.04871
G0 F9000 X102 Y128.906
G1 F787.5 X102 Y81.131 E9.47882
G0 F9000 X103 Y80.094
G1 F787.5 X103 Y129.944 E10.97103
G0 F9000 X104 Y130.883
G1 F787.5 X104 Y79.129 E12.52024
G0 F9000 X105 Y78.291
G1 F787.5 X105 Y131.724 E14.11971
G0 F9000 X106 Y132.548
G1 F787.5 X106 Y77.466 E15.76854
G0 F9000 X107 Y76.696
G1 F787.5 X107 Y133.3 E17.46293
G0 F9000 X108 Y133.972
G1 F787.5 X108 Y76.031 E19.19735
G0 F9000 X109 Y75.382
G1 F787.5 X109 Y134.621 E20.97061
G0 F9000 X110 Y135.24
G1 F787.5 X110 Y74.764 E22.78091
G0 F9000 X111 Y74.218
G1 F787.5 X111 Y135.776 E24.62359
G0 F9000 X112 Y136.273
G1 F787.5 X112 Y73.72 E26.49606
G0 F9000 X113 Y73.228
G1 F787.5 X113 Y136.77 E28.39814
G0 F9000 X114 Y137.201
G1 F787.5 X114 Y72.783 E30.32643
G0 F9000 X115 Y72.41
G1 F787.5 X115 Y137.581 E32.27727
G0 F9000 X116 Y137.943
G1 F787.5 X116 Y72.047 E34.24981
G0 F9000 X117 Y71.702
G1 F787.5 X117 Y138.295 E36.24321
G0 F9000 X118 Y138.582
G1 F787.5 X118 Y71.404 E38.25413
G0 F9000 X119 Y71.162
G1 F787.5 X119 Y138.829 E40.27968
G0 F9000 X120 Y139.067
G1 F787.5 X120 Y70.923 E42.31951
G0 F9000 X121 Y70.707
G1 F787.5 X121 Y139.291 E44.37251
G0 F9000 X122 Y139.451
G1 F787.5 X122 Y70.539 E46.43533
G0 F9000 X123 Y70.417
G1 F787.5 X123 Y139.576 E48.50555
G0 F9000 X124 Y139.696
G1 F787.5 X124 Y70.297 E50.58294
G0 F9000 X125 Y70.201
G1 F787.5 X125 Y139.803 E52.66642
G0 F9000 X126 Y139.846
G1 F787.5 X126 Y70.152 E54.75265
G0 F9000 X127 Y70.145
G1 F787.5 X127 Y139.855 E56.83936
G0 F9000 X128 Y139.86
G1 F787.5 X128 Y70.139 E58.92639
G0 F9000 X129 Y70.161
G1 F787.5 X129 Y139.85 E61.01247
G0 F9000 X130 Y139.78
G1 F787.5 X130 Y70.229 E63.09442
G0 F9000 X131 Y70.338
G1 F787.5 X131 Y139.672 E65.16987
G0 F9000 X132 Y139.565
G1 F787.5 X132 Y70.446 E67.23889
G0 F9000 X133 Y70.582
G1 F787.5 X133 Y139.438 E69.30003
G0 F9000 X134 Y139.249
G1 F787.5 X134 Y70.771 E71.34986
G0 F9000 X135 Y70.998
G1 F787.5 X135 Y139.026 E73.38622
G0 F9000 X136 Y138.799
G1 F787.5 X136 Y71.224 E75.40902
G0 F9000 X137 Y71.484
G1 F787.5 X137 Y138.549 E77.41655
G0 F9000 X138 Y138.236
G1 F787.5 X138 Y71.806 E79.40507
G0 F9000 X139 Y72.155
G1 F787.5 X139 Y137.885 E81.37264
G0 F9000 X140 Y137.535
G1 F787.5 X140 Y72.511 E83.31908
G0 F9000 X141 Y72.908
G1 F787.5 X141 Y137.14 E85.24181
G0 F9000 X142 Y136.684
G1 F787.5 X142 Y73.38 E87.13676
G0 F9000 X143 Y73.863
G1 F787.5 X143 Y136.2 E89.00276
G0 F9000 X144 Y135.707
G1 F787.5 X144 Y74.371 E90.8388
G0 F9000 X145 Y74.942
G1 F787.5 X145 Y135.141 E92.6408
G0 F9000 X146 Y134.518
G1 F787.5 X146 Y75.575 E94.40521
G0 F9000 X147 Y76.214
G1 F787.5 X147 Y133.882 E96.13145
G0 F9000 X148 Y133.192
G1 F787.5 X148 Y76.92 E97.8159
G0 F9000 X149 Y77.718
G1 F787.5 X149 Y132.414 E99.45318
G0 F9000 X150 Y131.608
G1 F787.5 X150 Y78.524 E101.0422
G0 F9000 X151 Y79.406
G1 F787.5 X151 Y130.753 E102.57923
G0 F9000 X152 Y129.776
G1 F787.5 X152 Y80.409 E104.05699
G0 F9000 X153 Y81.431
G1 F787.5 X153 Y128.761 E105.47377
G0 F9000 X154 Y127.654
G1 F787.5 X154 Y82.575 E106.82317
G0 F9000 X155 Y83.853
G1 F787.5 X155 Y126.399 E108.09675
G0 F9000 X156 Y125.104
G1 F787.5 X156 Y85.191 E109.29151
G0 F9000 X157 Y86.787
G1 F787.5 X157 Y123.564 E110.3924
G0 F9000 X158 Y121.919
G1 F787.5 X158 Y88.479 E111.39339
G0 F9000 X159 Y90.569
G1 F787.5 X159 Y119.941 E112.27262
G0 F9000 X160 Y117.743
G1 F787.5 X160 Y92.343 E113.03295
G0 F9000 X161 Y93.455
G1 F787.5 X161 Y116.27 E113.71589
G0 F9000 X162 Y114.96
G1 F787.5 X162 Y94.798 E114.31942
G0 F9000 X163 Y96.42
G1 F787.5 X163 Y113.332 E114.82567
G0 F9000 X164 Y111.134
G1 F787.5 X164 Y98.627 E115.20006
G1 F1500 E108.70006
G0 F9000 X164.858 Y98.313
G0 X165.523 Y100.467
G0 X165.855 Y102.053
G0 X165 Y102.674
G1 F1500 E115.20006
G1 F787.5 X165 Y107.071 E115.33168
G1 F1500 E108.83168
G0 F9000 X165.906 Y107.199
G0 X165.628 Y108.844
G0 X165.086 Y110.859
G0 X164.125 Y113.143
G0 X163.081 Y115.012
G0 X158.619 Y122.672
G0 X156.755 Y125.621
G0 X154.218 Y128.808
G0 X151.317 Y131.705
G0 X148.11 Y134.246
G0 X144.637 Y136.409
G0 X140.916 Y138.171
G0 X137.038 Y139.49
G0 X132.982 Y140.367
G0 X128.933 Y140.768
G0 X124.875 Y140.711
G0 X120.8 Y140.185
G0 X116.826 Y139.203
G0 X113.152 Y137.845
G0 X109.468 Y135.992
G0 X106.04 Y133.744
G0 X103.67 Y131.814
G0 X102.344 Y130.581
G0 X100.424 Y128.534
G0 X99.274 Y127.159
G0 X100 Y126.602
G1 F1500 E115.33168
G1 F787.5 X100 Y83.471 E116.62276
G0 F9000 X99 Y84.781
G1 F787.5 X99 Y125.295 E117.83552
G0 F9000 X98 Y123.833
G1 F787.5 X98 Y86.289 E118.95936
G0 F9000 X97 Y87.96
G1 F787.5 X97 Y122.159 E119.98308
G0 F9000 X96 Y120.286
G1 F787.5 X96 Y89.916 E120.89218
G0 F9000 X95 Y92.106
G1 F787.5 X95 Y118.061 E121.66912
G0 F9000 X94 Y116.221
G1 F787.5 X94 Y93.567 E122.34725
G0 F9000 X93 Y94.839
G1 F787.5 X93 Y114.928 E122.94859
G0 F9000 X92 Y113.278
G1 F787.5 X92 Y96.484 E123.45131
G0 F9000 X91 Y98.613
G1 F787.5 X91 Y111.152 E123.82665
G1 F1500 E117.32665
G0 F9000 X90.141 Y111.463
G0 X89.792 Y110.468
G0 X89.496 Y109.271
G0 X89.104 Y107.421
G0 X90 Y107.225
G1 F1500 E123.82665
G1 F787.5 X90 Y102.556 E123.96641
G1 F1500 E117.46641
G0 F300 X90 Y102.556 Z0.294
G0 F9000 X89.055 Y102.71
G0 X88.941 Y104.738
G0 X88.979 Y106.288
G0 X89.292 Y108.475
G0 X89.867 Y110.705
G0 X90.655 Y112.657
G0 X91.789 Y114.763
G0 X96.04 Y122.337
G0 X97.596 Y124.902
G0 X99.603 Y127.588
G0 X100.43 Y127.159
;TIME_ELAPSED:326.314679
;LAYER:-6
;TYPE:SUPPORT
G1 F1500 E123.96641
G1 F787.5 X104.974 Y131.702 E124.16677
G1 X104.262 Y131.117 E124.1955
G1 X103.523 Y130.458 E124.22638
G1 X103.412 Y130.356 E124.23108
G1 X103 Y129.943 E124.24927
G1 X101.409 Y128.291 E124.32078
G1 X100.758 Y127.566 E124.35117
G1 X100.682 Y127.475 E124.35486
G1 F1500 E117.85486
G0 F9000 X100.07 Y128.17
G0 X102.618 Y130.834
G0 X104.392 Y132.409
G0 X104.974 Y131.702
G1 F1500 E124.35486
G1 F787.5 X106.149 Y132.67 E124.40233
G1 X106.476 Y132.928 E124.41532
G1 X106.574 Y133 E124.41911
G1 X107.372 Y133.561 E124.44953
G1 X107.463 Y133.623 E124.45296
G1 X108.665 Y134.404 E124.49766
G1 X97.857 Y123.595 E124.97428
G1 X96.781 Y121.793 E125.03973
G1 X96.464 Y121.212 E125.06036
G1 X111.052 Y135.801 E125.70367
G1 X112.969 Y136.755 E125.77044
G1 X113.019 Y136.778 E125.77216
G1 X95.564 Y119.322 E126.5419
G1 X95.089 Y118.274 E126.57777
G1 X95.054 Y118.192 E126.58055
G1 X94.797 Y117.566 E126.60165
G1 X114.705 Y137.474 E127.47954
G1 X116.256 Y138.035 E127.53097
G1 X92.697 Y114.476 E128.56985
G1 X92.563 Y114.275 E128.57739
G1 X92.439 Y114.071 E128.58483
G1 X91.827 Y112.967 E128.62419
G1 X91.776 Y112.867 E128.62769
G1 X91.486 Y112.275 E128.64824
G1 X117.714 Y138.503 E129.80482
G1 X118.243 Y138.648 E129.82193
G1 X119.038 Y138.837 E129.84741
G1 X90.8 Y110.599 E131.09262
G1 X90.73 Y110.406 E131.09902
G1 X90.671 Y110.217 E131.1052
G1 X90.402 Y109.211 E131.13767
G1 X120.337 Y139.146 E132.45772
G1 X120.452 Y139.174 E132.46141
G1 X120.973 Y139.286 E132.47802
G1 X121.124 Y139.314 E132.48281
G1 X121.563 Y139.382 E132.49666
G1 X90.124 Y107.943 E133.88303
G1 X90.008 Y107.281 E133.90399
G1 X89.979 Y107.077 E133.91041
G1 X89.948 Y106.777 E133.91982
G1 X122.711 Y139.54 E135.36457
G1 X123.837 Y139.676 E135.39994
G1 X89.871 Y105.711 E136.89772
G1 X89.856 Y104.739 E136.92803
