;FLAVOR:Marlin
;TIME:7736
;Filament used: 1.70478m
;Layer height: 0.1
;MINX:88.965
;MINY:49.201
;MINZ:0.144
;MAXX:166.017
;MAXY:120.8
;MAXZ:18.664
;Generated with Cura_SteamEngine master
M140 S60
M105
M190 S60
M104 S210
M105
M109 S210
M82 ;absolute extrusion mode
M220 S100 ;reset feedrate
M221 S100 ;reset flowrate
G90 ;use absolute coordinates
M82 ;absolute extrusion mode
G28 ;home
G1 Z2 F1500 ;raise z
G92 E0 ;reset extruder

G1 X75 Y5 F5000 ;start position
G1 Z0.28 F1500 ;lower z
G1 E4 F500 ;prime the filament
G1 X180 E10 F500 ;1st line
G1 Y5.4 F5000
G1 X75 E20 F500 ;2nd line
G1 Z2 F1500 ;raise z
G92 E0 ;reset extruder
G92 E0
G92 E0
G1 F1500 E-6.5
;LAYER_COUNT:180
;LAYER:-7
M107
G0 F9000 X98.197 Y66.108 Z0.144
;TYPE:SUPPORT-INTERFACE
G1 F1500 E0
G1 F787.5 X98.267 Y66.005 E0.00373
G1 X99.47 Y64.283 E0.06661
G1 X99.601 Y64.111 E0.07308
G1 X99.964 Y63.61 E0.0916
G1 X100.054 Y63.492 E0.09604
G1 X100.614 Y62.816 E0.12232
G1 X102.131 Y61.1 E0.19088
G1 X102.725 Y60.469 E0.21682
G1 X102.824 Y60.372 E0.22097
G1 X103.319 Y59.905 E0.24134
G1 X104.927 Y58.451 E0.30623
G1 X105.124 Y58.282 E0.314
G1 X105.323 Y58.108 E0.32192
G1 X106.247 Y57.381 E0.35711
G1 X106.375 Y57.285 E0.3619
G1 X108.197 Y55.985 E0.4289
G1 X108.607 Y55.704 E0.44378
G1 X109.572 Y55.118 E0.47757
G1 X109.699 Y55.044 E0.48197
G1 X111.651 Y53.963 E0.54877
G1 X112.16 Y53.695 E0.56599
G1 X112.237 Y53.658 E0.56854
G1 X113.207 Y53.217 E0.60044
G1 X115.31 Y52.35 E0.66853
G1 X116.283 Y51.989 E0.6996
G1 X116.914 Y51.794 E0.71937
G1 X119.01 Y51.196 E0.78461
G1 X119.153 Y51.158 E0.78904
G1 X120.073 Y50.931 E0.81741
G1 X120.215 Y50.9 E0.82176
G1 X120.79 Y50.794 E0.83926
G1 X123.034 Y50.424 E0.90734
G1 X123.312 Y50.382 E0.91575
G1 X123.417 Y50.37 E0.91892
G1 X124.745 Y50.243 E0.95885
G1 X127.021 Y50.131 E1.02706
G1 X127.72 Y50.113 E1.048
G1 X128.635 Y50.142 E1.0754
G1 X128.708 Y50.145 E1.07759
G1 X130.931 Y50.288 E1.14427
G1 X132.052 Y50.403 E1.178
G1 X132.161 Y50.416 E1.18129
G1 X132.696 Y50.502 E1.19751
G1 X134.778 Y50.879 E1.26084
G1 X135.078 Y50.942 E1.27002
G1 X135.384 Y50.998 E1.27933
G1 X135.524 Y51.029 E1.28362
G1 X136.518 Y51.287 E1.31436
G1 X136.653 Y51.324 E1.31855
G1 X138.692 Y51.939 E1.3823
G1 X138.852 Y51.991 E1.38734
G1 X139.695 Y52.279 E1.41401
G1 X139.886 Y52.353 E1.42014
G1 X140.173 Y52.479 E1.42952
G1 X140.553 Y52.626 E1.44172
G1 X142.477 Y53.458 E1.50447
G1 X143.183 Y53.785 E1.52776
G1 X143.306 Y53.846 E1.53187
G1 X144.029 Y54.234 E1.55643
G1 X145.898 Y55.305 E1.62091
G1 X146.036 Y55.387 E1.62571
G1 X146.827 Y55.876 E1.65355
G1 X147.441 Y56.308 E1.67602
G1 X149.223 Y57.62 E1.74226
G1 X149.908 Y58.156 E1.7683
G1 X149.98 Y58.214 E1.77107
G1 X150.606 Y58.767 E1.79607
G1 X152.25 Y60.297 E1.8633
G1 X152.632 Y60.665 E1.87918
G1 X153.387 Y61.482 E1.91248
G1 X153.451 Y61.554 E1.91536
G1 X154.997 Y63.361 E1.98655
G1 X155.068 Y63.45 E1.98995
G1 X155.899 Y64.556 E2.03136
G1 X155.96 Y64.642 E2.03452
G1 X157.197 Y66.472 E2.10064
G1 X157.749 Y67.356 E2.13184
G1 X157.82 Y67.478 E2.13606
G1 X158.211 Y68.204 E2.16075
G1 X159.112 Y69.938 E2.21924
G1 X159.167 Y70.048 E2.22292
G1 X159.485 Y70.715 E2.24504
G1 X159.805 Y71.292 E2.26479
G1 X160.387 Y72.04 E2.29316
G1 X160.638 Y72.311 E2.30422
G1 X161.243 Y73.005 E2.33178
G1 X161.355 Y73.141 E2.33705
G1 X161.659 Y73.533 E2.3519
G1 X162.218 Y74.338 E2.38124
G1 X162.303 Y74.468 E2.38589
G1 X162.696 Y75.123 E2.40875
G1 X163.039 Y75.733 E2.4297
G1 X163.485 Y76.596 E2.45878
G1 X163.55 Y76.734 E2.46335
G1 X163.872 Y77.475 E2.48753
G1 X164.213 Y78.422 E2.51766
G1 X164.261 Y78.572 E2.52238
G1 X164.411 Y79.081 E2.53826
G1 X164.578 Y79.695 E2.55731
G1 X164.595 Y79.76 E2.55932
G1 X164.814 Y80.694 E2.58804
G1 X164.846 Y80.858 E2.59304
G1 X164.991 Y81.773 E2.62077
G1 X165 Y81.849 E2.62306
G1 X165.104 Y83.268 E2.66565
G1 X165.107 Y83.331 E2.66754
G1 X165.12 Y83.913 E2.68496
G1 X165.12 Y83.999 E2.68754
G1 X165.091 Y85.283 E2.72598
G1 X164.991 Y86.266 E2.75556
G1 X164.963 Y86.457 E2.76134
G1 X164.763 Y87.541 E2.79434
G1 X164.744 Y87.634 E2.79718
G1 X164.619 Y88.182 E2.814
G1 X164.587 Y88.311 E2.81798
G1 X164.345 Y89.22 E2.84614
G1 X164.309 Y89.341 E2.84992
G1 X164.114 Y89.929 E2.86846
G1 X163.736 Y90.875 E2.89896
G1 X163.689 Y90.985 E2.90254
G1 X163.403 Y91.591 E2.9226
G1 X163.15 Y92.097 E2.93953
G1 X163.069 Y92.251 E2.94474
G1 X162.531 Y93.216 E2.97781
G1 X162.454 Y93.347 E2.98236
G1 X161.923 Y94.144 E3.01103
G1 X161.817 Y94.29 E3.01643
G1 X161.352 Y94.879 E3.03889
G1 X160.978 Y95.419 E3.05856
G1 X160.674 Y96.006 E3.07834
G1 X160.506 Y96.438 E3.09222
G1 X160.425 Y96.672 E3.09963
G1 X159.636 Y98.703 E3.16485
G1 X159.595 Y98.801 E3.16803
G1 X159.039 Y100.052 E3.20901
G1 X158.913 Y100.296 E3.21723
G1 X157.898 Y102.227 E3.28253
G1 X157.828 Y102.352 E3.28682
G1 X157.1 Y103.577 E3.32948
G1 X156.982 Y103.757 E3.33592
G1 X155.788 Y105.508 E3.39936
G1 X155.2 Y106.322 E3.42942
G1 X155.116 Y106.432 E3.43356
G1 X154.675 Y106.969 E3.45436
G1 X153.293 Y108.569 E3.51765
G1 X153.144 Y108.728 E3.52417
G1 X152.704 Y109.218 E3.54389
G1 X152.57 Y109.359 E3.54971
G1 X152.016 Y109.901 E3.57291
G1 X150.462 Y111.331 E3.63613
G1 X150.219 Y111.543 E3.64578
G1 X149.92 Y111.812 E3.65782
G1 X149.111 Y112.454 E3.68873
G1 X148.978 Y112.556 E3.69375
G1 X147.212 Y113.845 E3.7592
G1 X146.697 Y114.205 E3.77801
G1 X145.824 Y114.743 E3.8087
G1 X143.957 Y115.805 E3.873
G1 X143.815 Y115.884 E3.87786
G1 X142.943 Y116.34 E3.90732
G1 X142.822 Y116.399 E3.91135
G1 X142.262 Y116.651 E3.92973
G1 X140.23 Y117.515 E3.99583
G1 X139.31 Y117.871 E4.02536
G1 X139.151 Y117.927 E4.0304
G1 X138.591 Y118.105 E4.04799
G1 X136.483 Y118.73 E4.11381
G1 X136.375 Y118.76 E4.11717
G1 X135.481 Y118.991 E4.14481
G1 X134.919 Y119.101 E4.16195
G1 X134.72 Y119.144 E4.16804
G1 X132.624 Y119.513 E4.23175
G1 X132.108 Y119.596 E4.24739
G1 X130.924 Y119.718 E4.28302
G1 X128.618 Y119.859 E4.35218
G1 X127.763 Y119.886 E4.37779
G1 X127.705 Y119.886 E4.37952
G1 X126.922 Y119.865 E4.40297
G1 X124.706 Y119.746 E4.4694
G1 X124.604 Y119.738 E4.47246
G1 X123.33 Y119.612 E4.51078
G1 X122.954 Y119.553 E4.52218
G1 X120.782 Y119.187 E4.58811
G1 X119.744 Y118.973 E4.61984
G1 X119.633 Y118.946 E4.62326
G1 X119.103 Y118.805 E4.63967
G1 X117.071 Y118.218 E4.70299
G1 X116.93 Y118.176 E4.70739
G1 X115.981 Y117.866 E4.73727
G1 X115.857 Y117.822 E4.74121
G1 X115.288 Y117.598 E4.75952
G1 X113.142 Y116.702 E4.82913
G1 X113.027 Y116.648 E4.83293
G1 X111.779 Y116.033 E4.87458
G1 X111.619 Y115.95 E4.87998
G1 X109.8 Y114.931 E4.94239
G1 X109.574 Y114.797 E4.95025
G1 X109.31 Y114.646 E4.95936
G1 X108.34 Y114.01 E4.99408
G1 X108.235 Y113.938 E4.99789
G1 X106.457 Y112.659 E5.06345
G1 X105.861 Y112.207 E5.08584
G1 X105.1 Y111.557 E5.1158
G1 X103.443 Y110.053 E5.18279
G1 X102.935 Y109.567 E5.20383
G1 X102.23 Y108.811 E5.23478
G1 X100.744 Y107.112 E5.30234
G1 X100.537 Y106.867 E5.31194
G1 X99.761 Y105.846 E5.35033
G1 X99.706 Y105.771 E5.35312
G1 X98.445 Y103.947 E5.41949
G1 X98.275 Y103.693 E5.42864
G1 X97.593 Y102.553 E5.46841
G1 X97.538 Y102.459 E5.47167
G1 X96.382 Y100.298 E5.54503
G1 X96.371 Y100.303 E5.54539
G1 X96.181 Y99.981 E5.55658
G1 X95.775 Y99.458 E5.5764
G1 X95.458 Y99.129 E5.59008
G1 X94.912 Y98.612 E5.61259
G1 X94.784 Y98.479 E5.61811
G1 X94.063 Y97.68 E5.65033
G1 X94.005 Y97.607 E5.65312
G1 X93.241 Y96.597 E5.69103
G1 X93.175 Y96.506 E5.69439
G1 X92.807 Y95.968 E5.7139
G1 X92.418 Y95.369 E5.73528
G1 X92.355 Y95.262 E5.739
G1 X91.912 Y94.479 E5.76593
G1 X91.835 Y94.331 E5.77092
G1 X91.439 Y93.495 E5.79861
G1 X91.371 Y93.337 E5.80376
G1 X91.148 Y92.782 E5.82167
G1 X90.885 Y92.077 E5.84419
G1 X90.563 Y91.098 E5.87504
G1 X90.519 Y90.941 E5.87992
G1 X90.24 Y89.797 E5.91517
G1 X90.043 Y88.517 E5.95394
G1 X89.966 Y87.819 E5.97496
G1 X89.879 Y86.22 E6.02289
G1 X89.877 Y86.165 E6.02454
G1 X89.914 Y85.147 E6.05503
G1 X89.922 Y85.039 E6.05828
G1 X90.005 Y84.229 E6.08265
G1 X90.112 Y83.444 E6.10637
G1 X90.287 Y82.447 E6.13667
G1 X90.316 Y82.309 E6.14089
G1 X90.443 Y81.773 E6.15738
G1 X90.501 Y81.554 E6.16416
G1 X90.774 Y80.665 E6.192
G1 X90.816 Y80.543 E6.19586
G1 X91.067 Y79.874 E6.21725
G1 X91.339 Y79.205 E6.23886
G1 X91.729 Y78.331 E6.26751
G1 X91.801 Y78.182 E6.27247
G1 X92 Y77.796 E6.28547
G1 X92.046 Y77.714 E6.28828
G1 X92.522 Y76.902 E6.31646
G1 X92.606 Y76.768 E6.32119
G1 X93.109 Y76.031 E6.3479
G1 X93.475 Y75.528 E6.36652
G1 X93.616 Y75.347 E6.37339
G1 X93.987 Y74.807 E6.393
G1 X94.29 Y74.22 E6.41278
G1 X94.438 Y73.844 E6.42487
G1 X94.499 Y73.666 E6.4305
G1 X94.645 Y73.294 E6.44247
G1 X94.726 Y73.071 E6.44957
G1 X95.485 Y71.17 E6.51084
G1 X95.545 Y71.028 E6.51545
G1 X96.04 Y69.927 E6.55159
G1 X96.241 Y69.539 E6.56467
G1 X97.263 Y67.644 E6.62912
G1 X97.362 Y67.478 E6.63491
G1 X97.721 Y66.843 E6.65674
G1 X97.795 Y66.721 E6.66101
G1 X98.197 Y66.108 E6.68296
G0 F9000 X98 Y66.408
G1 F787.5 X98 Y103.233 E7.78528
G0 F9000 X99 Y104.749
G1 F787.5 X99 Y64.955 E8.97648
G0 F9000 X100 Y63.562
G1 F787.5 X100 Y106.16 E10.25161
G0 F9000 X101 Y107.404
G1 F787.5 X101 Y62.379 E11.5994
G0 F9000 X102 Y61.248
G1 F787.5 X102 Y108.548 E13.01528
G0 F9000 X103 Y109.629
G1 F787.5 X103 Y60.205 E14.49474
G0 F9000 X104 Y59.289
G1 F787.5 X104 Y110.558 E16.02944
G0 F9000 X105 Y111.466
G1 F787.5 X105 Y58.388 E17.61828
G0 F9000 X106 Y57.575
G1 F787.5 X106 Y112.312 E19.25678
G0 F9000 X107 Y113.049
G1 F787.5 X107 Y56.839 E20.93938
G0 F9000 X108 Y56.125
G1 F787.5 X108 Y113.768 E22.66487
G0 F9000 X109 Y114.442
G1 F787.5 X109 Y55.465 E24.4303
G0 F9000 X110 Y54.877
G1 F787.5 X110 Y115.043 E26.23131
G0 F9000 X111 Y115.603
G1 F787.5 X111 Y54.323 E28.06568
G0 F9000 X112 Y53.779
G1 F787.5 X112 Y116.141 E29.93243
G0 F9000 X113 Y116.634
G1 F787.5 X113 Y53.311 E31.82795
G0 F9000 X114 Y52.89
G1 F787.5 X114 Y117.06 E33.74882
G0 F9000 X115 Y117.477
G1 F787.5 X115 Y52.477 E35.69454
G0 F9000 X116 Y52.093
G1 F787.5 X116 Y117.872 E37.66357
G0 F9000 X117 Y118.196
G1 F787.5 X117 Y51.769 E39.65201
G0 F9000 X118 Y51.484
G1 F787.5 X118 Y118.486 E41.65765
G0 F9000 X119 Y118.775
G1 F787.5 X119 Y51.198 E43.68051
G0 F9000 X120 Y50.949
G1 F787.5 X120 Y119.025 E45.71831
G0 F9000 X121 Y119.223
G1 F787.5 X121 Y50.759 E47.76772
G0 F9000 X122 Y50.594
G1 F787.5 X122 Y119.392 E49.82712
G0 F9000 X123 Y119.56
G1 F787.5 X123 Y50.429 E51.8965
G0 F9000 X124 Y50.314
G1 F787.5 X124 Y119.678 E53.97285
G0 F9000 X125 Y119.761
G1 F787.5 X125 Y50.23 E56.0542
G0 F9000 X126 Y50.181
G1 F787.5 X126 Y119.815 E58.13863
G0 F9000 X127 Y119.867
G1 F787.5 X127 Y50.132 E60.22609
G0 F9000 X128 Y50.122
G1 F787.5 X128 Y119.879 E62.3142
G0 F9000 X129 Y119.836
G1 F787.5 X129 Y50.164 E64.39977
G0 F9000 X130 Y50.229
G1 F787.5 X130 Y119.775 E66.48157
G0 F9000 X131 Y119.711
G1 F787.5 X131 Y50.296 E68.55945
G0 F9000 X132 Y50.398
G1 F787.5 X132 Y119.608 E70.63119
G0 F9000 X133 Y119.447
G1 F787.5 X133 Y50.558 E72.69332
G0 F9000 X134 Y50.739
G1 F787.5 X134 Y119.271 E74.74477
G0 F9000 X135 Y119.086
G1 F787.5 X135 Y50.926 E76.78508
G0 F9000 X136 Y51.153
G1 F787.5 X136 Y118.857 E78.81174
G0 F9000 X137 Y118.577
G1 F787.5 X137 Y51.429 E80.82175
G0 F9000 X138 Y51.731
G1 F787.5 X138 Y118.281 E82.81387
G0 F9000 X139 Y117.975
G1 F787.5 X139 Y52.042 E84.78751
G0 F9000 X140 Y52.404
G1 F787.5 X140 Y117.604 E86.73922
G0 F9000 X141 Y117.188
G1 F787.5 X141 Y52.82 E88.66602
G0 F9000 X142 Y53.252
G1 F787.5 X142 Y116.763 E90.56716
G0 F9000 X143 Y116.311
G1 F787.5 X143 Y53.701 E92.44134
G0 F9000 X144 Y54.219
G1 F787.5 X144 Y115.781 E94.28414
G0 F9000 X145 Y115.212
G1 F787.5 X145 Y54.791 E96.09279
G0 F9000 X146 Y55.366
G1 F787.5 X146 Y114.635 E97.86696
G0 F9000 X147 Y113.994
G1 F787.5 X147 Y55.998 E99.60302
G0 F9000 X148 Y56.72
G1 F787.5 X148 Y113.27 E101.29579
G0 F9000 X149 Y112.54
G1 F787.5 X149 Y57.456 E102.94468
G0 F9000 X150 Y58.232
G1 F787.5 X150 Y111.741 E104.54643
G0 F9000 X151 Y110.836
G1 F787.5 X151 Y59.134 E106.09408
G0 F9000 X152 Y60.065
G1 F787.5 X152 Y109.916 E107.58633
G0 F9000 X153 Y108.889
G1 F787.5 X153 Y61.064 E109.01793
G0 F9000 X154 Y62.196
G1 F787.5 X154 Y107.751 E110.38158
G0 F9000 X155 Y106.574
G1 F787.5 X155 Y63.365 E111.675
G0 F9000 X156 Y64.702
G1 F787.5 X156 Y105.198 E112.88721
G0 F9000 X157 Y103.73
G1 F787.5 X157 Y66.181 E114.01121
G0 F9000 X158 Y67.813
G1 F787.5 X158 Y102.033 E115.03555
G0 F9000 X159 Y100.128
G1 F787.5 X159 Y69.723 E115.9457
G0 F9000 X160 Y71.543
G1 F787.5 X160 Y97.767 E116.73069
G0 F9000 X161 Y95.388
G1 F787.5 X161 Y72.727 E117.40903
G0 F9000 X162 Y74.025
G1 F787.5 X162 Y94.029 E118.00783
G0 F9000 X163 Y92.375
G1 F787.5 X163 Y75.664 E118.50806
G0 F9000 X164 Y77.831
G1 F787.5 X164 Y90.215 E118.87877
G1 F1500 E112.37877
G0 F9000 X164.996 Y90.172
G0 X165.534 Y88.184
G0 X165.865 Y86.609
G0 X165 Y86.178
G1 F1500 E118.87877
G1 F787.5 X165 Y81.849 E119.00835
G1 F1500 E112.50835
G0 F9000 X165.889 Y81.591
G0 X165.464 Y79.468
G0 X165.078 Y78.129
G0 X164.303 Y76.187
G0 X162.979 Y73.83
G0 X157.962 Y65.972
G0 X156.64 Y64.019
G0 X155.601 Y62.66
G0 X153.277 Y60.016
G0 X150.478 Y57.441
G0 X147.27 Y55.074
G0 X143.978 Y53.153
G0 X140.003 Y51.418
G0 X136.759 Y50.405
G0 X134.966 Y49.983
G0 X132.152 Y49.494
G0 X128.677 Y49.229
G0 X126.935 Y49.22
G0 X124.593 Y49.338
G0 X122.883 Y49.522
G0 X119.863 Y50.041
G0 X115.924 Y51.146
G0 X111.85 Y52.829
G0 X109.103 Y54.333
G0 X107.674 Y55.235
G0 X104.738 Y57.405
G0 X101.645 Y60.246
G0 X99.231 Y63.062
G0 X97.164 Y66.045
G0 X96.194 Y67.698
G0 X97 Y68.131
G1 F1500 E119.00835
G1 F787.5 X97 Y101.453 E120.00582
G0 F9000 X96 Y99.747
G1 F787.5 X96 Y70.015 E120.89582
G0 F9000 X95 Y72.384
G1 F787.5 X95 Y98.695 E121.68341
G0 F9000 X94 Y97.6
G1 F787.5 X94 Y74.781 E122.36648
G0 F9000 X93 Y76.19
G1 F787.5 X93 Y96.25 E122.96696
G0 F9000 X92 Y94.634
G1 F787.5 X92 Y77.796 E123.47099
G0 F9000 X91 Y80.052
G1 F787.5 X91 Y92.385 E123.84017
G1 F1500 E117.34017
G0 F9000 X90.026 Y92.388
G0 X89.634 Y91.171
G0 X89.464 Y90.466
G0 X89.13 Y88.583
G0 X90 Y88.127
G1 F1500 E123.84017
G1 F787.5 X90 Y84.277 E123.95541
G1 F1500 E117.45541
G0 F300 X90 Y84.277 Z0.294
G0 F9000 X89.091 Y84.183
G0 X88.965 Y86.259
G0 X89.139 Y88.648
G0 X89.367 Y90.083
G0 X89.69 Y91.37
G0 X90.603 Y93.867
G0 X91.644 Y95.855
G0 X98.954 Y106.291
G0 X99.706 Y105.77
;TIME_ELAPSED:326.257782
;LAYER:-6
;TYPE:SUPPORT
G1 F1500 E123.95541
G1 F787.5 X99.761 Y105.845 E123.95831
G1 X100.537 Y106.865 E123.99828
G1 X100.744 Y107.111 E124.0083
G1 X102.229 Y108.81 E124.07866
G1 X102.934 Y109.566 E124.1109
G1 X103.443 Y110.051 E124.13282
G1 X105.1 Y111.555 E124.2026
G1 X105.86 Y112.206 E124.2338
G1 X106.457 Y112.658 E124.25715
G1 X107.389 Y113.328 E124.29294
G1 X99.426 Y105.366 E124.64406
G1 X98.444 Y103.946 E124.6979
G1 X98.316 Y103.756 E124.70504
G1 X98.274 Y103.692 E124.70743
G1 X97.592 Y102.552 E124.74885
G1 X97.578 Y102.528 E124.74972
G1 X110.21 Y115.16 E125.30675
G1 X111.618 Y115.949 E125.35708
G1 X111.778 Y116.032 E125.3627
G1 X112.357 Y116.317 E125.38282
G1 X96.431 Y100.391 E126.08511
G1 X96.381 Y100.297 E126.08843
G1 X96.37 Y100.302 E126.08881
G1 X96.18 Y99.98 E126.10047
G1 X95.774 Y99.457 E126.12111
G1 X95.458 Y99.127 E126.13536
G1 X94.912 Y98.611 E126.15878
G1 X94.784 Y98.478 E126.16454
G1 X94.062 Y97.679 E126.19812
G1 X94.005 Y97.606 E126.201
G1 X93.24 Y96.596 E126.24051
G1 X93.174 Y96.505 E126.24402
G1 X92.807 Y95.967 E126.26432
G1 X92.454 Y95.424 E126.28452
G1 X114.153 Y117.123 E127.24138
G1 X115.288 Y117.597 E127.27974
G1 X115.831 Y117.811 E127.29793
G1 X91.381 Y93.361 E128.37611
G1 X91.37 Y93.336 E128.37696
G1 X91.148 Y92.781 E128.3956
G1 X90.885 Y92.075 E128.41909
G1 X90.786 Y91.776 E128.42891
G1 X117.291 Y118.281 E129.59771
G1 X118.684 Y118.684 E129.64292
G1 X90.382 Y90.382 E130.89096
G1 X90.239 Y89.796 E130.90977
G1 X90.139 Y89.149 E130.93018
G1 X120.019 Y119.029 E132.2478
G1 X120.78 Y119.187 E132.27204
G1 X121.244 Y119.264 E132.28671
G1 X89.985 Y88.005 E133.66514
G1 X89.965 Y87.818 E133.671
G1 X89.917 Y86.947 E133.6982
G1 X122.435 Y119.465 E135.13215
G1 X122.953 Y119.553 E135.14854
G1 X123.329 Y119.611 E135.1604
G1 X123.597 Y119.637 E135.16879
G1 X89.884 Y85.924 E136.65544
G1 X89.912 Y85.146 E136.67972
G1 X89.921 Y85.039 E136.68306
G1 X89.927 Y84.977 E136.68501
G1 X124.694 Y119.744 E138.21813
