;FLAVOR:Marlin
;TIME:5590
;Filament used: 5.05629m
;Layer height: 0.2
;MINX:109.52
;MINY:88.39
;MINZ:0.2
;MAXX:145.48
;MAXY:121.61
;MAXZ:90
;Generated with Cura_SteamEngine master
M140 S60
M105
M190 S60
M104 S200
M105
M109 S200
M82 ;absolute extrusion mode
M220 S100 ;reset feedrate
M221 S100 ;reset flowrate
G90 ;use absolute coordinates
M82 ;absolute extrusion mode
G28 ;home
G1 Z2 F1500 ;raise z
G92 E0 ;reset extruder

G1 X75 Y5 F5000 ;start position
G1 Z0.28 F1500 ;lower z
G1 E4 F500 ;prime the filament
G1 X180 E10 F500 ;1st line
G1 Y5.4 F5000
G1 X75 E20 F500 ;2nd line
G1 Z2 F1500 ;raise z
G92 E0 ;reset extruder
G92 E0
G92 E0
G1 F1500 E-6.5
;LAYER_COUNT:450
;LAYER:0
M107
G0 F9000 X116.1 Y91.604 Z0.2
;TYPE:SKIRT
G1 F1500 E0
G1 F1800 X116.592 Y90.99 E0.03271
G1 X117.145 Y90.429 E0.06546
G1 X117.751 Y89.927 E0.09818
G1 X118.405 Y89.489 E0.1309
G1 X119.1 Y89.12 E0.16362
G1 X119.829 Y88.823 E0.19634
G1 X120.584 Y88.602 E0.22905
G1 X121.358 Y88.458 E0.26178
G1 X122.384 Y88.39 E0.30453
G1 X132.616 Y88.39 E0.72993
G1 X133.402 Y88.43 E0.76265
G1 X134.18 Y88.549 E0.79537
G1 X134.942 Y88.747 E0.8281
G1 X135.68 Y89.021 E0.86083
G1 X136.386 Y89.369 E0.89356
G1 X137.054 Y89.786 E0.9263
G1 X137.675 Y90.269 E0.959
G1 X138.245 Y90.813 E0.99176
G1 X138.756 Y91.411 E1.02447
G1 X139.328 Y92.265 E1.0672
G1 X144.443 Y101.125 E1.49253
G1 X144.801 Y101.826 E1.52526
G1 X145.087 Y102.56 E1.55801
G1 X145.296 Y103.318 E1.5907
G1 X145.428 Y104.094 E1.62342
G1 X145.48 Y104.88 E1.65617
G1 X145.452 Y105.666 E1.68887
G1 X145.345 Y106.446 E1.7216
G1 X145.159 Y107.211 E1.75434
G1 X144.896 Y107.953 E1.78707
G1 X144.443 Y108.875 E1.82977
G1 X139.328 Y117.735 E2.25511
G1 X138.9 Y118.396 E2.28785
G1 X138.408 Y119.01 E2.32056
G1 X137.855 Y119.571 E2.35331
G1 X137.249 Y120.073 E2.38603
G1 X136.595 Y120.511 E2.41875
G1 X135.9 Y120.88 E2.45147
G1 X135.171 Y121.177 E2.48419
G1 X134.416 Y121.398 E2.5169
G1 X133.642 Y121.542 E2.54963
G1 X132.616 Y121.61 E2.59238
G1 X122.384 Y121.61 E3.01778
G1 X121.598 Y121.57 E3.0505
G1 X120.82 Y121.451 E3.08322
G1 X120.058 Y121.253 E3.11595
G1 X119.32 Y120.979 E3.14868
G1 X118.614 Y120.631 E3.1814
G1 X117.946 Y120.214 E3.21414
G1 X117.325 Y119.731 E3.24685
G1 X116.755 Y119.187 E3.27961
G1 X116.244 Y118.589 E3.31231
G1 X115.672 Y117.735 E3.35505
G1 X110.557 Y108.875 E3.78038
G1 X110.199 Y108.174 E3.81311
G1 X109.913 Y107.44 E3.84586
G1 X109.704 Y106.682 E3.87855
G1 X109.572 Y105.906 E3.91127
G1 X109.52 Y105.12 E3.94402
G1 X109.548 Y104.334 E3.97672
G1 X109.655 Y103.554 E4.00945
G1 X109.841 Y102.789 E4.04218
G1 X110.104 Y102.047 E4.07491
G1 X110.557 Y101.125 E4.11762
G1 X115.672 Y92.265 E4.54296
G1 X116.1 Y91.604 E4.5757
G0 F9000 X116.52 Y91.877
G1 F1800 X116.999 Y91.285 E4.60736
G1 X117.538 Y90.747 E4.63902
G1 X118.13 Y90.269 E4.67065
G1 X118.769 Y89.855 E4.70231
G1 X119.448 Y89.511 E4.73395
G1 X120.16 Y89.24 E4.76563
G1 X120.896 Y89.044 E4.79729
G1 X121.648 Y88.927 E4.82893
G1 X122.384 Y88.89 E4.85957
G1 X132.616 Y88.89 E5.28497
G1 X133.376 Y88.93 E5.31661
G1 X134.128 Y89.049 E5.34826
G1 X134.863 Y89.247 E5.37991
G1 X135.574 Y89.521 E5.41159
G1 X136.252 Y89.867 E5.44323
G1 X136.889 Y90.283 E5.47486
G1 X137.48 Y90.764 E5.50655
G1 X138.017 Y91.303 E5.53818
G1 X138.494 Y91.896 E5.56982
G1 X138.895 Y92.515 E5.60048
G1 X144.01 Y101.375 E6.02582
G1 X144.355 Y102.054 E6.05748
G1 X144.628 Y102.764 E6.0891
G1 X144.824 Y103.5 E6.12077
G1 X144.942 Y104.252 E6.15242
G1 X144.981 Y105.012 E6.18406
G1 X144.94 Y105.773 E6.21574
G1 X144.819 Y106.524 E6.24737
G1 X144.62 Y107.259 E6.27902
G1 X144.345 Y107.969 E6.31068
G1 X144.01 Y108.625 E6.3413
G1 X138.895 Y117.485 E6.76664
G1 X138.48 Y118.123 E6.79828
G1 X138.001 Y118.715 E6.82994
G1 X137.462 Y119.253 E6.8616
G1 X136.87 Y119.731 E6.89324
G1 X136.231 Y120.145 E6.92489
G1 X135.552 Y120.489 E6.95654
G1 X134.84 Y120.76 E6.98821
G1 X134.104 Y120.956 E7.01988
G1 X133.352 Y121.073 E7.05152
G1 X132.616 Y121.11 E7.08215
G1 X122.384 Y121.11 E7.50755
G1 X121.624 Y121.07 E7.53919
G1 X120.872 Y120.951 E7.57085
G1 X120.137 Y120.753 E7.60249
G1 X119.426 Y120.479 E7.63417
G1 X118.748 Y120.133 E7.66582
G1 X118.111 Y119.717 E7.69745
G1 X117.52 Y119.236 E7.72913
G1 X116.983 Y118.697 E7.76076
G1 X116.506 Y118.104 E7.7924
G1 X116.105 Y117.485 E7.82307
G1 X110.99 Y108.625 E8.2484
G1 X110.645 Y107.946 E8.28006
G1 X110.372 Y107.236 E8.31169
G1 X110.176 Y106.5 E8.34335
G1 X110.058 Y105.748 E8.375
G1 X110.019 Y104.988 E8.40664
G1 X110.06 Y104.227 E8.43833
G1 X110.181 Y103.476 E8.46995
G1 X110.38 Y102.741 E8.50161
G1 X110.655 Y102.031 E8.53326
G1 X110.99 Y101.375 E8.56389
G1 X116.105 Y92.515 E8.98922
G1 X116.52 Y91.877 E9.02086
G0 F9000 X116.94 Y92.15
G1 F1800 X117.405 Y91.582 E9.05138
G1 X117.93 Y91.068 E9.08193
G1 X118.508 Y90.614 E9.11249
G1 X119.131 Y90.225 E9.14302
G1 X119.793 Y89.907 E9.17356
G1 X120.486 Y89.662 E9.20412
G1 X121.201 Y89.494 E9.23465
G1 X121.93 Y89.405 E9.26518
G1 X122.384 Y89.39 E9.28407
G1 X132.616 Y89.39 E9.70947
G1 X133.349 Y89.43 E9.73999
G1 X134.074 Y89.549 E9.77053
G1 X134.782 Y89.747 E9.8011
G1 X135.464 Y90.02 E9.83164
G1 X136.112 Y90.366 E9.86218
G1 X136.719 Y90.78 E9.89273
G1 X137.277 Y91.257 E9.92325
G1 X137.78 Y91.793 E9.95381
G1 X138.222 Y92.38 E9.98436
G1 X138.462 Y92.765 E10.00322
G1 X143.577 Y101.625 E10.42855
G1 X143.909 Y102.28 E10.45908
G1 X144.168 Y102.968 E10.48965
G1 X144.351 Y103.679 E10.52017
G1 X144.455 Y104.406 E10.5507
G1 X144.48 Y105.141 E10.58128
G1 X144.424 Y105.873 E10.6118
G1 X144.29 Y106.595 E10.64233
G1 X144.078 Y107.298 E10.67286
G1 X143.79 Y107.975 E10.70344
G1 X143.577 Y108.375 E10.72228
G1 X138.462 Y117.235 E11.14762
G1 X138.06 Y117.85 E11.17817
G1 X137.595 Y118.418 E11.20868
G1 X137.07 Y118.932 E11.23923
G1 X136.492 Y119.386 E11.26979
G1 X135.869 Y119.775 E11.30032
G1 X135.207 Y120.093 E11.33086
G1 X134.514 Y120.338 E11.36142
G1 X133.799 Y120.506 E11.39195
G1 X133.07 Y120.595 E11.42248
G1 X132.616 Y120.61 E11.44137
G1 X122.384 Y120.61 E11.86677
G1 X121.651 Y120.57 E11.89729
G1 X120.926 Y120.451 E11.92783
G1 X120.218 Y120.253 E11.9584
G1 X119.536 Y119.98 E11.98894
G1 X118.888 Y119.634 E12.01948
G1 X118.281 Y119.22 E12.05003
G1 X117.723 Y118.743 E12.08055
G1 X117.22 Y118.207 E12.11111
G1 X116.778 Y117.62 E12.14166
G1 X116.538 Y117.235 E12.16052
G1 X111.423 Y108.375 E12.58585
G1 X111.091 Y107.72 E12.61638
G1 X110.832 Y107.032 E12.64695
G1 X110.649 Y106.321 E12.67747
G1 X110.545 Y105.594 E12.708
G1 X110.52 Y104.859 E12.73858
G1 X110.576 Y104.127 E12.7691
G1 X110.71 Y103.405 E12.79963
G1 X110.922 Y102.702 E12.83016
G1 X111.21 Y102.025 E12.86074
G1 X111.423 Y101.625 E12.87958
G1 X116.538 Y92.765 E13.30492
G1 X116.94 Y92.15 E13.33547
G0 F9000 X117.359 Y92.424
G1 F1800 X117.81 Y91.88 E13.36484
G1 X118.321 Y91.391 E13.39425
G1 X118.883 Y90.963 E13.42362
G1 X119.49 Y90.601 E13.453
G1 X120.134 Y90.309 E13.4824
G1 X120.807 Y90.092 E13.5118
G1 X121.499 Y89.953 E13.54114
G1 X122.384 Y89.89 E13.57803
G1 X132.616 Y89.89 E14.00343
G1 X133.322 Y89.93 E14.03283
G1 X134.018 Y90.049 E14.06218
G1 X134.697 Y90.247 E14.09159
G1 X135.349 Y90.519 E14.12096
G1 X135.966 Y90.864 E14.15035
G1 X136.541 Y91.276 E14.17976
G1 X137.065 Y91.75 E14.20913
G1 X137.532 Y92.281 E14.23853
G1 X138.029 Y93.015 E14.27539
G1 X143.144 Y101.875 E14.70072
G1 X143.462 Y102.506 E14.7301
G1 X143.707 Y103.169 E14.75948
G1 X143.875 Y103.856 E14.78889
G1 X143.965 Y104.557 E14.81827
G1 X143.975 Y105.264 E14.84767
G1 X143.906 Y105.967 E14.87704
G1 X143.757 Y106.658 E14.90642
G1 X143.531 Y107.328 E14.93582
G1 X143.144 Y108.125 E14.97266
G1 X138.029 Y116.985 E15.39799
G1 X137.641 Y117.576 E15.42738
G1 X137.19 Y118.12 E15.45676
G1 X136.679 Y118.609 E15.48617
G1 X136.117 Y119.037 E15.51554
G1 X135.51 Y119.399 E15.54492
G1 X134.866 Y119.691 E15.57432
G1 X134.193 Y119.908 E15.60372
G1 X133.501 Y120.047 E15.63306
G1 X132.616 Y120.11 E15.66995
G1 X122.384 Y120.11 E16.09535
G1 X121.678 Y120.07 E16.12475
G1 X120.982 Y119.951 E16.1541
G1 X120.303 Y119.753 E16.18351
G1 X119.651 Y119.481 E16.21288
G1 X119.034 Y119.136 E16.24227
G1 X118.459 Y118.724 E16.27168
G1 X117.935 Y118.25 E16.30105
G1 X117.468 Y117.719 E16.33045
G1 X116.971 Y116.985 E16.36731
G1 X111.856 Y108.125 E16.79264
G1 X111.538 Y107.494 E16.82202
G1 X111.293 Y106.831 E16.8514
G1 X111.125 Y106.144 E16.88081
G1 X111.035 Y105.443 E16.91019
G1 X111.025 Y104.736 E16.93959
G1 X111.094 Y104.033 E16.96896
G1 X111.243 Y103.342 E16.99834
G1 X111.469 Y102.672 E17.02774
G1 X111.856 Y101.875 E17.06458
G1 X116.971 Y93.015 E17.48991
G1 X117.359 Y92.424 E17.5193
G0 F9000 X117.777 Y92.699
G1 F1800 X118.214 Y92.181 E17.54748
G1 X118.709 Y91.717 E17.57569
G1 X119.255 Y91.316 E17.60385
G1 X119.845 Y90.981 E17.63206
G1 X120.47 Y90.718 E17.66025
G1 X121.121 Y90.53 E17.68842
G1 X121.79 Y90.421 E17.7166
G1 X122.384 Y90.39 E17.74133
G1 X132.616 Y90.39 E18.16673
G1 X133.293 Y90.43 E18.19492
G1 X133.96 Y90.549 E18.22309
G1 X134.609 Y90.746 E18.25129
G1 X135.23 Y91.018 E18.27948
G1 X135.814 Y91.362 E18.30766
G1 X136.355 Y91.771 E18.33585
G1 X136.843 Y92.242 E18.36405
G1 X137.272 Y92.766 E18.3922
G1 X137.596 Y93.265 E18.41694
G1 X142.711 Y102.125 E18.84227
G1 X143.014 Y102.731 E18.87044
G1 X143.245 Y103.369 E18.89865
G1 X143.398 Y104.029 E18.92682
G1 X143.473 Y104.703 E18.95501
G1 X143.468 Y105.381 E18.9832
G1 X143.384 Y106.053 E19.01136
G1 X143.22 Y106.711 E19.03955
G1 X142.981 Y107.346 E19.06776
G1 X142.711 Y107.875 E19.09245
G1 X137.596 Y116.735 E19.51779
G1 X137.223 Y117.301 E19.54597
G1 X136.786 Y117.819 E19.57415
G1 X136.291 Y118.283 E19.60235
G1 X135.745 Y118.684 E19.63052
G1 X135.155 Y119.019 E19.65872
G1 X134.53 Y119.282 E19.68692
G1 X133.879 Y119.47 E19.71509
G1 X133.21 Y119.579 E19.74327
G1 X132.616 Y119.61 E19.768
G1 X122.384 Y119.61 E20.19339
G1 X121.707 Y119.57 E20.22159
G1 X121.04 Y119.451 E20.24976
G1 X120.391 Y119.254 E20.27796
G1 X119.77 Y118.982 E20.30614
G1 X119.186 Y118.638 E20.33432
G1 X118.645 Y118.229 E20.36252
G1 X118.157 Y117.758 E20.39072
G1 X117.728 Y117.234 E20.41887
G1 X117.404 Y116.735 E20.44361
G1 X112.289 Y107.875 E20.86894
G1 X111.986 Y107.269 E20.89711
G1 X111.755 Y106.631 E20.92532
G1 X111.602 Y105.971 E20.95349
G1 X111.527 Y105.297 E20.98168
G1 X111.532 Y104.619 E21.00987
G1 X111.616 Y103.947 E21.03803
G1 X111.78 Y103.289 E21.06622
G1 X112.019 Y102.654 E21.09443
G1 X112.289 Y102.125 E21.11912
G1 X117.404 Y93.265 E21.54445
G1 X117.777 Y92.699 E21.57264
G0 F9000 X118.195 Y92.975
G1 F1800 X118.617 Y92.483 E21.59958
G1 X119.096 Y92.047 E21.62651
G1 X119.625 Y91.674 E21.65342
G1 X120.196 Y91.368 E21.68036
G1 X120.8 Y91.135 E21.70727
G1 X121.429 Y90.978 E21.73423
G1 X122.384 Y90.89 E21.7741
G1 X132.616 Y90.89 E22.19949
G1 X133.263 Y90.93 E22.22645
G1 X133.899 Y91.049 E22.25335
G1 X134.516 Y91.246 E22.28027
G1 X135.105 Y91.517 E22.30723
G1 X135.655 Y91.859 E22.33416
G1 X136.159 Y92.266 E22.36109
G1 X136.609 Y92.732 E22.38802
G1 X137.163 Y93.515 E22.4279
G1 X142.278 Y102.375 E22.85323
G1 X142.566 Y102.955 E22.88016
G1 X142.781 Y103.566 E22.90709
G1 X142.92 Y104.199 E22.93403
G1 X142.979 Y104.844 E22.96096
G1 X142.958 Y105.491 E22.98787
G1 X142.858 Y106.131 E23.0148
G1 X142.679 Y106.754 E23.04175
G1 X142.278 Y107.625 E23.08162
G1 X137.163 Y116.485 E23.50695
G1 X136.805 Y117.025 E23.53389
G1 X136.383 Y117.517 E23.56083
G1 X135.904 Y117.953 E23.58776
G1 X135.375 Y118.326 E23.61467
G1 X134.804 Y118.632 E23.64161
G1 X134.2 Y118.865 E23.66852
G1 X133.571 Y119.022 E23.69548
G1 X132.616 Y119.11 E23.73535
G1 X122.384 Y119.11 E24.16075
G1 X121.737 Y119.07 E24.1877
G1 X121.101 Y118.951 E24.2146
G1 X120.484 Y118.754 E24.24152
G1 X119.895 Y118.483 E24.26848
G1 X119.345 Y118.141 E24.29541
G1 X118.841 Y117.734 E24.32234
G1 X118.391 Y117.268 E24.34927
G1 X117.837 Y116.485 E24.38915
G1 X112.722 Y107.625 E24.81448
G1 X112.434 Y107.045 E24.84141
G1 X112.219 Y106.434 E24.86834
G1 X112.08 Y105.801 E24.89528
G1 X112.021 Y105.156 E24.92221
G1 X112.042 Y104.509 E24.94912
G1 X112.142 Y103.869 E24.97605
G1 X112.321 Y103.246 E25.003
G1 X112.722 Y102.375 E25.04287
G1 X117.837 Y93.515 E25.4682
G1 X118.195 Y92.975 E25.49514
G0 F9000 X118.612 Y93.253
G1 F1800 X119.018 Y92.789 E25.52077
G1 X119.48 Y92.381 E25.5464
G1 X119.991 Y92.037 E25.57201
G1 X120.542 Y91.762 E25.59761
G1 X121.124 Y91.56 E25.62322
G1 X121.728 Y91.436 E25.64886
G1 X122.384 Y91.39 E25.6762
G1 X132.616 Y91.39 E26.10159
G1 X133.231 Y91.43 E26.12722
G1 X133.835 Y91.549 E26.15281
G1 X134.419 Y91.746 E26.17844
G1 X134.973 Y92.016 E26.20406
G1 X135.487 Y92.356 E26.22968
G1 X135.953 Y92.759 E26.25529
G1 X136.362 Y93.219 E26.28088
G1 X136.73 Y93.765 E26.30826
G1 X141.845 Y102.625 E26.73359
G1 X142.117 Y103.178 E26.75921
G1 X142.316 Y103.761 E26.78483
G1 X142.438 Y104.365 E26.81044
G1 X142.481 Y104.979 E26.83603
G1 X142.444 Y105.594 E26.86165
G1 X142.327 Y106.199 E26.88727
G1 X142.133 Y106.784 E26.91289
G1 X141.845 Y107.375 E26.94023
G1 X136.73 Y116.235 E27.36556
G1 X136.388 Y116.747 E27.39116
G1 X135.982 Y117.211 E27.41679
G1 X135.52 Y117.619 E27.44242
G1 X135.009 Y117.963 E27.46803
G1 X134.458 Y118.238 E27.49363
G1 X133.876 Y118.44 E27.51924
G1 X133.272 Y118.564 E27.54488
G1 X132.616 Y118.61 E27.57222
G1 X122.384 Y118.61 E27.99761
G1 X121.769 Y118.57 E28.02324
G1 X121.165 Y118.451 E28.04883
G1 X120.581 Y118.254 E28.07446
G1 X120.027 Y117.984 E28.10008
G1 X119.513 Y117.644 E28.1257
G1 X119.047 Y117.241 E28.15131
G1 X118.638 Y116.781 E28.17691
G1 X118.27 Y116.235 E28.20428
G1 X113.155 Y107.375 E28.62961
G1 X112.883 Y106.822 E28.65524
G1 X112.684 Y106.239 E28.68085
G1 X112.562 Y105.635 E28.70647
G1 X112.519 Y105.021 E28.73206
G1 X112.556 Y104.406 E28.75767
G1 X112.673 Y103.801 E28.78329
G1 X112.867 Y103.216 E28.80891
G1 X113.155 Y102.625 E28.83625
G1 X118.27 Y93.765 E29.26158
G1 X118.612 Y93.253 E29.28718
G0 F9000 X119.029 Y93.532
G1 F1800 X119.417 Y93.097 E29.31141
G1 X119.861 Y92.72 E29.33563
G1 X120.353 Y92.407 E29.35987
G1 X120.882 Y92.164 E29.38408
G1 X121.44 Y91.996 E29.4083
G1 X122.016 Y91.906 E29.43254
G1 X122.384 Y91.89 E29.44785
G1 X132.616 Y91.89 E29.87325
G1 X133.197 Y91.93 E29.89746
G1 X133.768 Y92.049 E29.92171
G1 X134.317 Y92.245 E29.94595
G1 X134.833 Y92.514 E29.97014
G1 X135.309 Y92.852 E29.99441
G1 X135.733 Y93.251 E30.01862
G1 X136.099 Y93.705 E30.04286
G1 X136.297 Y94.015 E30.05816
G1 X141.412 Y102.875 E30.48349
G1 X141.668 Y103.399 E30.50774
G1 X141.85 Y103.952 E30.53194
G1 X141.954 Y104.525 E30.55615
G1 X141.98 Y105.108 E30.58042
G1 X141.925 Y105.688 E30.60464
G1 X141.791 Y106.255 E30.62886
G1 X141.582 Y106.799 E30.65309
G1 X141.412 Y107.125 E30.66837
G1 X136.297 Y115.985 E31.09371
G1 X135.971 Y116.468 E31.11794
G1 X135.583 Y116.903 E31.14217
G1 X135.139 Y117.28 E31.16639
G1 X134.647 Y117.593 E31.19063
G1 X134.118 Y117.836 E31.21483
G1 X133.56 Y118.004 E31.23906
G1 X132.984 Y118.094 E31.2633
G1 X132.616 Y118.11 E31.27861
G1 X122.384 Y118.11 E31.70401
G1 X121.803 Y118.07 E31.72822
G1 X121.232 Y117.951 E31.75247
G1 X120.683 Y117.755 E31.77671
G1 X120.167 Y117.486 E31.8009
G1 X119.691 Y117.148 E31.82517
G1 X119.267 Y116.749 E31.84938
G1 X118.901 Y116.295 E31.87362
G1 X118.703 Y115.985 E31.88891
G1 X113.588 Y107.125 E32.31425
G1 X113.332 Y106.601 E32.33849
G1 X113.15 Y106.048 E32.3627
G1 X113.046 Y105.475 E32.38691
G1 X113.02 Y104.892 E32.41117
G1 X113.075 Y104.312 E32.43539
G1 X113.209 Y103.745 E32.45962
G1 X113.418 Y103.201 E32.48385
G1 X113.588 Y102.875 E32.49913
G1 X118.703 Y94.015 E32.92447
G1 X119.029 Y93.532 E32.94869
G0 F9000 X119.444 Y93.812
G1 F1800 X119.814 Y93.409 E32.97144
G1 X120.239 Y93.064 E32.9942
G1 X120.71 Y92.785 E33.01696
G1 X121.216 Y92.577 E33.0397
G1 X121.747 Y92.444 E33.06246
G1 X122.384 Y92.39 E33.08904
G1 X132.616 Y92.39 E33.51443
G1 X133.162 Y92.43 E33.5372
G1 X133.696 Y92.549 E33.55994
G1 X134.207 Y92.744 E33.58268
G1 X134.685 Y93.012 E33.60546
G1 X135.118 Y93.347 E33.62822
G1 X135.498 Y93.741 E33.65098
G1 X135.864 Y94.265 E33.67756
G1 X140.979 Y103.125 E34.10289
G1 X141.217 Y103.618 E34.12565
G1 X141.381 Y104.14 E34.1484
G1 X141.467 Y104.681 E34.17117
G1 X141.474 Y105.228 E34.19392
G1 X141.401 Y105.77 E34.21665
G1 X141.25 Y106.296 E34.23941
