;FLAVOR:Marlin
;TIME:13795
;Filament used: 8.25241m
;Layer height: 0.2
;MINX:97.051
;MINY:72.05
;MINZ:0.2
;MAXX:157.95
;MAXY:137.95
;MAXZ:30
;Generated with Cura_SteamEngine master
M140 S50
M105
M190 S50
M104 S190
M105
M109 S190
M82 ;absolute extrusion mode
M220 S100 ;reset feedrate
M221 S100 ;reset flowrate
G90 ;use absolute coordinates
M82 ;absolute extrusion mode
G28 ;home
G1 Z2 F1500 ;raise z
G92 E0 ;reset extruder

G1 X75 Y5 F5000 ;start position
G1 Z0.28 F1500 ;lower z
G1 E4 F500 ;prime the filament
G1 X180 E10 F500 ;1st line
G1 Y5.4 F5000
G1 X75 E20 F500 ;2nd line
G1 Z2 F1500 ;raise z
G92 E0 ;reset extruder
G92 E0
G92 E0
G1 F1500 E-6.5
;LAYER_COUNT:150
;LAYER:0
M107
G0 F6000 X99.925 Y76.866 Z0.2
;TYPE:SKIRT
G1 F1500 E0
G1 F600 X99.952 Y76.833 E0.00177
G1 X100.47 Y76.261 E0.03386
G1 X101.26 Y75.471 E0.0803
G1 X101.813 Y74.969 E0.11136
G1 X101.847 Y74.941 E0.11319
G1 X102.65 Y74.362 E0.15435
G1 X103.595 Y73.768 E0.20075
G1 X104.253 Y73.397 E0.23216
G1 X104.293 Y73.377 E0.23402
G1 X105.189 Y72.998 E0.27446
G1 X106.253 Y72.624 E0.32135
G1 X107.235 Y72.349 E0.36375
G1 X107.278 Y72.34 E0.36558
G1 X108.009 Y72.223 E0.39635
G1 X109.142 Y72.097 E0.44375
G1 X109.999 Y72.05 E0.47943
G1 X130.003 Y72.05 E1.3111
G1 X130.476 Y72.064 E1.33078
G1 X132.915 Y72.213 E1.43237
G1 X133.832 Y72.325 E1.47077
G1 X136.212 Y72.759 E1.57135
G1 X137.127 Y72.984 E1.61053
G1 X139.48 Y73.717 E1.71299
G1 X140.356 Y74.049 E1.75194
G1 X142.562 Y75.042 E1.85252
G1 X143.392 Y75.478 E1.8915
G1 X145.498 Y76.752 E1.99383
G1 X146.271 Y77.286 E2.03289
G1 X148.188 Y78.79 E2.13419
G1 X148.884 Y79.407 E2.17286
G1 X150.592 Y81.115 E2.27328
G1 X151.209 Y81.811 E2.31195
G1 X152.714 Y83.729 E2.41331
G1 X152.87 Y83.935 E2.42406
G1 X153.267 Y84.528 E2.45372
G1 X154.525 Y86.613 E2.55497
G1 X154.955 Y87.433 E2.59346
G1 X155.949 Y89.639 E2.69406
G1 X156.283 Y90.519 E2.73319
G1 X157.016 Y92.873 E2.83569
G1 X157.239 Y93.782 E2.8746
G1 X157.674 Y96.16 E2.97511
G1 X157.787 Y97.083 E3.01377
G1 X157.936 Y99.524 E3.11544
G1 X157.95 Y99.996 E3.13508
G1 X157.95 Y129.966 E4.38108
G1 X157.91 Y130.752 E4.4138
G1 X157.791 Y131.53 E4.44653
G1 X157.593 Y132.292 E4.47926
G1 X157.319 Y133.03 E4.51199
G1 X156.971 Y133.736 E4.54471
G1 X156.554 Y134.404 E4.57745
G1 X156.071 Y135.025 E4.61016
G1 X155.68 Y135.446 E4.63405
G1 X155.446 Y135.68 E4.6478
G1 X154.862 Y136.208 E4.68054
G1 X154.227 Y136.673 E4.71326
G1 X153.549 Y137.072 E4.74597
G1 X152.833 Y137.4 E4.77871
G1 X152.088 Y137.654 E4.81143
G1 X151.321 Y137.831 E4.84416
G1 X150.54 Y137.929 E4.87688
G1 X149.966 Y137.95 E4.90076
G1 X109.991 Y137.949 E6.56273
G1 X109.066 Y137.894 E6.60126
G1 X107.852 Y137.748 E6.65209
G1 X106.821 Y137.552 E6.69572
G1 X106.775 Y137.54 E6.6977
G1 X105.974 Y137.284 E6.73266
G1 X104.852 Y136.857 E6.78257
G1 X104.271 Y136.608 E6.80885
G1 X104.227 Y136.587 E6.81088
G1 X103.535 Y136.213 E6.84358
G1 X103.164 Y135.972 E6.86198
G1 X102.174 Y135.289 E6.91198
G1 X101.556 Y134.815 E6.94436
G1 X101.516 Y134.781 E6.94654
G1 X100.728 Y134.009 E6.99241
G1 X99.928 Y133.104 E7.04262
G1 X99.335 Y132.342 E7.08277
G1 X99.307 Y132.301 E7.08483
G1 X98.845 Y131.532 E7.12213
G1 X98.285 Y130.465 E7.17223
G1 X97.897 Y129.602 E7.21157
G1 X97.88 Y129.557 E7.21357
G1 X97.607 Y128.679 E7.25179
G1 X97.319 Y127.515 E7.30165
G1 X97.147 Y126.577 E7.34129
G1 X97.141 Y126.527 E7.34339
G1 X97.086 Y125.604 E7.38183
G1 X97.086 Y124.398 E7.43197
G1 X97.137 Y123.51 E7.46895
G1 X97.143 Y123.458 E7.47113
G1 X97.319 Y122.485 E7.51223
G1 X97.607 Y121.321 E7.56209
G1 X97.88 Y120.443 E7.60031
G1 X97.897 Y120.398 E7.60231
G1 X98.285 Y119.535 E7.64165
G1 X98.845 Y118.468 E7.69175
G1 X99.307 Y117.699 E7.72905
G1 X99.335 Y117.658 E7.73111
G1 X99.928 Y116.896 E7.77126
G1 X100.728 Y115.991 E7.82148
G1 X101.516 Y115.219 E7.86734
G1 X101.556 Y115.185 E7.86952
G1 X102.05 Y114.806 E7.89541
G1 X102.05 Y95.205 E8.71032
G1 X101.847 Y95.059 E8.72072
G1 X101.813 Y95.031 E8.72255
G1 X101.26 Y94.529 E8.7536
G1 X100.47 Y93.739 E8.80005
G1 X99.952 Y93.167 E8.83213
G1 X99.925 Y93.134 E8.83391
G1 X99.361 Y92.349 E8.87409
G1 X98.766 Y91.402 E8.92059
G1 X98.396 Y90.745 E8.95194
G1 X98.376 Y90.705 E8.9538
G1 X97.994 Y89.801 E8.9946
G1 X97.622 Y88.739 E9.04138
G1 X97.35 Y87.765 E9.08343
G1 X97.341 Y87.722 E9.08525
G1 X97.226 Y87.007 E9.11536
G1 X97.1 Y85.896 E9.16185
G1 X97.051 Y85.023 E9.1982
G1 X97.051 Y84.979 E9.20003
G1 X97.1 Y84.107 E9.23634
G1 X97.226 Y82.994 E9.28291
G1 X97.341 Y82.278 E9.31306
G1 X97.35 Y82.235 E9.31488
G1 X97.622 Y81.261 E9.35693
G1 X97.994 Y80.199 E9.40371
G1 X98.376 Y79.295 E9.44451
G1 X98.396 Y79.255 E9.44637
G1 X98.766 Y78.598 E9.47772
G1 X99.361 Y77.651 E9.52422
G1 X99.925 Y76.866 E9.56441
G0 F6000 X100.312 Y77.183
G1 F600 X100.339 Y77.15 E9.56618
G1 X100.823 Y76.614 E9.5962
G1 X101.613 Y75.824 E9.64265
G1 X102.131 Y75.355 E9.6717
G1 X102.165 Y75.327 E9.67354
G1 X102.916 Y74.785 E9.71204
G1 X103.861 Y74.191 E9.75845
G1 X104.477 Y73.844 E9.78784
G1 X104.517 Y73.824 E9.7897
G1 X105.355 Y73.469 E9.82754
G1 X106.419 Y73.095 E9.87443
G1 X107.338 Y72.839 E9.91409
G1 X107.381 Y72.83 E9.91591
G1 X108.065 Y72.72 E9.94472
G1 X109.198 Y72.594 E9.99211
G1 X109.999 Y72.55 E10.02546
G1 X130.003 Y72.55 E10.85713
G1 X130.445 Y72.563 E10.87552
G1 X132.884 Y72.712 E10.97711
G1 X133.743 Y72.817 E11.01309
G1 X136.123 Y73.251 E11.11367
G1 X136.978 Y73.461 E11.15027
G1 X139.331 Y74.194 E11.25273
G1 X140.151 Y74.505 E11.2892
G1 X142.357 Y75.498 E11.38977
G1 X143.134 Y75.906 E11.42626
G1 X145.24 Y77.18 E11.52859
G1 X145.962 Y77.679 E11.56508
G1 X147.879 Y79.183 E11.66638
G1 X148.531 Y79.76 E11.70258
G1 X150.239 Y81.468 E11.803
G1 X150.816 Y82.119 E11.83917
G1 X152.321 Y84.037 E11.94053
G1 X152.468 Y84.231 E11.95065
G1 X152.839 Y84.787 E11.97844
G1 X154.097 Y86.872 E12.07968
G1 X154.499 Y87.639 E12.11568
G1 X155.493 Y89.845 E12.21628
G1 X155.805 Y90.668 E12.25287
G1 X156.538 Y93.022 E12.35537
G1 X156.748 Y93.872 E12.39177
G1 X157.183 Y96.25 E12.49228
G1 X157.288 Y97.113 E12.52842
G1 X157.437 Y99.554 E12.6301
G1 X157.45 Y99.996 E12.64848
G1 X157.45 Y129.966 E13.89449
G1 X157.41 Y130.726 E13.92613
G1 X157.291 Y131.478 E13.95778
G1 X157.093 Y132.213 E13.98943
G1 X156.819 Y132.924 E14.02111
G1 X156.473 Y133.602 E14.05276
G1 X156.057 Y134.239 E14.08439
G1 X155.327 Y135.093 E14.1311
G1 X155.093 Y135.327 E14.14485
G1 X154.527 Y135.836 E14.1765
G1 X153.911 Y136.283 E14.20814
G1 X153.251 Y136.663 E14.23981
G1 X152.555 Y136.972 E14.27147
G1 X151.831 Y137.206 E14.3031
G1 X151.086 Y137.363 E14.33475
G1 X149.966 Y137.45 E14.38146
G1 X109.991 Y137.449 E16.04343
G1 X109.125 Y137.397 E16.0795
G1 X107.911 Y137.251 E16.13033
G1 X106.947 Y137.068 E16.17113
G1 X106.901 Y137.056 E16.1731
G1 X106.152 Y136.817 E16.20579
G1 X105.03 Y136.39 E16.2557
G1 X104.486 Y136.157 E16.2803
G1 X104.442 Y136.136 E16.28233
G1 X103.773 Y135.772 E16.314
G1 X103.448 Y135.561 E16.3301
G1 X102.458 Y134.878 E16.38011
G1 X101.88 Y134.434 E16.41041
G1 X101.84 Y134.4 E16.41259
G1 X101.103 Y133.678 E16.45549
G1 X100.303 Y132.773 E16.50571
G1 X99.748 Y132.06 E16.54327
G1 X99.72 Y132.019 E16.54534
G1 X99.287 Y131.299 E16.58027
G1 X98.727 Y130.232 E16.63037
G1 X98.365 Y129.425 E16.66714
G1 X98.348 Y129.38 E16.66914
G1 X98.092 Y128.559 E16.70489
G1 X97.804 Y127.395 E16.75474
G1 X97.644 Y126.518 E16.79181
G1 X97.638 Y126.468 E16.7939
G1 X97.586 Y125.604 E16.82989
G1 X97.586 Y124.398 E16.88003
G1 X97.634 Y123.567 E16.91463
G1 X97.64 Y123.515 E16.91681
G1 X97.804 Y122.605 E16.95525
G1 X98.092 Y121.441 E17.00511
G1 X98.348 Y120.62 E17.04086
G1 X98.365 Y120.575 E17.04286
G1 X98.727 Y119.768 E17.07963
G1 X99.287 Y118.701 E17.12973
G1 X99.72 Y117.981 E17.16466
G1 X99.748 Y117.94 E17.16672
G1 X100.303 Y117.227 E17.20429
G1 X101.103 Y116.322 E17.25451
G1 X101.84 Y115.6 E17.2974
G1 X101.88 Y115.566 E17.29959
G1 X102.458 Y115.122 E17.32989
G1 X102.55 Y115.059 E17.33452
G1 X102.55 Y94.951 E18.17052
G1 X102.165 Y94.673 E18.19026
G1 X102.131 Y94.645 E18.19209
G1 X101.613 Y94.176 E18.22114
G1 X100.823 Y93.386 E18.26759
G1 X100.339 Y92.85 E18.29762
G1 X100.312 Y92.817 E18.29939
G1 X99.784 Y92.083 E18.33698
G1 X99.189 Y91.136 E18.38348
G1 X98.843 Y90.521 E18.41282
G1 X98.823 Y90.481 E18.41468
G1 X98.466 Y89.636 E18.45281
G1 X98.094 Y88.574 E18.4996
G1 X97.84 Y87.662 E18.53896
G1 X97.831 Y87.619 E18.54078
G1 X97.723 Y86.951 E18.56892
G1 X97.597 Y85.84 E18.6154
G1 X97.551 Y85.023 E18.64942
G1 X97.551 Y84.979 E18.65125
G1 X97.597 Y84.163 E18.68523
G1 X97.723 Y83.05 E18.7318
G1 X97.831 Y82.381 E18.75997
G1 X97.84 Y82.338 E18.7618
G1 X98.094 Y81.426 E18.80116
G1 X98.466 Y80.364 E18.84794
G1 X98.823 Y79.519 E18.88608
G1 X98.843 Y79.479 E18.88794
G1 X99.189 Y78.864 E18.91728
G1 X99.784 Y77.917 E18.96377
G1 X100.312 Y77.183 E19.00137
G0 F6000 X100.699 Y77.5
G1 F600 X100.726 Y77.467 E19.00314
G1 X101.177 Y76.968 E19.0311
G1 X101.967 Y76.178 E19.07755
G1 X102.449 Y75.74 E19.10463
G1 X102.483 Y75.712 E19.10646
G1 X103.182 Y75.208 E19.14229
G1 X104.127 Y74.614 E19.18869
G1 X104.7 Y74.292 E19.21602
G1 X104.74 Y74.272 E19.21788
G1 X105.521 Y73.941 E19.25314
G1 X106.585 Y73.567 E19.30003
G1 X107.44 Y73.328 E19.33694
G1 X107.483 Y73.319 E19.33877
G1 X108.12 Y73.217 E19.36559
G1 X109.253 Y73.091 E19.41299
G1 X109.999 Y73.05 E19.44405
G1 X130.003 Y73.05 E20.27572
G1 X130.415 Y73.063 E20.29285
G1 X132.854 Y73.212 E20.39445
G1 X133.653 Y73.309 E20.42791
G1 X136.033 Y73.743 E20.52849
G1 X136.83 Y73.938 E20.5626
G1 X139.183 Y74.671 E20.66506
G1 X139.946 Y74.961 E20.699
G1 X142.152 Y75.954 E20.79958
G1 X142.875 Y76.334 E20.83354
G1 X144.981 Y77.608 E20.93587
G1 X145.654 Y78.072 E20.96985
G1 X147.571 Y79.576 E21.07115
G1 X148.177 Y80.114 E21.10485
G1 X149.885 Y81.822 E21.20527
G1 X150.422 Y82.428 E21.23893
G1 X151.927 Y84.346 E21.34029
G1 X152.065 Y84.528 E21.34979
G1 X152.41 Y85.045 E21.37563
G1 X153.668 Y87.13 E21.47687
G1 X154.043 Y87.844 E21.5104
G1 X155.037 Y90.05 E21.61099
G1 X155.328 Y90.816 E21.64506
G1 X156.061 Y93.17 E21.74756
G1 X156.256 Y93.962 E21.78148
G1 X156.691 Y96.34 E21.88198
G1 X156.788 Y97.144 E21.91565
G1 X156.937 Y99.585 E22.01732
G1 X156.95 Y99.996 E22.03442
G1 X156.95 Y129.966 E23.28043
G1 X156.91 Y130.699 E23.31095
G1 X156.791 Y131.424 E23.34149
G1 X156.593 Y132.132 E23.37206
G1 X156.32 Y132.814 E23.4026
G1 X155.974 Y133.462 E23.43314
G1 X155.56 Y134.069 E23.46369
G1 X154.973 Y134.739 E23.50072
G1 X154.739 Y134.973 E23.51448
G1 X154.192 Y135.463 E23.54501
G1 X153.595 Y135.891 E23.57555
G1 X152.955 Y136.252 E23.6061
G1 X152.28 Y136.541 E23.63663
G1 X151.577 Y136.755 E23.66718
G1 X150.855 Y136.891 E23.69772
G1 X149.966 Y136.95 E23.73477
G1 X109.991 Y136.949 E25.39673
G1 X109.185 Y136.901 E25.4303
G1 X107.971 Y136.755 E25.48114
G1 X107.073 Y136.584 E25.51914
G1 X107.027 Y136.572 E25.52112
G1 X106.33 Y136.35 E25.55153
G1 X105.208 Y135.923 E25.60144
G1 X104.702 Y135.706 E25.62433
G1 X104.658 Y135.685 E25.62636
G1 X103.732 Y135.149 E25.67084
G1 X102.742 Y134.466 E25.72085
G1 X102.203 Y134.053 E25.74908
G1 X102.163 Y134.019 E25.75126
G1 X101.478 Y133.347 E25.79116
G1 X100.678 Y132.442 E25.84137
G1 X100.161 Y131.778 E25.87636
G1 X100.133 Y131.737 E25.87843
G1 X99.73 Y131.067 E25.91093
G1 X99.17 Y130 E25.96103
G1 X98.833 Y129.248 E25.99529
G1 X98.816 Y129.203 E25.99729
G1 X98.578 Y128.439 E26.03056
G1 X98.29 Y127.275 E26.08041
G1 X98.14 Y126.458 E26.11495
G1 X98.134 Y126.408 E26.11704
G1 X98.086 Y125.604 E26.15053
G1 X98.086 Y124.398 E26.20067
G1 X98.13 Y123.624 E26.2329
G1 X98.136 Y123.572 E26.23507
G1 X98.29 Y122.725 E26.27087
G1 X98.578 Y121.561 E26.32072
G1 X98.816 Y120.797 E26.35399
G1 X98.833 Y120.752 E26.35599
G1 X99.17 Y120 E26.39025
G1 X99.73 Y118.933 E26.44035
G1 X100.133 Y118.263 E26.47285
G1 X100.161 Y118.222 E26.47492
G1 X100.678 Y117.558 E26.5099
G1 X101.478 Y116.653 E26.56012
G1 X102.163 Y115.981 E26.60002
G1 X102.203 Y115.947 E26.6022
G1 X102.742 Y115.534 E26.63043
G1 X103.05 Y115.322 E26.64598
G1 X103.05 Y94.697 E27.50346
G1 X102.483 Y94.288 E27.53253
G1 X102.449 Y94.26 E27.53436
G1 X101.967 Y93.822 E27.56144
G1 X101.177 Y93.032 E27.60789
G1 X100.726 Y92.533 E27.63585
G1 X100.699 Y92.5 E27.63762
G1 X100.208 Y91.817 E27.6726
G1 X99.613 Y90.87 E27.71909
G1 X99.291 Y90.298 E27.74638
G1 X99.271 Y90.258 E27.74824
G1 X98.938 Y89.47 E27.78381
G1 X98.566 Y88.408 E27.83059
G1 X98.329 Y87.56 E27.8672
G1 X98.32 Y87.517 E27.86903
G1 X98.22 Y86.895 E27.89522
G1 X98.094 Y85.784 E27.9417
G1 X98.051 Y85.023 E27.97339
G1 X98.051 Y84.979 E27.97522
G1 X98.094 Y84.22 E28.00683
G1 X98.22 Y83.107 E28.0534
G1 X98.32 Y82.483 E28.07967
G1 X98.329 Y82.44 E28.0815
G1 X98.566 Y81.592 E28.11811
G1 X98.938 Y80.53 E28.16489
G1 X99.271 Y79.742 E28.20045
G1 X99.291 Y79.702 E28.20231
G1 X99.613 Y79.13 E28.2296
G1 X100.208 Y78.183 E28.2761
G1 X100.699 Y77.5 E28.31107
G0 F6000 X101.086 Y77.816
G1 F600 X101.113 Y77.783 E28.31285
G1 X101.531 Y77.322 E28.33872
G1 X102.321 Y76.532 E28.38517
G1 X102.767 Y76.126 E28.41024
G1 X102.801 Y76.098 E28.41207
G1 X103.448 Y75.632 E28.44522
G1 X104.393 Y75.038 E28.49163
G1 X104.924 Y74.739 E28.51696
G1 X104.964 Y74.719 E28.51882
G1 X105.686 Y74.413 E28.55143
G1 X106.75 Y74.039 E28.59832
G1 X107.543 Y73.818 E28.63254
G1 X107.586 Y73.809 E28.63437
G1 X108.175 Y73.714 E28.65917
G1 X109.308 Y73.588 E28.70657
G1 X109.999 Y73.55 E28.73534
G1 X130.003 Y73.55 E29.56701
G1 X130.384 Y73.562 E29.58286
G1 X132.823 Y73.711 E29.68445
G1 X133.563 Y73.8 E29.71543
G1 X135.943 Y74.234 E29.81601
G1 X136.681 Y74.416 E29.84762
G1 X139.034 Y75.149 E29.95008
G1 X139.74 Y75.417 E29.98148
G1 X141.946 Y76.41 E30.08205
G1 X142.616 Y76.761 E30.1135
G1 X144.722 Y78.035 E30.21583
G1 X145.345 Y78.466 E30.24733
G1 X147.262 Y79.97 E30.34863
G1 X147.823 Y80.468 E30.37982
G1 X149.531 Y82.176 E30.48024
G1 X150.029 Y82.737 E30.51143
G1 X151.534 Y84.655 E30.61279
G1 X151.663 Y84.825 E30.62166
G1 X151.982 Y85.303 E30.64555
G1 X153.24 Y87.388 E30.74679
G1 X153.587 Y88.049 E30.77783
G1 X154.581 Y90.255 E30.87842
G1 X154.85 Y90.965 E30.90999
G1 X155.583 Y93.319 E31.01249
G1 X155.764 Y94.052 E31.04388
G1 X156.199 Y96.43 E31.14439
G1 X156.289 Y97.174 E31.17555
G1 X156.438 Y99.615 E31.27722
G1 X156.45 Y99.996 E31.29307
G1 X156.45 Y129.966 E32.53908
G1 X156.41 Y130.672 E32.56848
G1 X156.291 Y131.368 E32.59783
G1 X156.093 Y132.047 E32.62724
G1 X155.821 Y132.699 E32.65661
G1 X155.476 Y133.316 E32.686
G1 X155.064 Y133.891 E32.71541
G1 X154.619 Y134.385 E32.74305
G1 X154.385 Y134.619 E32.75681
G1 X153.858 Y135.09 E32.78619
G1 X153.281 Y135.498 E32.81557
G1 X152.662 Y135.839 E32.84496
G1 X152.008 Y136.107 E32.87434
G1 X151.328 Y136.3 E32.90373
G1 X150.63 Y136.415 E32.93314
G1 X149.966 Y136.45 E32.96078
G1 X109.991 Y136.449 E34.62275
G1 X109.245 Y136.404 E34.65382
G1 X108.031 Y136.258 E34.70466
G1 X107.199 Y136.101 E34.73986
G1 X107.153 Y136.089 E34.74183
G1 X106.508 Y135.882 E34.77
G1 X105.386 Y135.455 E34.81991
G1 X104.917 Y135.255 E34.84111
G1 X104.873 Y135.234 E34.84313
G1 X104.016 Y134.737 E34.88432
G1 X103.026 Y134.054 E34.93433
G1 X102.527 Y133.672 E34.96045
G1 X102.487 Y133.638 E34.96264
G1 X101.852 Y133.015 E34.99962
G1 X101.052 Y132.11 E35.04984
G1 X100.574 Y131.496 E35.08219
G1 X100.546 Y131.455 E35.08425
G1 X100.173 Y130.835 E35.11434
G1 X99.613 Y129.768 E35.16443
G1 X99.3 Y129.072 E35.19616
G1 X99.283 Y129.027 E35.19816
G1 X99.063 Y128.319 E35.22899
G1 X98.775 Y127.155 E35.27884
G1 X98.637 Y126.399 E35.31079
G1 X98.631 Y126.349 E35.31288
G1 X98.586 Y125.604 E35.34391
G1 X98.586 Y124.398 E35.39405
G1 X98.627 Y123.682 E35.42387
G1 X98.633 Y123.63 E35.42604
G1 X98.775 Y122.845 E35.45921
G1 X99.063 Y121.681 E35.50906
G1 X99.283 Y120.973 E35.53989
G1 X99.3 Y120.928 E35.54189
G1 X99.613 Y120.232 E35.57361
G1 X100.173 Y119.165 E35.62371
G1 X100.546 Y118.545 E35.6538
G1 X100.574 Y118.504 E35.65586
G1 X101.052 Y117.89 E35.68821
G1 X101.852 Y116.985 E35.73843
G1 X102.487 Y116.362 E35.77541
G1 X102.527 Y116.328 E35.7776
G1 X103.026 Y115.946 E35.80372
G1 X103.55 Y115.584 E35.8302
G1 X103.55 Y94.432 E36.7096
G1 X103.448 Y94.368 E36.71461
G1 X102.801 Y93.902 E36.74776
G1 X102.767 Y93.874 E36.74959
G1 X102.321 Y93.468 E36.77466
