;FLAVOR:Marlin
;TIME:67320
;Filament used: 14.7301m
;Layer height: 0.1
;MINX:69.835
;MINY:41.002
;MINZ:0.144
;MAXX:185.164
;MAXY:169.332
;MAXZ:70.664
;Generated with Cura_SteamEngine master
M140 S60
M105
M190 S60
M104 S210
M105
M109 S210
M82 ;absolute extrusion mode
M220 S100 ;reset feedrate
M221 S100 ;reset flowrate
G90 ;use absolute coordinates
M82 ;absolute extrusion mode
G28 ;home
G1 Z2 F1500 ;raise z
G92 E0 ;reset extruder

G1 X75 Y5 F5000 ;start position
G1 Z0.28 F1500 ;lower z
G1 E4 F500 ;prime the filament
G1 X180 E10 F500 ;1st line
G1 Y5.4 F5000
G1 X75 E20 F500 ;2nd line
G1 Z2 F1500 ;raise z
G92 E0 ;reset extruder
G92 E0
G92 E0
G1 F1500 E-6.5
;LAYER_COUNT:700
;LAYER:-7
M107
G0 F9000 X73.254 Y48.45 Z0.144
;TYPE:SUPPORT-INTERFACE
G1 F1500 E0
G1 F787.5 X73.768 Y47.733 E0.02641
G1 X73.881 Y47.585 E0.03198
G1 X74.464 Y46.885 E0.05925
G1 X74.565 Y46.772 E0.06379
G1 X75.198 Y46.114 E0.09112
G1 X75.317 Y46 E0.09605
G1 X75.99 Y45.395 E0.12314
G1 X76.123 Y45.285 E0.12831
G1 X76.839 Y44.732 E0.15539
G1 X76.998 Y44.619 E0.16123
G1 X77.746 Y44.123 E0.18809
G1 X77.883 Y44.04 E0.19289
G1 X78.673 Y43.596 E0.22002
G1 X78.823 Y43.518 E0.22508
G1 X79.65 Y43.13 E0.25242
G1 X79.805 Y43.064 E0.25746
G1 X80.648 Y42.741 E0.28449
G1 X80.817 Y42.683 E0.28984
G1 X81.671 Y42.427 E0.31652
G1 X81.844 Y42.381 E0.32188
G1 X82.748 Y42.179 E0.34961
G1 X82.895 Y42.152 E0.35408
G1 X83.791 Y42.02 E0.38119
G1 X83.966 Y42 E0.38647
G1 X84.863 Y41.934 E0.41339
G1 X85.047 Y41.925 E0.41891
G1 X85.559 Y41.917 E0.43423
G1 X169.508 Y41.918 E2.94717
G1 X170.512 Y41.954 E2.97725
G1 X170.65 Y41.964 E2.98139
G1 X171.555 Y42.064 E3.00864
G1 X171.731 Y42.09 E3.01397
G1 X172.639 Y42.258 E3.04161
G1 X172.769 Y42.287 E3.0456
G1 X173.668 Y42.522 E3.07341
G1 X173.836 Y42.573 E3.07867
G1 X174.678 Y42.86 E3.1053
G1 X174.854 Y42.927 E3.11093
G1 X175.662 Y43.27 E3.13721
G1 X175.851 Y43.357 E3.14344
G1 X176.642 Y43.765 E3.17008
G1 X176.777 Y43.841 E3.17472
G1 X177.556 Y44.315 E3.20201
G1 X177.724 Y44.426 E3.20804
G1 X178.434 Y44.935 E3.23419
G1 X178.582 Y45.048 E3.23977
G1 X179.282 Y45.631 E3.26703
G1 X179.395 Y45.732 E3.27157
G1 X180.053 Y46.365 E3.2989
G1 X180.167 Y46.484 E3.30384
G1 X180.772 Y47.157 E3.33093
G1 X180.882 Y47.29 E3.33609
G1 X181.441 Y48.014 E3.36347
G1 X181.541 Y48.153 E3.3686
G1 X182.044 Y48.913 E3.39588
G1 X182.127 Y49.05 E3.40067
G1 X182.571 Y49.84 E3.4278
G1 X182.649 Y49.99 E3.43286
G1 X183.037 Y50.817 E3.46021
G1 X183.103 Y50.972 E3.46525
G1 X183.426 Y51.815 E3.49227
G1 X183.484 Y51.984 E3.49762
G1 X183.74 Y52.838 E3.52431
G1 X183.784 Y53.002 E3.52939
G1 X183.987 Y53.909 E3.55721
G1 X184.014 Y54.054 E3.56163
G1 X184.147 Y54.958 E3.58898
G1 X184.167 Y55.133 E3.59425
G1 X184.233 Y56.03 E3.62118
G1 X184.242 Y56.206 E3.62645
G1 X184.25 Y56.723 E3.64193
G1 X184.25 Y153.658 E6.54359
G1 X184.213 Y154.679 E6.57418
G1 X184.204 Y154.81 E6.57811
G1 X184.103 Y155.719 E6.60548
G1 X184.077 Y155.898 E6.6109
G1 X183.911 Y156.797 E6.63826
G1 X183.88 Y156.936 E6.64253
G1 X183.645 Y157.835 E6.67034
G1 X183.594 Y158.003 E6.6756
G1 X183.314 Y158.829 E6.70171
G1 X183.24 Y159.021 E6.70787
G1 X182.897 Y159.829 E6.73414
G1 X182.81 Y160.018 E6.74037
G1 X182.402 Y160.809 E6.76701
G1 X182.326 Y160.944 E6.77165
G1 X181.852 Y161.723 E6.79894
G1 X181.746 Y161.884 E6.80472
G1 X181.232 Y162.601 E6.83112
G1 X181.119 Y162.749 E6.8367
G1 X180.536 Y163.449 E6.86397
G1 X180.435 Y163.562 E6.8685
G1 X179.802 Y164.22 E6.89583
G1 X179.683 Y164.334 E6.90077
G1 X179.01 Y164.939 E6.92786
G1 X178.877 Y165.049 E6.93302
G1 X178.161 Y165.602 E6.9601
G1 X178.002 Y165.715 E6.96594
G1 X177.254 Y166.211 E6.99281
G1 X177.117 Y166.294 E6.9976
G1 X176.327 Y166.738 E7.02473
G1 X176.177 Y166.816 E7.02979
G1 X175.35 Y167.204 E7.05714
G1 X175.195 Y167.27 E7.06218
G1 X174.352 Y167.593 E7.0892
G1 X174.183 Y167.651 E7.09455
G1 X173.329 Y167.907 E7.12124
G1 X173.156 Y167.953 E7.1266
G1 X172.252 Y168.155 E7.15433
G1 X172.105 Y168.182 E7.1588
G1 X171.209 Y168.314 E7.18591
G1 X171.034 Y168.334 E7.19118
G1 X170.137 Y168.4 E7.21811
G1 X169.953 Y168.409 E7.22362
G1 X169.441 Y168.417 E7.23895
G1 X168.492 Y168.416 E7.26736
G1 X167.488 Y168.38 E7.29743
G1 X167.35 Y168.37 E7.30157
G1 X166.445 Y168.27 E7.32883
G1 X166.269 Y168.244 E7.33415
G1 X165.361 Y168.076 E7.36179
G1 X165.231 Y168.047 E7.36578
G1 X164.332 Y167.812 E7.3936
G1 X164.164 Y167.761 E7.39885
G1 X163.322 Y167.474 E7.42548
G1 X163.146 Y167.407 E7.43112
G1 X162.338 Y167.064 E7.45739
G1 X162.149 Y166.977 E7.46362
G1 X161.358 Y166.569 E7.49026
G1 X161.216 Y166.489 E7.49514
G1 X160.444 Y166.019 E7.5222
G1 X160.276 Y165.908 E7.52822
G1 X159.566 Y165.399 E7.55437
G1 X159.418 Y165.286 E7.55995
G1 X158.711 Y164.697 E7.58749
G1 X158.605 Y164.602 E7.59175
G1 X157.94 Y163.962 E7.61938
G1 X157.833 Y163.85 E7.62402
G1 X157.221 Y163.169 E7.65143
G1 X157.113 Y163.038 E7.65651
G1 X156.559 Y162.32 E7.68366
G1 X156.452 Y162.169 E7.6892
G1 X155.769 Y161.139 E7.72619
G1 X155.76 Y161.145 E7.72651
G1 X155.588 Y160.901 E7.73545
G1 X155.14 Y160.411 E7.75532
G1 X154.634 Y159.981 E7.7752
G1 X154.078 Y159.619 E7.79506
G1 X153.481 Y159.33 E7.81492
G1 X152.851 Y159.118 E7.83481
G1 X152.201 Y158.988 E7.85466
G1 X151.538 Y158.941 E7.87455
G1 X150.875 Y158.977 E7.89443
G1 X150.222 Y159.097 E7.9143
G1 X149.59 Y159.299 E7.93416
G1 X148.988 Y159.578 E7.95402
G1 X148.426 Y159.932 E7.97391
G1 X147.913 Y160.353 E7.99377
G1 X147.456 Y160.837 E8.0137
G1 X147.017 Y161.452 E8.03632
G1 X146.854 Y161.72 E8.04571
G1 X146.746 Y161.884 E8.05158
G1 X146.232 Y162.601 E8.07799
G1 X146.119 Y162.749 E8.08357
G1 X145.536 Y163.449 E8.11084
G1 X145.435 Y163.562 E8.11537
G1 X144.802 Y164.22 E8.1427
G1 X144.683 Y164.334 E8.14764
G1 X144.01 Y164.939 E8.17473
G1 X143.877 Y165.049 E8.17989
G1 X143.161 Y165.602 E8.20697
G1 X143.002 Y165.715 E8.21281
G1 X142.254 Y166.211 E8.23968
G1 X142.117 Y166.294 E8.24447
G1 X141.327 Y166.738 E8.2716
G1 X141.177 Y166.816 E8.27666
G1 X140.35 Y167.204 E8.30401
G1 X140.195 Y167.27 E8.30905
G1 X139.352 Y167.593 E8.33607
G1 X139.183 Y167.651 E8.34142
G1 X138.329 Y167.907 E8.36811
G1 X138.156 Y167.953 E8.37347
G1 X137.252 Y168.155 E8.4012
G1 X137.105 Y168.182 E8.40567
G1 X136.209 Y168.314 E8.43278
G1 X136.034 Y168.334 E8.43805
G1 X135.137 Y168.4 E8.46498
G1 X134.953 Y168.409 E8.47049
G1 X134.441 Y168.417 E8.48582
G1 X133.492 Y168.416 E8.51423
G1 X132.488 Y168.38 E8.5443
G1 X132.35 Y168.37 E8.54844
G1 X131.445 Y168.27 E8.5757
G1 X131.269 Y168.244 E8.58102
G1 X130.361 Y168.076 E8.60866
G1 X130.231 Y168.047 E8.61265
G1 X129.332 Y167.812 E8.64046
G1 X129.164 Y167.761 E8.64572
G1 X128.322 Y167.474 E8.67235
G1 X128.146 Y167.407 E8.67799
G1 X127.338 Y167.064 E8.70426
G1 X127.149 Y166.977 E8.71049
G1 X126.358 Y166.569 E8.73713
G1 X126.216 Y166.489 E8.74201
G1 X125.444 Y166.019 E8.76907
G1 X125.276 Y165.908 E8.77509
G1 X124.566 Y165.399 E8.80124
G1 X124.418 Y165.286 E8.80682
G1 X123.711 Y164.697 E8.83436
G1 X123.605 Y164.602 E8.83862
G1 X122.94 Y163.962 E8.86625
G1 X122.833 Y163.85 E8.87089
G1 X122.221 Y163.169 E8.8983
G1 X122.113 Y163.038 E8.90338
G1 X121.559 Y162.32 E8.93052
G1 X121.452 Y162.169 E8.93606
G1 X120.956 Y161.421 E8.96293
G1 X120.873 Y161.284 E8.96773
G1 X120.415 Y160.469 E8.99571
G1 X120.351 Y160.345 E8.99989
G1 X119.956 Y159.502 E9.02775
G1 X119.897 Y159.363 E9.03227
G1 X119.571 Y158.511 E9.05958
G1 X119.513 Y158.341 E9.06496
G1 X119.26 Y157.496 E9.09136
G1 X119.214 Y157.323 E9.09672
G1 X119.011 Y156.415 E9.12457
G1 X118.985 Y156.272 E9.12892
G1 X118.853 Y155.376 E9.15603
G1 X118.833 Y155.201 E9.16131
G1 X118.767 Y154.301 E9.18832
G1 X118.758 Y154.12 E9.19374
G1 X118.75 Y153.611 E9.20898
G1 X118.75 Y90.659 E11.09339
G1 X118.709 Y90.004 E11.11304
G1 X118.584 Y89.352 E11.13291
G1 X118.377 Y88.722 E11.15276
G1 X118.092 Y88.122 E11.17265
G1 X117.735 Y87.563 E11.1925
G1 X117.309 Y87.053 E11.21239
G1 X116.823 Y86.602 E11.23224
G1 X116.283 Y86.215 E11.25213
G1 X115.699 Y85.9 E11.27199
G1 X115.08 Y85.66 E11.29186
G1 X114.432 Y85.5 E11.31184
G1 X113.511 Y85.417 E11.33952
G1 X106.492 Y85.417 E11.54963
G1 X105.837 Y85.458 E11.56928
G1 X105.185 Y85.583 E11.58915
G1 X104.555 Y85.79 E11.609
G1 X103.955 Y86.075 E11.62888
G1 X103.396 Y86.432 E11.64874
G1 X102.886 Y86.858 E11.66863
G1 X102.435 Y87.344 E11.68848
G1 X102.048 Y87.884 E11.70836
G1 X101.733 Y88.468 E11.72822
G1 X101.493 Y89.087 E11.7481
G1 X101.333 Y89.735 E11.76808
G1 X101.25 Y90.656 E11.79576
G1 X101.25 Y153.658 E13.68167
G1 X101.213 Y154.679 E13.71225
G1 X101.204 Y154.81 E13.71618
G1 X101.103 Y155.719 E13.74356
G1 X101.077 Y155.898 E13.74897
G1 X100.911 Y156.797 E13.77634
G1 X100.88 Y156.936 E13.7806
G1 X100.645 Y157.835 E13.80842
G1 X100.594 Y158.003 E13.81367
G1 X100.314 Y158.829 E13.83978
G1 X100.24 Y159.021 E13.84594
G1 X99.897 Y159.829 E13.87222
G1 X99.81 Y160.018 E13.87844
G1 X99.402 Y160.809 E13.90509
G1 X99.326 Y160.944 E13.90972
G1 X98.852 Y161.723 E13.93702
G1 X98.746 Y161.884 E13.94279
G1 X98.232 Y162.601 E13.9692
G1 X98.119 Y162.749 E13.97477
G1 X97.536 Y163.449 E14.00204
G1 X97.435 Y163.562 E14.00658
G1 X96.802 Y164.22 E14.03391
G1 X96.683 Y164.334 E14.03884
G1 X96.01 Y164.939 E14.06593
G1 X95.877 Y165.049 E14.0711
G1 X95.161 Y165.602 E14.09818
G1 X95.002 Y165.715 E14.10402
G1 X94.254 Y166.211 E14.13088
G1 X94.117 Y166.294 E14.13568
G1 X93.327 Y166.738 E14.16281
G1 X93.177 Y166.816 E14.16787
G1 X92.35 Y167.204 E14.19521
G1 X92.195 Y167.27 E14.20025
G1 X91.352 Y167.593 E14.22728
G1 X91.183 Y167.651 E14.23263
G1 X90.329 Y167.907 E14.25931
G1 X90.156 Y167.953 E14.26467
G1 X89.252 Y168.155 E14.2924
G1 X89.105 Y168.182 E14.29687
G1 X88.209 Y168.314 E14.32398
G1 X88.034 Y168.334 E14.32926
G1 X87.137 Y168.4 E14.35618
G1 X86.953 Y168.409 E14.3617
G1 X86.441 Y168.417 E14.37702
G1 X85.492 Y168.416 E14.40543
G1 X84.488 Y168.38 E14.4355
G1 X84.35 Y168.37 E14.43965
G1 X83.445 Y168.27 E14.4669
G1 X83.269 Y168.244 E14.47223
G1 X82.361 Y168.076 E14.49987
G1 X82.231 Y168.047 E14.50386
G1 X81.332 Y167.812 E14.53167
G1 X81.164 Y167.761 E14.53693
G1 X80.322 Y167.474 E14.56355
G1 X80.146 Y167.407 E14.56919
G1 X79.338 Y167.064 E14.59547
G1 X79.149 Y166.977 E14.6017
G1 X78.358 Y166.569 E14.62834
G1 X78.216 Y166.489 E14.63322
G1 X77.444 Y166.019 E14.66027
G1 X77.276 Y165.908 E14.6663
G1 X76.566 Y165.399 E14.69245
G1 X76.418 Y165.286 E14.69802
G1 X75.711 Y164.697 E14.72557
G1 X75.605 Y164.602 E14.72983
G1 X74.94 Y163.962 E14.75746
G1 X74.833 Y163.85 E14.76209
G1 X74.221 Y163.169 E14.7895
G1 X74.113 Y163.038 E14.79458
G1 X73.559 Y162.32 E14.82173
G1 X73.452 Y162.169 E14.82727
G1 X72.956 Y161.421 E14.85414
G1 X72.873 Y161.284 E14.85893
G1 X72.415 Y160.469 E14.88692
G1 X72.351 Y160.345 E14.89109
G1 X71.956 Y159.502 E14.91896
G1 X71.897 Y159.363 E14.92348
G1 X71.571 Y158.511 E14.95079
G1 X71.513 Y158.341 E14.95616
G1 X71.26 Y157.496 E14.98257
G1 X71.214 Y157.323 E14.98793
G1 X71.011 Y156.415 E15.01578
G1 X70.985 Y156.272 E15.02013
G1 X70.853 Y155.376 E15.04724
G1 X70.833 Y155.201 E15.05251
G1 X70.767 Y154.301 E15.07952
G1 X70.758 Y154.12 E15.08495
G1 X70.75 Y153.611 E15.10019
G1 X70.75 Y56.676 E18.00185
G1 X70.787 Y55.655 E18.03243
G1 X70.796 Y55.524 E18.03637
G1 X70.897 Y54.615 E18.06374
G1 X70.923 Y54.436 E18.06916
G1 X71.089 Y53.537 E18.09652
G1 X71.12 Y53.398 E18.10079
G1 X71.355 Y52.499 E18.1286
G1 X71.406 Y52.331 E18.13386
G1 X71.693 Y51.489 E18.16048
G1 X71.76 Y51.313 E18.16612
G1 X72.103 Y50.505 E18.1924
G1 X72.19 Y50.316 E18.19863
G1 X72.598 Y49.525 E18.22527
G1 X72.674 Y49.39 E18.22991
G1 X73.148 Y48.611 E18.2572
G1 X73.254 Y48.45 E18.26297
G0 F9000 X73 Y48.854
G1 F787.5 X73 Y161.487 E21.63454
G0 F9000 X74 Y162.891
G1 F787.5 X74 Y47.442 E25.09041
G0 F9000 X75 Y46.319
G1 F787.5 X75 Y164.019 E28.61365
G0 F9000 X76 Y164.937
G1 F787.5 X76 Y45.386 E32.19231
G0 F9000 X77 Y44.617
G1 F787.5 X77 Y165.71 E35.81712
G0 F9000 X78 Y166.357
G1 F787.5 X78 Y43.974 E39.48055
G0 F9000 X79 Y43.434
G1 F787.5 X79 Y166.9 E43.17639
G0 F9000 X80 Y167.345
G1 F787.5 X80 Y42.989 E46.89888
G0 F9000 X81 Y42.628
G1 F787.5 X81 Y167.705 E50.64295
G0 F9000 X82 Y167.986
G1 F787.5 X82 Y42.346 E54.40387
G0 F9000 X83 Y42.136
G1 F787.5 X83 Y168.194 E58.17731
G0 F9000 X84 Y168.331
G1 F787.5 X84 Y41.997 E61.95901
G0 F9000 X85 Y41.927
G1 F787.5 X85 Y168.398 E65.7448
G0 F9000 X86 Y168.416
G1 F787.5 X86 Y41.918 E69.53141
G0 F9000 X87 Y41.918
G1 F787.5 X87 Y168.407 E73.31775
G0 F9000 X88 Y168.337
G1 F787.5 X88 Y41.918 E77.10199
G0 F9000 X89 Y41.918
G1 F787.5 X89 Y168.198 E80.88207
G0 F9000 X90 Y167.988
G1 F787.5 X90 Y41.918 E84.65587
G0 F9000 X91 Y41.918
G1 F787.5 X91 Y167.706 E88.42122
G0 F9000 X92 Y167.345
G1 F787.5 X92 Y41.918 E92.17577
G0 F9000 X93 Y41.918
G1 F787.5 X93 Y166.9 E95.91699
G0 F9000 X94 Y166.36
G1 F787.5 X94 Y41.918 E99.64205
G0 F9000 X95 Y41.918
G1 F787.5 X95 Y165.717 E103.34787
G0 F9000 X96 Y164.948
G1 F787.5 X96 Y41.918 E107.03066
G0 F9000 X97 Y41.918
G1 F787.5 X97 Y164.015 E110.68553
G0 F9000 X98 Y162.892
G1 F787.5 X98 Y41.918 E114.30678
G0 F9000 X99 Y41.918
G1 F787.5 X99 Y161.48 E117.88576
G0 F9000 X100 Y159.587
G1 F787.5 X100 Y41.918 E121.40808
G0 F9000 X101 Y41.918
G1 F787.5 X101 Y156.316 E124.83249
G1 F1500 E118.33249
G0 F9000 X101.899 Y156.482
G0 X118.083 Y156.425
G0 X119 Y156.354
G1 F1500 E124.83249
G1 F787.5 X119 Y41.918 E128.25803
G0 F9000 X118 Y41.918
G1 F787.5 X118 Y87.977 E129.63676
G0 F9000 X117 Y86.766
G1 F787.5 X117 Y41.918 E130.97925
G0 F9000 X116 Y41.918
G1 F787.5 X116 Y86.062 E132.30066
G0 F9000 X115 Y85.64
G1 F787.5 X115 Y41.918 E133.60944
G0 F9000 X114 Y41.918
G1 F787.5 X114 Y85.461 E134.91286
G0 F9000 X113 Y85.417
G1 F787.5 X113 Y41.918 E136.21497
G0 F9000 X112 Y41.918
G1 F787.5 X112 Y85.417 E137.51707
G0 F9000 X111 Y85.417
G1 F787.5 X111 Y41.918 E138.81917
G0 F9000 X110 Y41.918
G1 F787.5 X110 Y85.417 E140.12128
G0 F9000 X109 Y85.417
G1 F787.5 X109 Y41.918 E141.42338
G0 F9000 X108 Y41.918
G1 F787.5 X108 Y85.417 E142.72549
G0 F9000 X107 Y85.417
G1 F787.5 X107 Y41.918 E144.02759
G0 F9000 X106 Y41.918
G1 F787.5 X106 Y85.448 E145.33062
G0 F9000 X105 Y85.644
G1 F787.5 X105 Y41.918 E146.63952
G0 F9000 X104 Y41.918
G1 F787.5 X104 Y86.054 E147.9607
G0 F9000 X103 Y86.763
G1 F787.5 X103 Y41.918 E149.30309
G0 F9000 X102 Y41.918
G1 F787.5 X102 Y87.973 E150.68171
G1 F1500 E144.18171
G0 F9000 X102.825 Y88.369
G0 X102.113 Y154.898
G0 X101.806 Y156.983
G0 X101.464 Y158.287
G0 X100.731 Y160.205
G0 X100.113 Y161.41
G0 X98.966 Y163.148
G0 X98.108 Y164.181
G0 X96.603 Y165.635
G0 X95.523 Y166.466
G0 X93.757 Y167.545
G0 X92.539 Y168.117
G0 X90.573 Y168.788
G0 X89.258 Y169.084
G0 X87.19 Y169.313
G0 X84.269 Y169.28
G0 X82.184 Y168.973
G0 X80.88 Y168.631
G0 X78.962 Y167.898
G0 X77.757 Y167.28
G0 X76.019 Y166.133
G0 X74.986 Y165.275
G0 X73.532 Y163.77
G0 X72.701 Y162.69
G0 X71.612 Y160.906
G0 X71.05 Y159.705
G0 X70.379 Y157.74
G0 X70.083 Y156.425
G0 X69.854 Y154.354
G0 X69.874 Y55.61
G0 X70.101 Y53.852
G0 X71 Y54.018
G1 F1500 E150.68171
G1 F787.5 X71 Y156.354 E153.74505
G1 F1500 E147.24505
G0 F9000 X70.115 Y156.601
G0 X70.543 Y158.239
G0 X71.05 Y159.705
G0 X72 Y159.595
G1 F1500 E153.74505
G1 F787.5 X72 Y50.747 E157.00331
G1 F1500 E150.50331
G0 F9000 X71.269 Y50.129
G0 X71.887 Y48.924
G0 X73.034 Y47.186
G0 X73.892 Y46.153
G0 X75.397 Y44.699
G0 X76.477 Y43.868
G0 X78.243 Y42.789
G0 X79.461 Y42.217
G0 X81.427 Y41.546
G0 X82.742 Y41.25
G0 X84.81 Y41.021
G0 X120 Y41.002
G0 X120 Y41.918
G1 F1500 E157.00331
G1 F787.5 X120 Y159.595 E160.52587
G0 F9000 X121 Y161.487
G1 F787.5 X121 Y41.918 E164.10507
G0 F9000 X122 Y41.918
G1 F787.5 X122 Y162.891 E167.72629
G0 F9000 X123 Y164.019
G1 F787.5 X123 Y41.918 E171.38127
G0 F9000 X124 Y41.918
G1 F787.5 X124 Y164.937 E175.06374
G0 F9000 X125 Y165.71
G1 F787.5 X125 Y41.918 E178.76934
G0 F9000 X126 Y41.918
G1 F787.5 X126 Y166.357 E182.49431
G0 F9000 X127 Y166.9
G1 F787.5 X127 Y41.918 E186.23554
G0 F9000 X128 Y41.918
G1 F787.5 X128 Y167.345 E189.99009
G0 F9000 X129 Y167.705
G1 F787.5 X129 Y41.918 E193.75541
G0 F9000 X130 Y41.918
G1 F787.5 X130 Y167.986 E197.52915
G0 F9000 X131 Y168.194
G1 F787.5 X131 Y41.918 E201.30911
G0 F9000 X132 Y41.918
G1 F787.5 X132 Y168.331 E205.09317
G0 F9000 X133 Y168.398
