;FLAVOR:Marlin
;TIME:31144
;Filament used: 1.60844m
;Layer height: 0.1
;MINX:96.525
;MINY:74.011
;MINZ:0.12
;MAXX:158.485
;MAXY:135.989
;MAXZ:16.02
;Generated with Cura_SteamEngine master
M140 S60
M105
M190 S60
M104 S210
M105
M109 S210
M82 ;absolute extrusion mode
M220 S100 ;reset feedrate
M221 S100 ;reset flowrate
G90 ;use absolute coordinates
M82 ;absolute extrusion mode
G28 ;home
G1 Z2 F1500 ;raise z
G92 E0 ;reset extruder

G1 X75 Y5 F5000 ;start position
G1 Z0.28 F1500 ;lower z
G1 E4 F500 ;prime the filament
G1 X180 E10 F500 ;1st line
G1 Y5.4 F5000
G1 X75 E20 F500 ;2nd line
G1 Z2 F1500 ;raise z
G92 E0 ;reset extruder
G92 E0
G92 E0
G1 F1500 E-6.5
;LAYER_COUNT:160
;LAYER:0
M107
G0 F6000 X103.972 Y84.844 Z0.12
;TYPE:SKIRT
G1 F1500 E0
G1 F240 X104.511 Y84.232 E0.01424
G1 X106.176 Y82.526 E0.05587
G1 X106.766 Y81.98 E0.0699
G1 X108.593 Y80.455 E0.11146
G1 X109.243 Y79.967 E0.12565
G1 X111.214 Y78.641 E0.16713
G1 X111.911 Y78.223 E0.18132
G1 X114.014 Y77.104 E0.22292
G1 X114.75 Y76.76 E0.23711
G1 X116.964 Y75.861 E0.27883
G1 X117.728 Y75.595 E0.29296
G1 X120.015 Y74.93 E0.33455
G1 X120.801 Y74.745 E0.34865
G1 X123.137 Y74.319 E0.39011
G1 X123.947 Y74.214 E0.40437
G1 X126.329 Y74.031 E0.44609
G1 X127.135 Y74.011 E0.46017
G1 X129.499 Y74.072 E0.50146
G1 X130.305 Y74.134 E0.51557
G1 X132.667 Y74.439 E0.55716
G1 X133.474 Y74.586 E0.57148
G1 X135.808 Y75.139 E0.61337
G1 X136.578 Y75.364 E0.62737
G1 X138.816 Y76.142 E0.66875
G1 X139.564 Y76.446 E0.68285
G1 X141.723 Y77.455 E0.72446
G1 X142.443 Y77.837 E0.73869
G1 X144.475 Y79.057 E0.78008
G1 X145.153 Y79.515 E0.79437
G1 X147.063 Y80.951 E0.83609
G1 X147.68 Y81.466 E0.85012
G1 X149.427 Y83.083 E0.89169
G1 X149.995 Y83.666 E0.9059
G1 X151.573 Y85.463 E0.94766
G1 X152.073 Y86.095 E0.96174
G1 X153.44 Y88.017 E1.00292
G1 X153.878 Y88.705 E1.01716
G1 X155.057 Y90.79 E1.05899
G1 X155.417 Y91.509 E1.07303
G1 X156.37 Y93.687 E1.11454
G1 X156.658 Y94.452 E1.12881
G1 X157.383 Y96.726 E1.17049
G1 X157.589 Y97.51 E1.18464
G1 X158.075 Y99.84 E1.22621
G1 X158.199 Y100.635 E1.24026
G1 X158.443 Y102.986 E1.28153
G1 X158.485 Y103.799 E1.29574
G1 X158.485 Y106.199 E1.33765
G1 X158.443 Y107.014 E1.3519
G1 X158.197 Y109.379 E1.39342
G1 X158.073 Y110.172 E1.40744
G1 X157.587 Y112.502 E1.449
G1 X157.379 Y113.292 E1.46326
G1 X156.66 Y115.541 E1.50449
G1 X156.644 Y115.536 E1.50478
G1 X156.37 Y116.313 E1.51917
G1 X155.411 Y118.503 E1.56092
G1 X155.051 Y119.223 E1.57497
G1 X153.879 Y121.294 E1.61652
G1 X153.442 Y121.979 E1.63071
G1 X152.065 Y123.915 E1.6722
G1 X151.562 Y124.55 E1.68634
G1 X149.984 Y126.345 E1.72808
G1 X149.418 Y126.927 E1.74225
G1 X147.669 Y128.545 E1.78386
G1 X147.049 Y129.062 E1.79795
G1 X145.151 Y130.487 E1.8394
G1 X144.479 Y130.939 E1.85354
G1 X142.447 Y132.16 E1.89493
G1 X141.721 Y132.546 E1.90929
G1 X139.548 Y133.56 E1.95116
G1 X138.803 Y133.863 E1.96521
G1 X136.564 Y134.641 E2.00659
G1 X135.792 Y134.866 E2.02064
G1 X133.471 Y135.415 E2.06228
G1 X132.666 Y135.561 E2.07657
G1 X130.303 Y135.866 E2.11817
G1 X129.497 Y135.928 E2.13229
G1 X127.122 Y135.989 E2.17377
G1 X126.315 Y135.969 E2.18787
G1 X123.941 Y135.786 E2.22945
G1 X123.129 Y135.681 E2.24374
G1 X120.783 Y135.252 E2.28539
G1 X119.996 Y135.065 E2.29951
G1 X117.712 Y134.399 E2.34105
G1 X116.952 Y134.135 E2.3551
G1 X114.737 Y133.235 E2.39685
G1 X113.999 Y132.89 E2.41108
G1 X111.909 Y131.777 E2.45242
G1 X111.213 Y131.359 E2.4666
G1 X109.23 Y130.024 E2.50834
G1 X108.58 Y129.535 E2.52255
G1 X106.754 Y128.01 E2.56409
G1 X106.16 Y127.46 E2.57822
G1 X104.497 Y125.752 E2.61985
G1 X103.964 Y125.145 E2.63395
G1 X102.488 Y123.28 E2.67549
G1 X102.016 Y122.616 E2.68971
G1 X100.744 Y120.614 E2.73113
G1 X100.347 Y119.911 E2.74523
G1 X99.277 Y117.77 E2.78702
G1 X98.951 Y117.024 E2.80124
G1 X98.115 Y114.803 E2.84267
G1 X97.871 Y114.039 E2.85668
G1 X97.266 Y111.747 E2.89807
G1 X97.099 Y110.948 E2.91232
G1 X96.73 Y108.577 E2.95422
G1 X96.646 Y107.767 E2.96844
G1 X96.525 Y105.395 E3.00992
G1 X96.525 Y104.591 E3.02396
G1 X96.646 Y102.231 E3.06522
G1 X96.73 Y101.422 E3.07942
G1 X97.1 Y99.047 E3.12139
G1 X97.268 Y98.246 E3.13568
G1 X97.876 Y95.946 E3.17723
G1 X98.118 Y95.186 E3.19115
G1 X98.949 Y92.977 E3.23236
G1 X99.278 Y92.224 E3.24671
G1 X100.356 Y90.071 E3.28876
G1 X100.754 Y89.369 E3.30285
G1 X102.026 Y87.37 E3.34422
G1 X102.495 Y86.71 E3.35836
G1 X103.972 Y84.844 E3.39991
G0 F6000 X104.247 Y85.062
G1 F240 X104.762 Y84.476 E3.41354
G1 X106.427 Y82.77 E3.45516
G1 X106.99 Y82.249 E3.46856
G1 X108.817 Y80.724 E3.51011
G1 X109.439 Y80.257 E3.52369
G1 X111.41 Y78.931 E3.56517
G1 X112.075 Y78.532 E3.57872
G1 X114.178 Y77.413 E3.62031
G1 X114.882 Y77.084 E3.63388
G1 X117.096 Y76.185 E3.67561
G1 X117.826 Y75.931 E3.6891
G1 X120.113 Y75.266 E3.73069
G1 X120.864 Y75.089 E3.74417
G1 X123.2 Y74.663 E3.78563
G1 X123.974 Y74.563 E3.79926
G1 X126.356 Y74.38 E3.84097
G1 X127.126 Y74.361 E3.85442
G1 X129.49 Y74.422 E3.89571
G1 X130.26 Y74.481 E3.9092
G1 X132.622 Y74.786 E3.95079
G1 X133.393 Y74.927 E3.96447
G1 X135.727 Y75.48 E4.00636
G1 X136.463 Y75.694 E4.01974
G1 X138.701 Y76.472 E4.06111
G1 X139.416 Y76.763 E4.07459
G1 X141.575 Y77.772 E4.11621
G1 X142.262 Y78.137 E4.12979
G1 X144.294 Y79.357 E4.17118
G1 X144.943 Y79.794 E4.18484
G1 X146.853 Y81.23 E4.22656
G1 X147.443 Y81.723 E4.23999
G1 X149.19 Y83.34 E4.28156
G1 X149.732 Y83.897 E4.29513
G1 X151.31 Y85.694 E4.33689
G1 X151.788 Y86.298 E4.35034
G1 X153.155 Y88.22 E4.39152
G1 X153.573 Y88.877 E4.40512
G1 X154.752 Y90.962 E4.44694
G1 X155.096 Y91.65 E4.46037
G1 X156.049 Y93.828 E4.50189
G1 X156.324 Y94.558 E4.51551
G1 X157.049 Y96.832 E4.55719
G1 X157.246 Y97.581 E4.57071
G1 X157.732 Y99.911 E4.61227
G1 X157.851 Y100.671 E4.6257
G1 X158.095 Y103.022 E4.66697
G1 X158.135 Y103.799 E4.68056
G1 X158.135 Y106.199 E4.72247
G1 X158.095 Y106.978 E4.73609
G1 X157.849 Y109.343 E4.77761
G1 X157.73 Y110.101 E4.79101
G1 X157.244 Y112.431 E4.83257
G1 X157.046 Y113.185 E4.84618
G1 X156.327 Y115.434 E4.88741
G1 X156.312 Y115.429 E4.88768
G1 X156.049 Y116.172 E4.90145
G1 X155.09 Y118.362 E4.94319
G1 X154.746 Y119.05 E4.95663
G1 X153.574 Y121.121 E4.99818
G1 X153.157 Y121.777 E5.01175
G1 X151.78 Y123.713 E5.05324
G1 X151.3 Y124.319 E5.06673
G1 X149.722 Y126.114 E5.10847
G1 X149.18 Y126.67 E5.12203
G1 X147.431 Y128.288 E5.16363
G1 X146.839 Y128.782 E5.17709
G1 X144.941 Y130.207 E5.21854
G1 X144.299 Y130.639 E5.23205
G1 X142.267 Y131.86 E5.27344
G1 X141.573 Y132.229 E5.28717
G1 X139.4 Y133.243 E5.32904
G1 X138.688 Y133.532 E5.34246
G1 X136.449 Y134.31 E5.38385
G1 X135.711 Y134.525 E5.39727
G1 X133.39 Y135.074 E5.43892
G1 X132.621 Y135.214 E5.45257
G1 X130.258 Y135.519 E5.49417
G1 X129.488 Y135.579 E5.50766
G1 X127.113 Y135.64 E5.54914
G1 X126.342 Y135.62 E5.56261
G1 X123.968 Y135.437 E5.60418
G1 X123.192 Y135.336 E5.61785
G1 X120.846 Y134.907 E5.65949
G1 X120.093 Y134.729 E5.673
G1 X117.809 Y134.063 E5.71455
G1 X117.083 Y133.81 E5.72797
G1 X114.868 Y132.91 E5.76972
G1 X114.164 Y132.581 E5.78329
G1 X112.074 Y131.468 E5.82464
G1 X111.409 Y131.068 E5.83819
G1 X109.426 Y129.733 E5.87993
G1 X108.804 Y129.267 E5.8935
G1 X106.978 Y127.742 E5.93504
G1 X106.41 Y127.215 E5.94857
G1 X104.747 Y125.507 E5.9902
G1 X104.238 Y124.928 E6.00366
G1 X102.762 Y123.063 E6.04519
G1 X102.312 Y122.428 E6.05878
G1 X101.04 Y120.426 E6.1002
G1 X100.66 Y119.755 E6.11366
G1 X99.59 Y117.614 E6.15546
G1 X99.278 Y116.901 E6.16905
G1 X98.442 Y114.68 E6.21049
G1 X98.209 Y113.95 E6.22387
G1 X97.604 Y111.658 E6.26526
G1 X97.445 Y110.894 E6.27889
G1 X97.076 Y108.523 E6.32078
G1 X96.996 Y107.749 E6.33437
G1 X96.875 Y105.377 E6.37584
G1 X96.875 Y104.609 E6.38926
G1 X96.996 Y102.249 E6.43052
G1 X97.076 Y101.476 E6.44409
G1 X97.446 Y99.101 E6.48606
G1 X97.606 Y98.336 E6.49971
G1 X98.214 Y96.036 E6.54125
G1 X98.446 Y95.309 E6.55457
G1 X99.277 Y93.1 E6.59579
G1 X99.591 Y92.381 E6.60949
G1 X100.669 Y90.228 E6.65153
G1 X101.049 Y89.557 E6.66499
G1 X102.321 Y87.558 E6.70637
G1 X102.77 Y86.928 E6.71988
G1 X104.247 Y85.062 E6.76143
G0 F6000 X104.521 Y85.279
G1 F240 X105.012 Y84.721 E6.77441
G1 X106.677 Y83.015 E6.81604
G1 X107.214 Y82.518 E6.82881
G1 X109.041 Y80.993 E6.87037
G1 X109.634 Y80.548 E6.88331
G1 X111.605 Y79.222 E6.92479
G1 X112.24 Y78.841 E6.93772
G1 X114.343 Y77.722 E6.97932
G1 X115.014 Y77.408 E6.99226
G1 X117.228 Y76.509 E7.03398
G1 X117.924 Y76.267 E7.04685
G1 X120.211 Y75.602 E7.08844
G1 X120.927 Y75.433 E7.10128
G1 X123.263 Y75.007 E7.14275
G1 X124 Y74.912 E7.15572
G1 X126.382 Y74.729 E7.19744
G1 X127.117 Y74.71 E7.21028
G1 X129.481 Y74.771 E7.25157
G1 X130.215 Y74.828 E7.26443
G1 X132.577 Y75.133 E7.30601
G1 X133.312 Y75.267 E7.31906
G1 X135.646 Y75.82 E7.36094
G1 X136.348 Y76.025 E7.37371
G1 X138.586 Y76.803 E7.41509
G1 X139.268 Y77.08 E7.42794
G1 X141.427 Y78.089 E7.46955
G1 X142.082 Y78.438 E7.48251
G1 X144.114 Y79.658 E7.5239
G1 X144.733 Y80.074 E7.53692
G1 X146.643 Y81.51 E7.57865
G1 X147.205 Y81.979 E7.59143
G1 X148.952 Y83.596 E7.633
G1 X149.469 Y84.128 E7.64595
G1 X151.047 Y85.925 E7.68771
G1 X151.503 Y86.5 E7.70052
G1 X152.87 Y88.422 E7.74171
G1 X153.269 Y89.049 E7.75468
G1 X154.448 Y91.134 E7.79651
G1 X154.775 Y91.79 E7.80931
G1 X155.728 Y93.968 E7.85082
G1 X155.991 Y94.665 E7.86383
G1 X156.716 Y96.939 E7.90551
G1 X156.904 Y97.653 E7.9184
G1 X157.39 Y99.983 E7.95996
G1 X157.503 Y100.707 E7.97275
G1 X157.747 Y103.058 E8.01403
G1 X157.785 Y103.799 E8.02698
G1 X157.785 Y106.199 E8.06889
G1 X157.746 Y106.941 E8.08187
G1 X157.5 Y109.306 E8.12338
G1 X157.388 Y110.029 E8.13616
G1 X156.902 Y112.359 E8.17772
G1 X156.712 Y113.079 E8.19072
G1 X155.993 Y115.328 E8.23195
G1 X155.979 Y115.323 E8.23221
G1 X155.728 Y116.032 E8.24535
G1 X154.769 Y118.222 E8.28709
G1 X154.441 Y118.878 E8.2999
G1 X153.269 Y120.949 E8.34145
G1 X152.872 Y121.574 E8.35438
G1 X151.495 Y123.51 E8.39586
G1 X151.037 Y124.088 E8.40874
G1 X149.459 Y125.883 E8.45048
G1 X148.942 Y126.413 E8.4634
G1 X147.193 Y128.031 E8.50501
G1 X146.629 Y128.502 E8.51784
G1 X144.731 Y129.927 E8.55928
G1 X144.119 Y130.339 E8.57216
G1 X142.087 Y131.56 E8.61356
G1 X141.425 Y131.912 E8.62665
G1 X139.252 Y132.926 E8.66852
G1 X138.573 Y133.201 E8.68132
G1 X136.334 Y133.979 E8.7227
G1 X135.631 Y134.184 E8.73549
G1 X133.31 Y134.733 E8.77714
G1 X132.576 Y134.867 E8.79017
G1 X130.213 Y135.172 E8.83177
G1 X129.479 Y135.229 E8.84463
G1 X127.104 Y135.29 E8.88611
G1 X126.369 Y135.271 E8.89895
G1 X123.995 Y135.088 E8.94053
G1 X123.255 Y134.992 E8.95356
G1 X120.909 Y134.563 E8.9952
G1 X120.191 Y134.393 E9.00808
G1 X117.907 Y133.727 E9.04963
G1 X117.215 Y133.486 E9.06242
G1 X115 Y132.586 E9.10417
G1 X114.328 Y132.272 E9.11712
G1 X112.238 Y131.159 E9.15847
G1 X111.604 Y130.778 E9.17139
G1 X109.621 Y129.443 E9.21313
G1 X109.029 Y128.998 E9.22606
G1 X107.203 Y127.473 E9.2676
G1 X106.661 Y126.971 E9.2805
G1 X104.998 Y125.263 E9.32213
G1 X104.513 Y124.711 E9.33496
G1 X103.037 Y122.846 E9.37649
G1 X102.607 Y122.241 E9.38945
G1 X101.335 Y120.239 E9.43087
G1 X100.973 Y119.599 E9.44371
G1 X99.903 Y117.458 E9.4855
G1 X99.606 Y116.778 E9.49846
G1 X98.77 Y114.557 E9.5399
G1 X98.548 Y113.86 E9.55267
G1 X97.943 Y111.568 E9.59406
G1 X97.79 Y110.84 E9.60705
G1 X97.421 Y108.469 E9.64895
G1 X97.345 Y107.732 E9.66189
G1 X97.224 Y105.36 E9.70336
G1 X97.224 Y104.627 E9.71616
G1 X97.345 Y102.267 E9.75742
G1 X97.422 Y101.53 E9.77036
G1 X97.792 Y99.155 E9.81234
G1 X97.944 Y98.425 E9.82536
G1 X98.552 Y96.125 E9.8669
G1 X98.773 Y95.433 E9.87958
G1 X99.604 Y93.224 E9.92079
G1 X99.904 Y92.538 E9.93387
G1 X100.982 Y90.385 E9.97591
G1 X101.345 Y89.745 E9.98876
G1 X102.617 Y87.746 E10.03013
G1 X103.044 Y87.145 E10.04301
G1 X104.521 Y85.279 E10.08456
G0 F6000 X104.796 Y85.496
G1 F240 X105.263 Y84.965 E10.09691
G1 X106.928 Y83.259 E10.13853
G1 X107.439 Y82.786 E10.15069
G1 X109.266 Y81.261 E10.19225
G1 X109.829 Y80.838 E10.20454
G1 X111.8 Y79.512 E10.24602
G1 X112.404 Y79.15 E10.25832
G1 X114.507 Y78.031 E10.29992
G1 X115.145 Y77.732 E10.31222
G1 X117.359 Y76.833 E10.35395
G1 X118.021 Y76.603 E10.36618
G1 X120.308 Y75.938 E10.40777
G1 X120.99 Y75.778 E10.42
G1 X123.326 Y75.352 E10.46147
G1 X124.027 Y75.261 E10.47381
G1 X126.409 Y75.078 E10.51553
G1 X127.108 Y75.06 E10.52774
G1 X129.472 Y75.121 E10.56903
G1 X130.17 Y75.175 E10.58125
G1 X132.532 Y75.48 E10.62284
G1 X133.232 Y75.608 E10.63527
G1 X135.566 Y76.161 E10.67715
G1 X136.233 Y76.355 E10.68928
G1 X138.471 Y77.133 E10.73065
G1 X139.12 Y77.397 E10.74289
G1 X141.279 Y78.406 E10.7845
G1 X141.902 Y78.738 E10.79683
G1 X143.934 Y79.958 E10.83821
G1 X144.522 Y80.354 E10.85059
G1 X146.432 Y81.79 E10.89232
G1 X146.967 Y82.236 E10.90448
G1 X148.714 Y83.853 E10.94605
G1 X149.206 Y84.359 E10.95837
G1 X150.784 Y86.156 E11.00013
G1 X151.218 Y86.703 E11.01232
G1 X152.585 Y88.625 E11.05351
G1 X152.964 Y89.222 E11.06585
G1 X154.143 Y91.307 E11.10768
G1 X154.455 Y91.93 E11.11985
G1 X155.408 Y94.108 E11.16136
G1 X155.658 Y94.771 E11.17373
G1 X156.383 Y97.045 E11.21541
G1 X156.561 Y97.724 E11.22767
G1 X157.047 Y100.054 E11.26923
G1 X157.155 Y100.743 E11.2814
G1 X157.399 Y103.094 E11.32268
G1 X157.435 Y103.799 E11.335
G1 X157.435 Y106.199 E11.37691
G1 X157.398 Y106.905 E11.38926
G1 X157.152 Y109.27 E11.43078
G1 X157.045 Y109.958 E11.44293
G1 X156.559 Y112.288 E11.48449
G1 X156.379 Y112.972 E11.49684
G1 X155.66 Y115.221 E11.53807
G1 X155.647 Y115.217 E11.53831
G1 X155.408 Y115.892 E11.55082
G1 X154.449 Y118.082 E11.59256
G1 X154.137 Y118.705 E11.60473
G1 X152.965 Y120.776 E11.64628
G1 X152.587 Y121.371 E11.65859
G1 X151.21 Y123.307 E11.70007
G1 X150.774 Y123.857 E11.71233
G1 X149.196 Y125.652 E11.75406
G1 X148.705 Y126.156 E11.76635
G1 X146.956 Y127.774 E11.80795
G1 X146.419 Y128.222 E11.82016
G1 X144.521 Y129.647 E11.86161
G1 X143.938 Y130.039 E11.87388
G1 X141.906 Y131.26 E11.91527
G1 X141.277 Y131.595 E11.92771
G1 X139.104 Y132.609 E11.96959
G1 X138.458 Y132.871 E11.98176
G1 X136.219 Y133.649 E12.02315
G1 X135.55 Y133.844 E12.03532
G1 X133.229 Y134.393 E12.07696
G1 X132.532 Y134.52 E12.08933
G1 X130.169 Y134.825 E12.13094
G1 X129.47 Y134.879 E12.14318
G1 X127.095 Y134.94 E12.18466
G1 X126.395 Y134.922 E12.19689
G1 X124.021 Y134.739 E12.23847
G1 X123.318 Y134.648 E12.25085
G1 X120.972 Y134.219 E12.29249
G1 X120.289 Y134.057 E12.30475
G1 X118.005 Y133.391 E12.34629
G1 X117.347 Y133.162 E12.35846
G1 X115.132 Y132.262 E12.4002
G1 X114.493 Y131.963 E12.41252
G1 X112.403 Y130.85 E12.45387
G1 X111.8 Y130.488 E12.46615
G1 X109.817 Y129.153 E12.50789
G1 X109.253 Y128.729 E12.52021
G1 X107.427 Y127.204 E12.56176
G1 X106.912 Y126.727 E12.57401
G1 X105.249 Y125.019 E12.61564
G1 X104.787 Y124.493 E12.62786
G1 X103.311 Y122.628 E12.6694
G1 X102.902 Y122.053 E12.68172
G1 X101.63 Y120.051 E12.72313
G1 X101.286 Y119.442 E12.73535
G1 X100.216 Y117.301 E12.77714
G1 X99.934 Y116.654 E12.78947
G1 X99.098 Y114.433 E12.8309
G1 X98.886 Y113.771 E12.84304
G1 X98.281 Y111.479 E12.88443
G1 X98.136 Y110.787 E12.89678
G1 X97.767 Y108.416 E12.93868
G1 X97.695 Y107.714 E12.951
G1 X97.574 Y105.342 E12.99248
G1 X97.574 Y104.645 E13.00465
G1 X97.695 Y102.285 E13.04591
G1 X97.767 Y101.583 E13.05823
G1 X98.137 Y99.208 E13.1002
G1 X98.283 Y98.515 E13.11257
G1 X98.891 Y96.215 E13.15411
G1 X99.101 Y95.556 E13.16619
G1 X99.932 Y93.347 E13.2074
G1 X100.217 Y92.694 E13.21984
G1 X101.295 Y90.541 E13.26188
G1 X101.64 Y89.933 E13.27409
G1 X102.912 Y87.934 E13.31546
G1 X103.319 Y87.362 E13.32772
G1 X104.796 Y85.496 E13.36928
G0 F6000 X105.07 Y85.713
G1 F240 X105.513 Y85.21 E13.38098
G1 X107.178 Y83.504 E13.42261
G1 X107.663 Y83.055 E13.43415
G1 X109.49 Y81.53 E13.4757
G1 X110.025 Y81.129 E13.48738
G1 X111.996 Y79.803 E13.52886
G1 X112.568 Y79.459 E13.54051
G1 X114.671 Y78.34 E13.58211
G1 X115.277 Y78.057 E13.59379
G1 X117.491 Y77.158 E13.63552
G1 X118.119 Y76.94 E13.64712
G1 X120.406 Y76.275 E13.68871
G1 X121.052 Y76.122 E13.7003
G1 X123.388 Y75.696 E13.74177
G1 X124.054 Y75.61 E13.75349
G1 X126.436 Y75.427 E13.79521
G1 X127.099 Y75.41 E13.80679
G1 X129.463 Y75.471 E13.84808
G1 X130.125 Y75.522 E13.85968
G1 X132.487 Y75.827 E13.90126
G1 X133.151 Y75.948 E13.91305
G1 X135.485 Y76.501 E13.95493
G1 X136.118 Y76.686 E13.96645
