;FLAVOR:Marlin
;TIME:21453
;Filament used: 4.08455m
;Layer height: 0.1
;MINX:89.511
;MINY:67.011
;MINZ:0.12
;MAXX:165.489
;MAXY:142.989
;MAXZ:30.02
;Generated with Cura_SteamEngine master
M140 S60
M105
M190 S60
M104 S210
M105
M109 S210
M82 ;absolute extrusion mode
M220 S100 ;reset feedrate
M221 S100 ;reset flowrate
G90 ;use absolute coordinates
M82 ;absolute extrusion mode
G28 ;home
G1 Z2 F1500 ;raise z
G92 E0 ;reset extruder

G1 X75 Y5 F5000 ;start position
G1 Z0.28 F1500 ;lower z
G1 E4 F500 ;prime the filament
G1 X180 E10 F500 ;1st line
G1 Y5.4 F5000
G1 X75 E20 F500 ;2nd line
G1 Z2 F1500 ;raise z
G92 E0 ;reset extruder
G92 E0
G92 E0
G1 F1500 E-6.5
;LAYER_COUNT:300
;LAYER:0
M107
G0 F6000 X98.999 Y79.878 Z0.12
;TYPE:SKIRT
G1 F1500 E0
G1 F1050 X99.553 Y79.264 E0.01444
G1 X101.78 Y77.039 E0.06941
G1 X102.389 Y76.491 E0.08372
G1 X104.828 Y74.515 E0.13853
G1 X105.494 Y74.03 E0.15291
G1 X108.152 Y72.303 E0.20826
G1 X108.871 Y71.889 E0.22275
G1 X111.671 Y70.464 E0.27761
G1 X112.419 Y70.131 E0.29191
G1 X115.374 Y68.996 E0.34718
G1 X116.16 Y68.74 E0.36162
G1 X119.199 Y67.926 E0.41655
G1 X120.004 Y67.755 E0.43092
G1 X123.115 Y67.262 E0.48592
G1 X123.937 Y67.176 E0.50036
G1 X127.095 Y67.011 E0.55557
G1 X127.922 Y67.011 E0.57001
G1 X131.082 Y67.178 E0.62527
G1 X131.899 Y67.264 E0.63962
G1 X134.996 Y67.755 E0.69437
G1 X135.802 Y67.927 E0.70876
G1 X138.853 Y68.745 E0.76392
G1 X139.635 Y68.999 E0.77827
G1 X142.575 Y70.127 E0.83326
G1 X143.332 Y70.464 E0.84773
G1 X146.144 Y71.898 E0.90285
G1 X146.857 Y72.31 E0.91723
G1 X149.504 Y74.03 E0.97235
G1 X150.17 Y74.513 E0.98671
G1 X152.622 Y76.499 E1.04181
G1 X153.236 Y77.053 E1.05625
G1 X155.461 Y79.28 E1.11122
G1 X156.009 Y79.889 E1.12553
G1 X157.985 Y82.328 E1.18034
G1 X158.47 Y82.995 E1.19474
G1 X160.2 Y85.658 E1.25019
G1 X160.615 Y86.377 E1.26469
G1 X162.037 Y89.172 E1.31945
G1 X162.369 Y89.919 E1.33372
G1 X163.504 Y92.874 E1.38899
G1 X163.76 Y93.661 E1.40344
G1 X164.574 Y96.701 E1.4584
G1 X164.745 Y97.504 E1.47273
G1 X165.238 Y100.612 E1.52768
G1 X165.324 Y101.435 E1.54213
G1 X165.489 Y104.595 E1.59739
G1 X165.489 Y105.422 E1.61183
G1 X165.322 Y108.581 E1.66706
G1 X165.236 Y109.398 E1.68141
G1 X164.745 Y112.495 E1.73616
G1 X164.574 Y113.301 E1.75055
G1 X163.756 Y116.353 E1.80572
G1 X163.501 Y117.136 E1.8201
G1 X162.373 Y120.075 E1.87507
G1 X162.037 Y120.829 E1.88949
G1 X160.605 Y123.639 E1.94456
G1 X160.192 Y124.354 E1.95898
G1 X158.47 Y127.004 E2.01416
G1 X157.987 Y127.67 E2.02853
G1 X156.001 Y130.122 E2.08363
G1 X155.447 Y130.736 E2.09807
G1 X153.22 Y132.961 E2.15304
G1 X152.611 Y133.509 E2.16734
G1 X150.172 Y135.485 E2.22215
G1 X149.506 Y135.97 E2.23654
G1 X146.848 Y137.697 E2.29189
G1 X146.129 Y138.111 E2.30638
G1 X143.329 Y139.536 E2.36124
G1 X142.581 Y139.869 E2.37553
G1 X139.626 Y141.004 E2.43081
G1 X138.84 Y141.26 E2.44524
G1 X135.801 Y142.074 E2.50018
G1 X134.996 Y142.245 E2.51455
G1 X131.885 Y142.738 E2.56955
G1 X131.063 Y142.824 E2.58398
G1 X127.905 Y142.989 E2.6392
G1 X127.078 Y142.989 E2.65364
G1 X123.918 Y142.822 E2.7089
G1 X123.101 Y142.736 E2.72324
G1 X120.004 Y142.245 E2.77799
G1 X119.198 Y142.073 E2.79239
G1 X116.147 Y141.255 E2.84754
G1 X115.365 Y141.001 E2.8619
G1 X112.425 Y139.873 E2.91689
G1 X111.668 Y139.536 E2.93135
G1 X108.854 Y138.101 E2.98651
G1 X108.141 Y137.689 E3.00089
G1 X105.496 Y135.97 E3.05597
G1 X104.83 Y135.487 E3.07034
G1 X102.378 Y133.501 E3.12544
G1 X101.764 Y132.947 E3.13988
G1 X99.539 Y130.72 E3.19485
G1 X98.991 Y130.112 E3.20914
G1 X97.014 Y127.672 E3.26398
G1 X96.529 Y127.004 E3.27839
G1 X94.8 Y124.342 E3.33382
G1 X94.385 Y123.622 E3.34833
G1 X92.962 Y120.824 E3.40314
G1 X92.63 Y120.078 E3.4174
G1 X91.496 Y117.126 E3.47262
G1 X91.24 Y116.339 E3.48707
G1 X90.426 Y113.299 E3.54202
G1 X90.255 Y112.495 E3.55638
G1 X89.762 Y109.384 E3.61138
G1 X89.676 Y108.562 E3.62581
G1 X89.511 Y105.405 E3.68101
G1 X89.511 Y104.578 E3.69545
G1 X89.678 Y101.418 E3.75071
G1 X89.764 Y100.601 E3.76505
G1 X90.255 Y97.505 E3.81979
G1 X90.426 Y96.699 E3.83418
G1 X91.244 Y93.647 E3.88935
G1 X91.499 Y92.865 E3.90371
G1 X92.627 Y89.925 E3.9587
G1 X92.963 Y89.169 E3.97314
G1 X94.395 Y86.36 E4.0282
G1 X94.808 Y85.646 E4.0426
G1 X96.53 Y82.996 E4.09779
G1 X97.013 Y82.33 E4.11215
G1 X98.999 Y79.878 E4.16725
G0 F6000 X99.271 Y80.099
G1 F1050 X99.8 Y79.512 E4.18105
G1 X102.027 Y77.287 E4.23602
G1 X102.609 Y76.763 E4.24969
G1 X105.048 Y74.787 E4.30451
G1 X105.685 Y74.324 E4.31826
G1 X108.343 Y72.597 E4.37361
G1 X109.03 Y72.201 E4.38745
G1 X111.83 Y70.776 E4.44231
G1 X112.545 Y70.457 E4.45598
G1 X115.5 Y69.322 E4.51126
G1 X116.251 Y69.078 E4.52505
G1 X119.29 Y68.264 E4.57998
G1 X120.059 Y68.101 E4.59371
G1 X123.17 Y67.608 E4.64871
G1 X123.955 Y67.525 E4.66249
G1 X127.113 Y67.36 E4.71771
G1 X127.903 Y67.36 E4.73151
G1 X131.063 Y67.527 E4.78676
G1 X131.844 Y67.61 E4.80048
G1 X134.941 Y68.101 E4.85523
G1 X135.712 Y68.265 E4.86899
G1 X138.763 Y69.083 E4.92415
G1 X139.51 Y69.325 E4.93786
G1 X142.45 Y70.453 E4.99285
G1 X143.173 Y70.775 E5.00667
G1 X145.985 Y72.209 E5.06179
G1 X146.666 Y72.603 E5.07552
G1 X149.313 Y74.323 E5.13065
G1 X149.949 Y74.785 E5.14437
G1 X152.401 Y76.771 E5.19947
G1 X152.988 Y77.3 E5.21327
G1 X155.213 Y79.527 E5.26824
G1 X155.737 Y80.109 E5.28191
G1 X157.713 Y82.548 E5.33672
G1 X158.176 Y83.186 E5.35049
G1 X159.906 Y85.849 E5.40594
G1 X160.303 Y86.536 E5.4198
G1 X161.725 Y89.331 E5.47455
G1 X162.043 Y90.045 E5.4882
G1 X163.178 Y93 E5.54348
G1 X163.422 Y93.752 E5.55728
G1 X164.236 Y96.792 E5.61223
G1 X164.399 Y97.559 E5.62593
G1 X164.892 Y100.667 E5.68088
G1 X164.975 Y101.454 E5.69469
G1 X165.14 Y104.614 E5.74995
G1 X165.14 Y105.403 E5.76373
G1 X164.973 Y108.562 E5.81896
G1 X164.89 Y109.343 E5.83268
G1 X164.399 Y112.44 E5.88743
G1 X164.235 Y113.21 E5.90118
G1 X163.417 Y116.262 E5.95635
G1 X163.174 Y117.01 E5.97009
G1 X162.046 Y119.949 E6.02506
G1 X161.726 Y120.67 E6.03883
G1 X160.294 Y123.48 E6.0939
G1 X159.899 Y124.163 E6.10768
G1 X158.177 Y126.813 E6.16286
G1 X157.715 Y127.449 E6.17659
G1 X155.729 Y129.901 E6.23169
G1 X155.2 Y130.488 E6.24548
G1 X152.973 Y132.713 E6.30045
G1 X152.391 Y133.237 E6.31413
G1 X149.952 Y135.213 E6.36894
G1 X149.315 Y135.676 E6.38269
G1 X146.657 Y137.403 E6.43804
G1 X145.97 Y137.799 E6.45189
G1 X143.17 Y139.224 E6.50675
G1 X142.455 Y139.543 E6.52042
G1 X139.5 Y140.678 E6.57569
G1 X138.749 Y140.922 E6.58948
G1 X135.71 Y141.736 E6.64442
G1 X134.941 Y141.899 E6.65814
G1 X131.83 Y142.392 E6.71314
G1 X131.045 Y142.475 E6.72693
G1 X127.887 Y142.64 E6.78215
G1 X127.097 Y142.64 E6.79594
G1 X123.937 Y142.473 E6.8512
G1 X123.156 Y142.39 E6.86491
G1 X120.059 Y141.899 E6.91967
G1 X119.288 Y141.735 E6.93343
G1 X116.237 Y140.917 E6.98859
G1 X115.49 Y140.675 E7.0023
G1 X112.55 Y139.547 E7.05728
G1 X111.827 Y139.225 E7.0711
G1 X109.013 Y137.79 E7.12626
G1 X108.331 Y137.396 E7.14001
G1 X105.686 Y135.677 E7.1951
G1 X105.051 Y135.215 E7.20881
G1 X102.599 Y133.229 E7.26391
G1 X102.012 Y132.7 E7.27771
G1 X99.787 Y130.473 E7.33268
G1 X99.263 Y129.891 E7.34635
G1 X97.286 Y127.451 E7.40119
G1 X96.822 Y126.813 E7.41496
G1 X95.093 Y124.151 E7.47039
G1 X94.697 Y123.463 E7.48425
G1 X93.274 Y120.665 E7.53906
G1 X92.956 Y119.952 E7.55269
G1 X91.822 Y117 E7.60791
G1 X91.578 Y116.248 E7.62172
G1 X90.764 Y113.208 E7.67667
G1 X90.601 Y112.44 E7.69038
G1 X90.108 Y109.329 E7.74538
G1 X90.025 Y108.544 E7.75917
G1 X89.86 Y105.387 E7.81437
G1 X89.86 Y104.597 E7.82816
G1 X90.027 Y101.437 E7.88342
G1 X90.11 Y100.655 E7.89715
G1 X90.601 Y97.559 E7.95189
G1 X90.765 Y96.79 E7.96562
G1 X91.583 Y93.738 E8.02079
G1 X91.825 Y92.99 E8.03452
G1 X92.953 Y90.05 E8.0895
G1 X93.275 Y89.328 E8.10331
G1 X94.707 Y86.519 E8.15836
G1 X95.101 Y85.837 E8.17212
G1 X96.823 Y83.187 E8.2273
G1 X97.285 Y82.551 E8.24103
G1 X99.271 Y80.099 E8.29613
G0 F6000 X99.543 Y80.319
G1 F1050 X100.048 Y79.759 E8.30929
G1 X102.275 Y77.534 E8.36426
G1 X102.829 Y77.035 E8.37728
G1 X105.268 Y75.059 E8.43209
G1 X105.876 Y74.617 E8.44522
G1 X108.534 Y72.89 E8.50057
G1 X109.189 Y72.512 E8.51377
G1 X111.989 Y71.087 E8.56863
G1 X112.67 Y70.784 E8.58165
G1 X115.625 Y69.649 E8.63692
G1 X116.342 Y69.416 E8.65009
G1 X119.381 Y68.602 E8.70502
G1 X120.114 Y68.446 E8.71811
G1 X123.225 Y67.953 E8.77311
G1 X123.974 Y67.875 E8.78626
G1 X127.132 Y67.71 E8.84148
G1 X127.885 Y67.71 E8.85463
G1 X131.045 Y67.877 E8.90988
G1 X131.789 Y67.956 E8.92295
G1 X134.886 Y68.447 E8.9777
G1 X135.621 Y68.603 E8.99082
G1 X138.672 Y69.421 E9.04598
G1 X139.384 Y69.652 E9.05905
G1 X142.324 Y70.78 E9.11403
G1 X143.014 Y71.087 E9.12722
G1 X145.826 Y72.521 E9.18234
G1 X146.475 Y72.897 E9.19544
G1 X149.122 Y74.617 E9.25056
G1 X149.729 Y75.057 E9.26365
G1 X152.181 Y77.043 E9.31875
G1 X152.741 Y77.548 E9.33192
G1 X154.966 Y79.775 E9.38688
G1 X155.465 Y80.329 E9.3999
G1 X157.441 Y82.768 E9.45472
G1 X157.883 Y83.376 E9.46784
G1 X159.613 Y86.039 E9.52329
G1 X159.991 Y86.694 E9.5365
G1 X161.413 Y89.489 E9.59126
G1 X161.716 Y90.17 E9.60427
G1 X162.851 Y93.125 E9.65955
G1 X163.084 Y93.842 E9.67271
G1 X163.898 Y96.882 E9.72766
G1 X164.053 Y97.614 E9.74073
G1 X164.546 Y100.722 E9.79568
G1 X164.625 Y101.472 E9.80885
G1 X164.79 Y104.632 E9.8641
G1 X164.79 Y105.385 E9.87725
G1 X164.623 Y108.544 E9.93249
G1 X164.544 Y109.288 E9.94555
G1 X164.053 Y112.385 E10.0003
G1 X163.897 Y113.119 E10.01341
G1 X163.079 Y116.171 E10.06858
G1 X162.848 Y116.885 E10.08169
G1 X161.72 Y119.824 E10.13666
G1 X161.414 Y120.511 E10.14979
G1 X159.982 Y123.321 E10.20486
G1 X159.605 Y123.972 E10.21799
G1 X157.883 Y126.622 E10.27318
G1 X157.443 Y127.229 E10.28627
G1 X155.457 Y129.681 E10.34137
G1 X154.952 Y130.241 E10.35454
G1 X152.725 Y132.466 E10.40951
G1 X152.171 Y132.965 E10.42252
G1 X149.732 Y134.941 E10.47734
G1 X149.124 Y135.383 E10.49046
G1 X146.466 Y137.11 E10.54581
G1 X145.811 Y137.488 E10.55902
G1 X143.011 Y138.913 E10.61388
G1 X142.33 Y139.216 E10.62689
G1 X139.375 Y140.351 E10.68217
G1 X138.658 Y140.584 E10.69533
G1 X135.619 Y141.398 E10.75027
G1 X134.886 Y141.554 E10.76335
G1 X131.775 Y142.047 E10.81835
G1 X131.026 Y142.125 E10.8315
G1 X127.868 Y142.29 E10.88672
G1 X127.115 Y142.29 E10.89987
G1 X123.955 Y142.123 E10.95513
G1 X123.211 Y142.044 E10.96819
G1 X120.114 Y141.553 E11.02294
G1 X119.379 Y141.397 E11.03606
G1 X116.328 Y140.579 E11.09122
G1 X115.616 Y140.348 E11.10429
G1 X112.676 Y139.22 E11.15928
G1 X111.986 Y138.913 E11.17246
G1 X109.172 Y137.478 E11.22762
G1 X108.522 Y137.102 E11.24073
G1 X105.877 Y135.383 E11.29582
G1 X105.271 Y134.943 E11.30889
G1 X102.819 Y132.957 E11.36399
G1 X102.259 Y132.452 E11.37716
G1 X100.034 Y130.225 E11.43213
G1 X99.535 Y129.671 E11.44515
G1 X97.558 Y127.231 E11.49998
G1 X97.116 Y126.622 E11.51312
G1 X95.387 Y123.96 E11.56855
G1 X95.009 Y123.305 E11.58176
G1 X93.586 Y120.507 E11.63657
G1 X93.283 Y119.827 E11.64957
G1 X92.149 Y116.875 E11.70479
G1 X91.916 Y116.158 E11.71795
G1 X91.102 Y113.118 E11.77291
G1 X90.946 Y112.385 E11.78599
G1 X90.453 Y109.274 E11.84099
G1 X90.375 Y108.525 E11.85414
G1 X90.21 Y105.368 E11.90934
G1 X90.21 Y104.615 E11.92249
G1 X90.377 Y101.455 E11.97775
G1 X90.456 Y100.71 E11.99083
G1 X90.947 Y97.614 E12.04557
G1 X91.103 Y96.881 E12.05865
G1 X91.921 Y93.829 E12.11383
G1 X92.152 Y93.116 E12.12691
G1 X93.28 Y90.176 E12.1819
G1 X93.587 Y89.487 E12.19507
G1 X95.019 Y86.678 E12.25013
G1 X95.395 Y86.028 E12.26324
G1 X97.117 Y83.378 E12.31842
G1 X97.557 Y82.771 E12.33151
G1 X99.543 Y80.319 E12.38661
G0 F6000 X99.815 Y80.539
G1 F1050 X100.295 Y80.007 E12.39912
G1 X102.522 Y77.782 E12.45409
G1 X103.05 Y77.307 E12.46649
G1 X105.489 Y75.331 E12.52131
G1 X106.067 Y74.911 E12.53378
G1 X108.725 Y73.184 E12.58913
G1 X109.347 Y72.824 E12.60168
G1 X112.147 Y71.399 E12.65654
G1 X112.796 Y71.111 E12.66894
G1 X115.751 Y69.976 E12.72421
G1 X116.432 Y69.754 E12.73672
G1 X119.471 Y68.94 E12.79166
G1 X120.169 Y68.792 E12.80412
G1 X123.28 Y68.299 E12.85912
G1 X123.992 Y68.224 E12.87162
G1 X127.15 Y68.059 E12.92684
G1 X127.866 Y68.06 E12.93934
G1 X131.026 Y68.227 E12.99459
G1 X131.735 Y68.301 E13.00704
G1 X134.832 Y68.792 E13.0618
G1 X135.53 Y68.941 E13.07426
G1 X138.581 Y69.759 E13.12942
G1 X139.259 Y69.979 E13.14186
G1 X142.199 Y71.107 E13.19685
G1 X142.855 Y71.399 E13.20939
G1 X145.667 Y72.833 E13.2645
G1 X146.285 Y73.19 E13.27697
G1 X148.932 Y74.91 E13.33209
G1 X149.509 Y75.329 E13.34454
G1 X151.961 Y77.315 E13.39964
G1 X152.493 Y77.795 E13.41215
G1 X154.718 Y80.022 E13.46712
G1 X155.193 Y80.55 E13.47952
G1 X157.169 Y82.989 E13.53433
G1 X157.589 Y83.567 E13.54681
G1 X159.319 Y86.23 E13.60226
G1 X159.679 Y86.853 E13.61482
G1 X161.101 Y89.648 E13.66958
G1 X161.389 Y90.296 E13.68196
G1 X162.524 Y93.251 E13.73724
G1 X162.746 Y93.933 E13.74976
G1 X163.56 Y96.973 E13.80472
G1 X163.708 Y97.669 E13.81714
G1 X164.201 Y100.777 E13.87209
G1 X164.276 Y101.49 E13.88461
G1 X164.441 Y104.65 E13.93986
G1 X164.44 Y105.366 E13.95237
G1 X164.273 Y108.525 E14.0076
G1 X164.199 Y109.234 E14.02005
G1 X163.708 Y112.331 E14.0748
G1 X163.559 Y113.029 E14.08727
G1 X162.741 Y116.081 E14.14244
G1 X162.521 Y116.76 E14.1549
G1 X161.393 Y119.699 E14.20987
G1 X161.102 Y120.352 E14.22236
G1 X159.67 Y123.162 E14.27743
G1 X159.312 Y123.782 E14.28993
G1 X157.59 Y126.432 E14.34511
G1 X157.171 Y127.009 E14.35757
G1 X155.185 Y129.461 E14.41266
G1 X154.705 Y129.993 E14.42518
G1 X152.478 Y132.218 E14.48015
G1 X151.95 Y132.693 E14.49255
G1 X149.511 Y134.669 E14.54736
G1 X148.933 Y135.089 E14.55983
G1 X146.275 Y136.816 E14.61518
G1 X145.653 Y137.176 E14.62773
G1 X142.853 Y138.601 E14.68259
G1 X142.204 Y138.889 E14.69499
G1 X139.249 Y140.024 E14.75027
G1 X138.568 Y140.246 E14.76277
G1 X135.529 Y141.06 E14.81771
G1 X134.831 Y141.208 E14.83017
G1 X131.72 Y141.701 E14.88517
G1 X131.008 Y141.776 E14.89767
G1 X127.85 Y141.941 E14.95289
G1 X127.134 Y141.94 E14.96539
G1 X123.974 Y141.773 E15.02065
G1 X123.265 Y141.699 E15.0331
G1 X120.168 Y141.208 E15.08785
G1 X119.47 Y141.059 E15.10031
G1 X116.419 Y140.241 E15.15547
G1 X115.741 Y140.021 E15.16792
G1 X112.801 Y138.893 E15.2229
G1 X112.145 Y138.601 E15.23544
G1 X109.331 Y137.166 E15.2906
G1 X108.713 Y136.809 E15.30306
G1 X106.068 Y135.09 E15.35814
G1 X105.491 Y134.671 E15.37059
G1 X103.039 Y132.685 E15.42569
G1 X102.507 Y132.205 E15.4382
G1 X100.282 Y129.978 E15.49317
G1 X99.807 Y129.451 E15.50556
G1 X97.83 Y127.011 E15.5604
G1 X97.409 Y126.432 E15.5729
G1 X95.68 Y123.77 E15.62833
G1 X95.321 Y123.146 E15.6409
G1 X93.898 Y120.348 E15.69571
G1 X93.61 Y119.701 E15.70808
G1 X92.476 Y116.749 E15.76329
G1 X92.254 Y116.067 E15.77582
G1 X91.44 Y113.027 E15.83077
G1 X91.292 Y112.33 E15.84321
G1 X90.799 Y109.219 E15.89821
G1 X90.724 Y108.507 E15.91072
G1 X90.559 Y105.35 E15.96592
G1 X90.56 Y104.634 E15.97842
G1 X90.727 Y101.474 E16.03368
G1 X90.801 Y100.765 E16.04612
G1 X91.292 Y97.669 E16.10086
G1 X91.441 Y96.971 E16.11332
G1 X92.259 Y93.919 E16.1685
G1 X92.479 Y93.241 E16.18094
G1 X93.607 Y90.301 E16.23593
G1 X93.899 Y89.646 E16.24845
G1 X95.331 Y86.837 E16.30351
G1 X95.688 Y86.218 E16.31598
G1 X97.41 Y83.568 E16.37117
G1 X97.829 Y82.991 E16.38362
G1 X99.815 Y80.539 E16.43872
G0 F6000 X100.087 Y80.76
G1 F1050 X100.543 Y80.254 E16.45061
G1 X102.77 Y78.029 E16.50558
G1 X103.27 Y77.579 E16.51733
G1 X105.709 Y75.603 E16.57214
G1 X106.257 Y75.204 E16.58398
G1 X108.915 Y73.477 E16.63933
G1 X109.506 Y73.136 E16.65124
G1 X112.306 Y71.711 E16.7061
G1 X112.921 Y71.438 E16.71785
G1 X115.876 Y70.303 E16.77312
G1 X116.523 Y70.092 E16.78501
G1 X119.562 Y69.278 E16.83994
G1 X120.224 Y69.138 E16.85176
G1 X123.335 Y68.645 E16.90676
G1 X124.01 Y68.574 E16.91861
G1 X127.168 Y68.409 E16.97383
G1 X127.848 Y68.409 E16.9857
G1 X131.008 Y68.576 E17.04096
G1 X131.68 Y68.647 E17.05276
G1 X134.777 Y69.138 E17.10751
G1 X135.44 Y69.279 E17.11935
G1 X138.491 Y70.097 E17.1745
G1 X139.133 Y70.306 E17.18629
G1 X142.073 Y71.434 E17.24128
G1 X142.696 Y71.711 E17.25319
G1 X145.508 Y73.145 E17.3083
G1 X146.094 Y73.484 E17.32012
G1 X148.741 Y75.204 E17.37525
G1 X149.288 Y75.601 E17.38705
G1 X151.74 Y77.587 E17.44215
G1 X152.246 Y78.043 E17.45404
G1 X154.471 Y80.27 E17.50901
G1 X154.921 Y80.77 E17.52076
G1 X156.897 Y83.209 E17.57557
G1 X157.296 Y83.758 E17.58742
