;FLAVOR:Marlin
;TIME:12109
;Filament used: 2.2611m
;Layer height: 0.1
;MINX:88.851
;MINY:66.358
;MINZ:0.144
;MAXX:166.149
;MAXY:143.657
;MAXZ:16.664
;Generated with Cura_SteamEngine master
M140 S60
M105
M190 S60
M104 S210
M105
M109 S210
M82 ;absolute extrusion mode
M220 S100 ;reset feedrate
M221 S100 ;reset flowrate
G90 ;use absolute coordinates
M82 ;absolute extrusion mode
G28 ;home
G1 Z2 F1500 ;raise z
G92 E0 ;reset extruder

G1 X75 Y5 F5000 ;start position
G1 Z0.28 F1500 ;lower z
G1 E4 F500 ;prime the filament
G1 X180 E10 F500 ;1st line
G1 Y5.4 F5000
G1 X75 E20 F500 ;2nd line
G1 Z2 F1500 ;raise z
G92 E0 ;reset extruder
G92 E0
G92 E0
G1 F1500 E-6.5
;LAYER_COUNT:160
;LAYER:-7
M107
G0 F9000 X98.668 Y80.67 Z0.144
;TYPE:SUPPORT-INTERFACE
G1 F1500 E0
G1 F675 X98.777 Y80.541 E0.00506
G1 X99.617 Y79.591 E0.04302
G1 X99.735 Y79.463 E0.04823
G1 X101.447 Y77.707 E0.12164
G1 X102.472 Y76.771 E0.16319
G1 X104.179 Y75.345 E0.22977
G1 X104.304 Y75.247 E0.23452
G1 X105.455 Y74.386 E0.27755
G1 X105.609 Y74.276 E0.28322
G1 X107.48 Y73.019 E0.35069
G1 X108.065 Y72.648 E0.37143
G1 X108.728 Y72.271 E0.39426
G1 X110.86 Y71.135 E0.46657
G1 X111.196 Y70.965 E0.47784
G1 X112.189 Y70.515 E0.51048
G1 X114.367 Y69.629 E0.58086
G1 X114.438 Y69.601 E0.58315
G1 X115.231 Y69.309 E0.60844
G1 X115.35 Y69.267 E0.61222
G1 X115.88 Y69.103 E0.62883
G1 X118.03 Y68.476 E0.69587
G1 X118.169 Y68.438 E0.70018
G1 X119.079 Y68.208 E0.72828
G1 X119.221 Y68.178 E0.73262
G1 X119.534 Y68.118 E0.74216
G1 X119.656 Y68.092 E0.74589
G1 X121.854 Y67.69 E0.81278
G1 X122.848 Y67.544 E0.84285
G1 X123.167 Y67.515 E0.85244
G1 X123.535 Y67.476 E0.86352
G1 X125.718 Y67.308 E0.92906
G1 X125.85 Y67.3 E0.93302
G1 X126.962 Y67.258 E0.96633
G1 X127.312 Y67.263 E0.97681
G1 X129.603 Y67.322 E1.04541
G1 X130.672 Y67.387 E1.07747
G1 X130.814 Y67.4 E1.08174
G1 X131.188 Y67.445 E1.09301
G1 X131.255 Y67.45 E1.09502
G1 X133.564 Y67.75 E1.16472
G1 X134.509 Y67.908 E1.1934
G1 X135.046 Y68.026 E1.20986
G1 X135.133 Y68.042 E1.21251
G1 X137.295 Y68.552 E1.279
G1 X138.562 Y68.911 E1.31842
G1 X138.798 Y68.989 E1.32586
G1 X140.879 Y69.713 E1.39182
G1 X141.023 Y69.769 E1.39644
G1 X141.79 Y70.056 E1.42096
G1 X141.916 Y70.107 E1.42503
G1 X142.486 Y70.36 E1.44369
G1 X144.591 Y71.345 E1.51326
G1 X144.892 Y71.491 E1.52328
G1 X144.974 Y71.534 E1.52605
G1 X145.982 Y72.091 E1.56052
G1 X147.872 Y73.225 E1.6265
G1 X147.979 Y73.292 E1.63028
G1 X148.776 Y73.81 E1.65873
G1 X148.905 Y73.901 E1.66346
G1 X149.138 Y74.076 E1.67218
G1 X149.285 Y74.178 E1.67754
G1 X151.118 Y75.554 E1.74614
G1 X151.406 Y75.776 E1.75703
G1 X151.49 Y75.845 E1.76028
G1 X152.198 Y76.454 E1.78824
G1 X152.329 Y76.572 E1.79352
G1 X154.038 Y78.154 E1.86323
G1 X154.397 Y78.499 E1.87813
G1 X155.054 Y79.198 E1.90685
G1 X156.628 Y80.989 E1.97822
G1 X157.088 Y81.539 E1.99968
G1 X157.577 Y82.186 E2.02396
G1 X158.938 Y84.1 E2.09426
G1 X159.488 Y84.938 E2.12427
G1 X159.727 Y85.349 E2.1385
G1 X159.812 Y85.487 E2.14335
G1 X160.933 Y87.468 E2.21149
G1 X161.289 Y88.139 E2.23422
G1 X161.623 Y88.856 E2.2579
G1 X162.518 Y90.902 E2.32475
G1 X162.575 Y91.042 E2.32928
G1 X163.014 Y92.181 E2.36582
G1 X163.092 Y92.412 E2.37311
G1 X163.76 Y94.507 E2.43894
G1 X163.802 Y94.657 E2.4436
G1 X164.039 Y95.465 E2.4688
G1 X164.068 Y95.579 E2.47233
G1 X164.199 Y96.141 E2.4896
G1 X164.684 Y98.472 E2.56087
G1 X164.787 Y99.02 E2.57756
G1 X164.801 Y99.11 E2.58029
G1 X164.913 Y99.942 E2.60542
G1 X165.148 Y102.21 E2.67367
G1 X165.159 Y102.344 E2.6777
G1 X165.231 Y103.745 E2.71969
G1 X165.235 Y103.868 E2.72337
G1 X165.235 Y106.124 E2.79091
G1 X165.231 Y106.25 E2.79468
G1 X165.159 Y107.656 E2.83682
G1 X165.148 Y107.79 E2.84085
G1 X164.914 Y110.051 E2.90889
G1 X164.802 Y110.885 E2.93408
G1 X164.787 Y110.98 E2.93696
G1 X164.671 Y111.595 E2.95569
G1 X164.192 Y113.89 E3.02587
G1 X163.953 Y114.858 E3.05572
G1 X163.927 Y114.951 E3.05861
G1 X163.805 Y115.343 E3.0709
G1 X163.789 Y115.403 E3.07276
G1 X163.093 Y117.585 E3.14131
G1 X163.017 Y117.811 E3.14845
G1 X162.575 Y118.958 E3.18525
G1 X162.518 Y119.098 E3.18977
G1 X161.588 Y121.221 E3.25915
G1 X161.281 Y121.877 E3.28083
G1 X160.92 Y122.555 E3.30383
G1 X159.772 Y124.582 E3.37356
G1 X159.549 Y124.959 E3.38667
G1 X158.956 Y125.871 E3.41923
G1 X157.583 Y127.805 E3.49023
G1 X157.051 Y128.507 E3.5166
G1 X156.632 Y129.007 E3.53612
G1 X155.056 Y130.8 E3.60758
G1 X154.397 Y131.501 E3.63638
G1 X154.04 Y131.844 E3.6512
G1 X152.329 Y133.428 E3.721
G1 X152.207 Y133.538 E3.72592
G1 X151.454 Y134.185 E3.75563
G1 X151.085 Y134.471 E3.76961
G1 X149.335 Y135.785 E3.83512
G1 X149.121 Y135.934 E3.84292
G1 X148.776 Y136.19 E3.85578
G1 X148.62 Y136.298 E3.86146
G1 X147.912 Y136.751 E3.88662
G1 X145.982 Y137.909 E3.954
G1 X144.979 Y138.463 E3.9883
G1 X144.887 Y138.511 E3.9914
G1 X144.565 Y138.667 E4.00211
G1 X142.409 Y139.675 E4.07335
G1 X141.524 Y140.05 E4.10213
G1 X141.349 Y140.119 E4.10776
G1 X140.966 Y140.257 E4.11994
G1 X138.668 Y141.055 E4.19276
G1 X138.562 Y141.089 E4.19609
G1 X137.295 Y141.448 E4.23551
G1 X135.127 Y141.959 E4.30219
G1 X134.858 Y142.014 E4.31041
G1 X134.559 Y142.081 E4.31958
G1 X133.498 Y142.26 E4.35179
G1 X131.347 Y142.538 E4.41671
G1 X131.153 Y142.554 E4.42254
G1 X130.339 Y142.642 E4.44705
G1 X129.722 Y142.673 E4.46554
G1 X127.311 Y142.737 E4.53774
G1 X126.962 Y142.742 E4.54819
G1 X125.852 Y142.7 E4.58144
G1 X125.711 Y142.693 E4.58566
G1 X123.563 Y142.525 E4.65016
G1 X123.415 Y142.512 E4.6546
G1 X121.948 Y142.324 E4.69888
G1 X121.852 Y142.31 E4.70178
G1 X119.741 Y141.924 E4.76602
G1 X119.539 Y141.879 E4.77221
G1 X118.799 Y141.727 E4.79483
G1 X118.701 Y141.704 E4.79784
G1 X118.146 Y141.557 E4.81503
G1 X115.791 Y140.871 E4.88845
G1 X115.341 Y140.729 E4.90258
G1 X115.231 Y140.691 E4.90606
G1 X114.438 Y140.399 E4.93136
G1 X112.26 Y139.515 E5.00172
G1 X112.189 Y139.485 E5.00403
G1 X111.134 Y139.006 E5.03871
G1 X110.826 Y138.847 E5.04909
G1 X108.729 Y137.729 E5.12022
G1 X108.102 Y137.373 E5.1418
G1 X107.986 Y137.302 E5.14588
G1 X107.402 Y136.929 E5.16662
G1 X105.62 Y135.73 E5.23091
G1 X105.387 Y135.563 E5.23949
G1 X104.314 Y134.761 E5.27959
G1 X104.184 Y134.659 E5.28454
G1 X102.472 Y133.229 E5.35131
G1 X101.494 Y132.339 E5.39089
G1 X101.292 Y132.134 E5.39951
G1 X99.735 Y130.537 E5.46627
G1 X99.617 Y130.409 E5.47149
G1 X98.782 Y129.464 E5.50923
G1 X98.653 Y129.31 E5.51525
G1 X97.311 Y127.616 E5.57994
G1 X97.175 Y127.434 E5.58674
G1 X96.34 Y126.265 E5.62974
G1 X96.284 Y126.182 E5.63274
G1 X95.056 Y124.25 E5.70127
G1 X94.874 Y123.954 E5.71167
G1 X94.326 Y122.961 E5.74562
G1 X93.286 Y120.885 E5.81512
G1 X93.221 Y120.746 E5.81972
G1 X92.659 Y119.458 E5.86178
G1 X92.601 Y119.317 E5.86635
G1 X91.793 Y117.167 E5.9351
G1 X91.62 Y116.679 E5.9506
G1 X91.334 Y115.721 E5.98053
G1 X90.754 Y113.528 E6.04843
G1 X90.516 Y112.471 E6.08086
G1 X90.492 Y112.342 E6.08479
G1 X90.416 Y111.894 E6.09839
G1 X90.094 Y109.834 E6.1608
G1 X89.958 Y108.781 E6.19259
G1 X89.94 Y108.594 E6.19821
G1 X89.911 Y108.18 E6.21063
G1 X89.897 Y107.951 E6.2175
G1 X89.783 Y105.696 E6.28509
G1 X89.765 Y105.003 E6.30584
G1 X89.783 Y104.304 E6.32677
G1 X89.901 Y101.961 E6.397
G1 X89.995 Y100.874 E6.42966
G1 X90.008 Y100.759 E6.43312
G1 X90.082 Y100.243 E6.44872
G1 X90.405 Y98.17 E6.51153
G1 X90.434 Y98.028 E6.51586
G1 X90.586 Y97.185 E6.54151
G1 X90.606 Y97.087 E6.5445
G1 X90.758 Y96.461 E6.56378
G1 X91.341 Y94.253 E6.63214
G1 X91.62 Y93.322 E6.66124
G1 X91.805 Y92.8 E6.67781
G1 X92.601 Y90.683 E6.74552
G1 X92.659 Y90.542 E6.75008
G1 X93.215 Y89.268 E6.79169
G1 X93.296 Y89.096 E6.79738
G1 X94.29 Y87.106 E6.86397
G1 X94.829 Y86.125 E6.89747
G1 X94.874 Y86.046 E6.9002
G1 X95.056 Y85.75 E6.9106
G1 X96.284 Y83.818 E6.97912
G1 X96.34 Y83.735 E6.98212
G1 X97.197 Y82.535 E7.02626
G1 X97.315 Y82.379 E7.03212
G1 X98.668 Y80.67 E7.09736
G0 F9000 X99 Y80.288
G1 F675 X99 Y129.71 E8.57677
G0 F9000 X100 Y130.808
G1 F675 X100 Y79.191 E10.12188
G0 F9000 X101 Y78.165
G1 F675 X101 Y131.834 E11.72841
G0 F9000 X102 Y132.799
G1 F675 X102 Y77.202 E13.39266
G0 F9000 X103 Y76.329
G1 F675 X103 Y133.67 E15.10911
G0 F9000 X104 Y134.505
G1 F675 X104 Y75.494 E16.87556
G0 F9000 X105 Y74.726
G1 F675 X105 Y135.273 E18.68798
G0 F9000 X106 Y135.985
G1 F675 X106 Y74.013 E20.54305
G0 F9000 X107 Y73.341
G1 F675 X107 Y136.658 E22.43839
G0 F9000 X108 Y137.31
G1 F675 X108 Y72.689 E24.37277
G0 F9000 X109 Y72.126
G1 F675 X109 Y137.873 E26.34084
G0 F9000 X110 Y138.406
G1 F675 X110 Y71.593 E28.34083
G0 F9000 X111 Y71.064
G1 F675 X111 Y138.936 E30.37252
G0 F9000 X112 Y139.399
G1 F675 X112 Y70.6 E32.43196
G0 F9000 X113 Y70.185
G1 F675 X113 Y139.815 E34.51627
G0 F9000 X114 Y140.221
G1 F675 X114 Y69.778 E36.62492
G0 F9000 X115 Y69.394
G1 F675 X115 Y140.605 E38.75656
G0 F9000 X116 Y140.931
G1 F675 X116 Y69.068 E40.90772
G0 F9000 X117 Y68.776
G1 F675 X117 Y141.223 E43.07635
G0 F9000 X118 Y141.514
G1 F675 X118 Y68.484 E45.26244
G0 F9000 X119 Y68.227
G1 F675 X119 Y141.768 E47.46383
G0 F9000 X120 Y141.971
G1 F675 X120 Y68.029 E49.67722
G0 F9000 X121 Y67.846
G1 F675 X121 Y142.154 E51.90156
G0 F9000 X122 Y142.33
G1 F675 X122 Y67.668 E54.1365
G0 F9000 X123 Y67.53
G1 F675 X123 Y142.458 E56.37941
G0 F9000 X124 Y142.559
G1 F675 X124 Y67.44 E58.62803
G0 F9000 X125 Y67.363
G1 F675 X125 Y142.637 E60.88129
G0 F9000 X126 Y142.705
G1 F675 X126 Y67.294 E63.13865
G0 F9000 X127 Y67.259
G1 F675 X127 Y142.742 E65.39817
G0 F9000 X128 Y142.719
G1 F675 X128 Y67.281 E67.65634
G0 F9000 X129 Y67.307
G1 F675 X129 Y142.693 E69.91295
G0 F9000 X130 Y142.66
G1 F675 X130 Y67.347 E72.16738
G0 F9000 X131 Y67.423
G1 F675 X131 Y142.571 E74.41687
G0 F9000 X132 Y142.454
G1 F675 X132 Y67.547 E76.65914
G0 F9000 X133 Y67.677
G1 F675 X133 Y142.325 E78.89367
G0 F9000 X134 Y142.176
G1 F675 X134 Y67.823 E81.11936
G0 F9000 X135 Y68.016
G1 F675 X135 Y141.985 E83.33356
G0 F9000 X136 Y141.754
G1 F675 X136 Y68.247 E85.53392
G0 F9000 X137 Y68.483
G1 F675 X137 Y141.518 E87.72016
G0 F9000 X138 Y141.249
G1 F675 X138 Y68.752 E89.8903
G0 F9000 X139 Y69.06
G1 F675 X139 Y140.94 E92.04196
G0 F9000 X140 Y140.593
G1 F675 X140 Y69.408 E94.17282
G0 F9000 X141 Y69.761
G1 F675 X141 Y140.245 E96.2827
G0 F9000 X142 Y139.849
G1 F675 X142 Y70.145 E98.36923
G0 F9000 X143 Y70.601
G1 F675 X143 Y139.399 E100.42863
G0 F9000 X144 Y138.932
G1 F675 X144 Y71.069 E102.46005
G0 F9000 X145 Y71.549
G1 F675 X145 Y138.452 E104.46273
G0 F9000 X146 Y137.899
G1 F675 X146 Y72.102 E106.43231
G0 F9000 X147 Y72.702
G1 F675 X147 Y137.299 E108.36596
G0 F9000 X148 Y136.695
G1 F675 X148 Y73.306 E110.26346
G0 F9000 X149 Y73.973
G1 F675 X149 Y136.024 E112.1209
G0 F9000 X150 Y135.286
G1 F675 X150 Y74.715 E113.93404
G0 F9000 X151 Y75.466
G1 F675 X151 Y134.535 E115.70222
G0 F9000 X152 Y133.716
G1 F675 X152 Y76.284 E117.4214
G0 F9000 X153 Y77.194
G1 F675 X153 Y132.807 E119.08612
G0 F9000 X154 Y131.882
G1 F675 X154 Y78.119 E120.69547
G0 F9000 X155 Y79.141
G1 F675 X155 Y130.86 E122.24363
G0 F9000 X156 Y129.727
G1 F675 X156 Y80.275 E123.72394
G0 F9000 X157 Y81.434
G1 F675 X157 Y128.568 E125.13485
G0 F9000 X158 Y127.218
G1 F675 X158 Y82.781 E126.46503
G0 F9000 X159 Y84.195
G1 F675 X159 Y125.804 E127.71056
G0 F9000 X160 Y124.18
G1 F675 X160 Y85.82 E128.85883
G0 F9000 X161 Y87.595
G1 F675 X161 Y122.405 E129.90084
G0 F9000 X162 Y120.281
G1 F675 X162 Y89.718 E130.81572
G0 F9000 X163 Y92.145
G1 F675 X163 Y117.856 E131.58535
G1 F1500 E125.08535
G0 F9000 X163.962 Y117.869
G0 X164.803 Y115.214
G0 X164 Y114.668
G1 F1500 E131.58535
G1 F675 X164 Y95.333 E132.16413
G1 F1500 E125.66413
G0 F9000 X164.957 Y95.364
G0 X165.632 Y98.62
G0 X165.909 Y100.688
G0 X165 Y100.782
G1 F1500 E132.16413
G1 F675 X165 Y109.221 E132.41674
G1 F1500 E125.91674
G0 F9000 X165.91 Y109.315
G0 X165.568 Y111.776
G0 X164.803 Y115.214
G0 X163.874 Y118.129
G0 X162.42 Y121.601
G0 X161.725 Y122.99
G0 X160.322 Y125.447
G0 X158.319 Y128.348
G0 X157.322 Y129.608
G0 X155.088 Y132.106
G0 X152.023 Y134.902
G0 X149.131 Y137.057
G0 X145.407 Y139.271
G0 X141.673 Y140.975
G0 X138.825 Y141.964
G0 X135.319 Y142.853
G0 X133.62 Y143.166
G0 X130.294 Y143.561
G0 X126.842 Y143.654
G0 X123.315 Y143.421
G0 X121.699 Y143.212
G0 X118.656 Y142.643
G0 X114.922 Y141.552
G0 X111.819 Y140.321
G0 X110.396 Y139.654
G0 X107.882 Y138.312
G0 X104.867 Y136.315
G0 X103.612 Y135.373
G0 X100.801 Y132.941
G0 X98.94 Y131.024
G0 X97.283 Y129.053
G0 X98 Y128.485
G1 F1500 E132.41674
G1 F675 X98 Y81.513 E133.82281
G0 F9000 X97 Y82.81
G1 F675 X97 Y127.189 E135.15126
G0 F9000 X96 Y125.735
G1 F675 X96 Y84.264 E136.39265
G0 F9000 X95 Y85.841
G1 F675 X95 Y124.158 E137.53964
G0 F9000 X94 Y122.31
G1 F675 X94 Y87.686 E138.57608
G0 F9000 X93 Y89.76
G1 F675 X93 Y120.239 E139.48844
G0 F9000 X92 Y117.717
G1 F675 X92 Y92.281 E140.24985
G1 F1500 E133.74985
G0 F9000 X90.945 Y92.489
G0 X90.115 Y95.311
G0 X91 Y95.544
G1 F1500 E140.24985
G1 F675 X91 Y114.458 E140.81602
G1 F1500 E134.31602
G0 F9000 X90.117 Y114.692
G0 X89.515 Y112.054
G0 X89.345 Y111.075
G0 X89.145 Y109.62
G0 X90 Y109.106
G1 F1500 E140.81602
G1 F675 X90 Y100.829 E141.06378
G1 F1500 E134.56378
G0 F300 X90 Y100.829 Z0.294
G0 F9000 X89.087 Y100.687
G0 X89.714 Y96.883
G0 X90.755 Y93.026
G0 X91.805 Y92.799
;TIME_ELAPSED:430.819880
;LAYER:-6
;TYPE:SUPPORT
G1 F1500 E141.06378
G1 F675 X91.619 Y93.321 E141.08106
G1 X91.555 Y93.535 E141.08803
G1 X138.969 Y140.949 E143.17885
G1 X138.668 Y141.054 E143.18879
G1 X138.562 Y141.088 E143.19226
G1 X138.216 Y141.185 E143.20347
G1 X91.327 Y94.297 E145.27111
G1 X91.121 Y95.081 E145.29639
G1 X137.444 Y141.404 E147.3391
G1 X137.295 Y141.447 E147.34394
G1 X136.649 Y141.598 E147.36462
G1 X90.914 Y95.864 E149.38138
G1 X90.757 Y96.459 E149.40057
G1 X90.711 Y96.65 E149.4067
G1 X135.847 Y141.787 E151.39709
G1 X135.127 Y141.958 E151.42016
G1 X135.045 Y141.975 E151.42277
G1 X90.535 Y97.464 E153.38556
G1 X90.434 Y98.026 E153.40336
G1 X90.405 Y98.169 E153.40791
G1 X90.383 Y98.303 E153.41215
G1 X134.218 Y142.137 E155.34512
G1 X133.498 Y142.259 E155.36789
G1 X133.366 Y142.276 E155.37204
G1 X90.25 Y99.159 E157.27336
G1 X90.117 Y100.016 E157.3004
G1 X132.489 Y142.389 E159.1689
G1 X131.613 Y142.502 E159.19644
G1 X89.993 Y100.882 E161.03177
G1 X89.914 Y101.794 E161.06031
G1 X130.72 Y142.599 E162.85972
G1 X130.338 Y142.641 E162.8717
G1 X129.798 Y142.667 E162.88856
G1 X89.861 Y102.731 E164.64964
G1 X89.814 Y103.673 E164.67905
G1 X128.836 Y142.695 E166.39981
G1 X127.871 Y142.721 E166.42991
G1 X89.774 Y104.624 E168.10988
G1 X89.765 Y105.001 E168.12164
G1 X89.78 Y105.619 E168.14091
G1 X126.899 Y142.738 E169.77775
G1 X125.87 Y142.699 E169.80986
G1 X89.83 Y106.659 E171.39912
G1 X89.883 Y107.702 E171.43169
G1 X124.802 Y142.621 E172.97151
G1 X123.728 Y142.537 E173.00511
G1 X89.956 Y108.765 E174.49435
G1 X89.958 Y108.779 E174.49479
G1 X90.093 Y109.833 E174.52793
G1 X90.104 Y109.903 E174.53014
G1 X122.608 Y142.407 E175.96347
G1 X121.947 Y142.323 E175.98425
G1 X121.852 Y142.308 E175.98725
G1 X121.445 Y142.234 E176.00015
G1 X90.287 Y111.076 E177.37412
G1 X90.415 Y111.893 E177.39991
G1 X90.477 Y112.256 E177.41139
G1 X120.234 Y142.013 E178.72359
G1 X119.741 Y141.923 E178.73922
G1 X119.539 Y141.878 E178.74567
G1 X118.997 Y141.766 E178.76293
G1 X90.752 Y113.521 E180.00845
G1 X90.754 Y113.527 E180.00865
G1 X91.107 Y114.866 E180.05183
G1 X117.654 Y141.412 E181.22245
G1 X116.257 Y141.006 E181.26781
G1 X91.487 Y116.236 E182.3601
G1 X91.619 Y116.678 E182.37448
G1 X91.793 Y117.166 E182.39064
G1 X92.012 Y117.75 E182.41009
G1 X114.788 Y140.526 E183.41444
G1 X114.437 Y140.398 E183.42609
G1 X113.144 Y139.873 E183.46961
G1 X92.609 Y119.337 E184.37516
G1 X92.659 Y119.457 E184.37922
G1 X93.22 Y120.745 E184.42302
G1 X93.285 Y120.884 E184.42781
G1 X93.405 Y121.124 E184.43617
G1 X111.413 Y139.131 E185.23025
G1 X111.133 Y139.005 E185.23983
G1 X110.826 Y138.846 E185.25061
G1 X109.351 Y138.06 E185.30272
G1 X94.416 Y123.124 E185.96133
G1 X94.873 Y123.952 E185.99082
G1 X95.055 Y124.249 E186.00169
G1 X95.936 Y125.634 E186.05287
G1 X106.874 Y136.572 E186.5352
G1 X105.62 Y135.729 E186.58232
G1 X105.435 Y135.594 E186.58946
G1 X105.387 Y135.562 E186.59126
G1 X104.313 Y134.76 E186.63305
G1 X104.183 Y134.658 E186.63821
G1 X102.884 Y133.572 E186.691
G1 X98.835 Y129.523 E186.86955
