;FLAVOR:Marlin
;TIME:3888
;Filament used: 4.16128m
;Layer height: 0.2
;MINX:53.05
;MINY:79.735
;MINZ:0.2
;MAXX:201.95
;MAXY:130.265
;MAXZ:10
;Generated with Cura_SteamEngine master
M140 S60
M105
M190 S60
M104 S200
M105
M109 S200
M82 ;absolute extrusion mode
M220 S100 ;reset feedrate
M221 S100 ;reset flowrate
G90 ;use absolute coordinates
M82 ;absolute extrusion mode
G28 ;home
G1 Z2 F1500 ;raise z
G92 E0 ;reset extruder

G1 X75 Y5 F5000 ;start position
G1 Z0.28 F1500 ;lower z
G1 E4 F500 ;prime the filament
G1 X180 E10 F500 ;1st line
G1 Y5.4 F5000
G1 X75 E20 F500 ;2nd line
G1 Z2 F1500 ;raise z
G92 E0 ;reset extruder
G92 E0
G92 E0
G1 F1500 E-6.5
;LAYER_COUNT:50
;LAYER:0
M107
G0 F9000 X59.505 Y95.016 Z0.2
;TYPE:SKIRT
G1 F1500 E0
G1 F1800 X60.248 Y94.584 E0.03573
G1 X62.256 Y93.561 E0.12942
G1 X62.975 Y93.239 E0.16218
G1 X63.722 Y92.993 E0.19488
G1 X64.559 Y92.812 E0.23048
G1 X66.77 Y92.461 E0.32355
G1 X67.553 Y92.377 E0.35629
G1 X67.985 Y92.365 E0.37426
G1 X81.997 Y92.365 E0.95681
G1 X84.253 Y92.078 E1.05136
G1 X85.893 Y91.422 E1.1248
G1 X87.315 Y90.377 E1.19816
G1 X88.431 Y89.006 E1.27166
G1 X89.596 Y86.463 E1.38795
G1 X89.96 Y85.765 E1.42068
G1 X90.334 Y85.189 E1.44923
G1 X91.471 Y83.596 E1.5306
G1 X91.96 Y82.979 E1.56333
G1 X92.509 Y82.415 E1.59606
G1 X93.113 Y81.91 E1.62879
G1 X93.765 Y81.469 E1.66151
G1 X94.458 Y81.096 E1.69423
G1 X95.364 Y80.734 E1.7348
G1 X97.233 Y80.121 E1.81657
G1 X97.992 Y79.914 E1.84928
G1 X98.769 Y79.785 E1.88203
G1 X99.648 Y79.735 E1.91863
G1 X100.872 Y79.735 E1.96952
G1 X101.658 Y79.775 E2.00224
G1 X102.679 Y79.949 E2.0453
G1 X104.105 Y80.291 E2.10627
G1 X104.861 Y80.513 E2.13902
G1 X105.589 Y80.811 E2.17173
G1 X106.284 Y81.181 E2.20446
G1 X106.938 Y81.619 E2.23719
G1 X107.317 Y81.922 E2.25736
G1 X108.43 Y82.868 E2.31809
G1 X109.003 Y83.407 E2.3508
G1 X109.294 Y83.728 E2.36881
G1 X111.954 Y86.83 E2.5387
G1 X114.581 Y89.066 E2.68212
G1 X117.523 Y90.863 E2.82545
G1 X120.711 Y92.18 E2.96886
G1 X124.065 Y92.984 E3.11225
G1 X127.5 Y93.253 E3.2555
G1 X130.935 Y92.984 E3.39875
G1 X134.289 Y92.18 E3.54214
G1 X137.477 Y90.863 E3.68554
G1 X140.419 Y89.066 E3.82887
G1 X143.046 Y86.83 E3.9723
G1 X145.704 Y83.73 E4.14207
G1 X146.246 Y83.16 E4.17477
G1 X146.567 Y82.871 E4.19273
G1 X147.682 Y81.923 E4.25357
G1 X148.307 Y81.444 E4.28631
G1 X148.977 Y81.031 E4.31903
G1 X149.685 Y80.688 E4.35174
G1 X150.425 Y80.419 E4.38448
G1 X150.895 Y80.291 E4.40473
G1 X152.321 Y79.949 E4.4657
G1 X153.094 Y79.804 E4.49839
G1 X154.128 Y79.735 E4.54148
G1 X155.352 Y79.735 E4.59237
G1 X156.138 Y79.775 E4.62509
G1 X156.916 Y79.894 E4.65781
G1 X157.767 Y80.121 E4.69443
G1 X159.636 Y80.734 E4.7762
G1 X160.371 Y81.017 E4.80895
G1 X161.073 Y81.373 E4.84167
G1 X161.735 Y81.798 E4.87438
G1 X162.351 Y82.289 E4.90713
G1 X162.914 Y82.839 E4.93985
G1 X163.529 Y83.596 E4.9804
G1 X164.666 Y85.189 E5.06177
G1 X165.09 Y85.852 E5.09449
G1 X165.404 Y86.463 E5.12305
G1 X166.569 Y89.006 E5.23934
G1 X167.685 Y90.377 E5.31284
G1 X169.107 Y91.422 E5.3862
G1 X170.747 Y92.078 E5.45964
G1 X173.003 Y92.365 E5.55419
G1 X187.015 Y92.365 E6.13674
G1 X187.801 Y92.405 E6.16946
G1 X188.23 Y92.461 E6.18745
G1 X190.441 Y92.812 E6.28052
G1 X191.211 Y92.975 E6.31324
G1 X191.961 Y93.215 E6.34598
G1 X192.744 Y93.561 E6.38157
G1 X194.752 Y94.584 E6.47527
G1 X195.434 Y94.976 E6.50797
G1 X196.073 Y95.436 E6.5407
G1 X196.714 Y96.009 E6.57645
G1 X198.306 Y97.601 E6.67005
G1 X198.834 Y98.185 E6.70278
G1 X199.299 Y98.82 E6.73551
G1 X199.731 Y99.563 E6.77124
G1 X200.754 Y101.571 E6.86493
G1 X201.076 Y102.29 E6.89768
G1 X201.322 Y103.037 E6.93038
G1 X201.503 Y103.872 E6.9659
G1 X201.854 Y106.08 E7.05885
G1 X201.938 Y106.863 E7.09159
G1 X201.95 Y107.297 E7.10964
G1 X201.95 Y122.515 E7.74234
G1 X201.91 Y123.301 E7.77506
G1 X201.791 Y124.079 E7.80778
G1 X201.593 Y124.841 E7.84051
G1 X201.319 Y125.579 E7.87324
G1 X200.971 Y126.285 E7.90596
G1 X200.554 Y126.953 E7.9387
G1 X200.071 Y127.574 E7.97141
G1 X199.527 Y128.144 E8.00417
G1 X198.929 Y128.655 E8.03687
G1 X198.282 Y129.103 E8.06959
G1 X197.592 Y129.483 E8.10234
G1 X196.868 Y129.791 E8.13505
G1 X196.116 Y130.024 E8.16778
G1 X195.345 Y130.18 E8.20049
G1 X194.2 Y130.265 E8.24822
G1 X185.917 Y130.265 E8.59259
G1 X185.131 Y130.225 E8.62531
G1 X184.353 Y130.106 E8.65803
G1 X183.591 Y129.908 E8.69076
G1 X182.853 Y129.634 E8.72349
G1 X182.147 Y129.286 E8.75621
G1 X181.479 Y128.869 E8.78895
G1 X180.858 Y128.386 E8.82166
G1 X180.437 Y127.995 E8.84555
G1 X170.708 Y118.265 E9.41761
G1 X84.292 Y118.265 E13.01037
G1 X74.563 Y127.995 E13.58242
G1 X73.979 Y128.522 E13.61513
G1 X73.345 Y128.988 E13.64784
G1 X72.666 Y129.387 E13.68058
G1 X71.95 Y129.715 E13.71333
G1 X71.205 Y129.969 E13.74605
G1 X70.438 Y130.146 E13.77878
G1 X69.657 Y130.244 E13.8115
G1 X69.083 Y130.265 E13.83538
G1 X60.8 Y130.265 E14.17975
G1 X60.014 Y130.225 E14.21247
G1 X59.236 Y130.106 E14.24519
G1 X58.474 Y129.908 E14.27792
G1 X57.736 Y129.634 E14.31065
G1 X57.03 Y129.286 E14.34338
G1 X56.362 Y128.869 E14.37612
G1 X55.741 Y128.386 E14.40882
G1 X55.171 Y127.842 E14.44158
G1 X54.66 Y127.244 E14.47428
G1 X54.212 Y126.597 E14.507
G1 X53.832 Y125.907 E14.53975
G1 X53.524 Y125.183 E14.57246
G1 X53.291 Y124.431 E14.60519
G1 X53.135 Y123.66 E14.6379
G1 X53.05 Y122.515 E14.68563
G1 X53.05 Y107.3 E15.3182
G1 X53.09 Y106.514 E15.35092
G1 X53.146 Y106.085 E15.36891
G1 X53.497 Y103.874 E15.46198
G1 X53.66 Y103.104 E15.4947
G1 X53.9 Y102.354 E15.52744
G1 X54.246 Y101.571 E15.56303
G1 X55.269 Y99.563 E15.65672
G1 X55.661 Y98.881 E15.68943
G1 X56.121 Y98.242 E15.72216
G1 X56.694 Y97.601 E15.75791
G1 X58.286 Y96.009 E15.85151
G1 X58.87 Y95.481 E15.88424
G1 X59.505 Y95.016 E15.91697
G0 F9000 X59.821 Y95.406
G1 F1800 X60.475 Y95.029 E15.94835
G1 X62.483 Y94.006 E16.04204
G1 X63.178 Y93.697 E16.07366
G1 X63.903 Y93.462 E16.10535
G1 X64.637 Y93.306 E16.13655
G1 X66.848 Y92.955 E16.22962
G1 X67.985 Y92.865 E16.27704
G1 X82.028 Y92.865 E16.86088
G1 X84.378 Y92.566 E16.95937
G1 X86.139 Y91.862 E17.03822
G1 X87.664 Y90.741 E17.11691
G1 X88.859 Y89.272 E17.19564
G1 X90.051 Y86.671 E17.31459
G1 X90.404 Y85.997 E17.34622
G1 X90.741 Y85.479 E17.37191
G1 X91.878 Y83.886 E17.45328
G1 X92.352 Y83.291 E17.48491
G1 X92.886 Y82.748 E17.51657
G1 X93.474 Y82.264 E17.54823
G1 X94.11 Y81.845 E17.5799
G1 X94.786 Y81.495 E17.61155
G1 X95.52 Y81.209 E17.6443
G1 X97.389 Y80.596 E17.72607
G1 X98.123 Y80.397 E17.75769
G1 X98.875 Y80.276 E17.78936
G1 X99.648 Y80.235 E17.82154
G1 X100.872 Y80.235 E17.87243
G1 X101.632 Y80.275 E17.90407
G1 X102.563 Y80.435 E17.94334
G1 X103.989 Y80.777 E18.00431
G1 X104.719 Y80.993 E18.03596
G1 X105.422 Y81.285 E18.06761
G1 X106.091 Y81.648 E18.09925
G1 X106.993 Y82.303 E18.1456
G1 X108.106 Y83.249 E18.20633
G1 X108.915 Y84.054 E18.25378
G1 X111.601 Y87.186 E18.42532
G1 X114.284 Y89.47 E18.57181
G1 X117.297 Y91.311 E18.71861
G1 X120.562 Y92.66 E18.86548
G1 X123.979 Y93.478 E19.01156
G1 X127.5 Y93.755 E19.1584
G1 X131.021 Y93.478 E19.30523
G1 X134.438 Y92.66 E19.45131
G1 X137.703 Y91.311 E19.59818
G1 X140.716 Y89.47 E19.74498
G1 X143.399 Y87.187 E19.89145
G1 X146.083 Y84.056 E20.0629
G1 X146.891 Y83.252 E20.11029
G1 X148.006 Y82.304 E20.17114
G1 X148.611 Y81.842 E20.20278
G1 X149.261 Y81.446 E20.23443
G1 X149.949 Y81.12 E20.26608
G1 X151.011 Y80.777 E20.31248
G1 X152.437 Y80.435 E20.37345
G1 X153.186 Y80.296 E20.40512
G1 X154.128 Y80.235 E20.44436
G1 X155.352 Y80.235 E20.49525
G1 X156.112 Y80.275 E20.52689
G1 X156.864 Y80.394 E20.55855
G1 X157.611 Y80.596 E20.59072
G1 X159.48 Y81.209 E20.6725
G1 X160.19 Y81.484 E20.70415
G1 X160.868 Y81.832 E20.73583
G1 X161.505 Y82.249 E20.76749
G1 X162.094 Y82.73 E20.7991
G1 X162.63 Y83.271 E20.83077
G1 X163.122 Y83.886 E20.86351
G1 X164.259 Y85.479 E20.94488
G1 X164.668 Y86.121 E20.97653
G1 X164.949 Y86.671 E21.0022
G1 X166.141 Y89.272 E21.12116
G1 X167.336 Y90.741 E21.19989
G1 X168.861 Y91.862 E21.27857
G1 X170.622 Y92.566 E21.35742
G1 X172.972 Y92.865 E21.45591
G1 X187.015 Y92.865 E22.03975
G1 X188.152 Y92.955 E22.08717
G1 X190.363 Y93.306 E22.18024
G1 X191.107 Y93.464 E22.21187
G1 X191.831 Y93.7 E22.24352
G1 X192.517 Y94.006 E22.27475
G1 X194.525 Y95.029 E22.36845
G1 X195.184 Y95.41 E22.40009
G1 X195.8 Y95.858 E22.43176
G1 X196.361 Y96.362 E22.46312
G1 X197.953 Y97.954 E22.55672
G1 X198.462 Y98.52 E22.58837
G1 X198.909 Y99.136 E22.62001
G1 X199.286 Y99.79 E22.65139
G1 X200.309 Y101.798 E22.74509
G1 X200.618 Y102.493 E22.77671
G1 X200.853 Y103.218 E22.80839
G1 X201.009 Y103.951 E22.83955
G1 X201.36 Y106.159 E22.9325
G1 X201.44 Y106.916 E22.96415
G1 X201.45 Y107.297 E22.97999
G1 X201.45 Y122.515 E23.61269
G1 X201.41 Y123.275 E23.64433
G1 X201.291 Y124.027 E23.67598
G1 X201.093 Y124.762 E23.70763
G1 X200.819 Y125.473 E23.73931
G1 X200.473 Y126.151 E23.77095
G1 X200.057 Y126.788 E23.80258
G1 X199.576 Y127.379 E23.83426
G1 X199.037 Y127.916 E23.8659
G1 X198.444 Y128.393 E23.89754
G1 X197.804 Y128.806 E23.9292
G1 X197.124 Y129.149 E23.96087
G1 X196.412 Y129.419 E23.99253
G1 X195.676 Y129.613 E24.02417
G1 X194.924 Y129.729 E24.0558
G1 X194.2 Y129.765 E24.08594
G1 X185.917 Y129.765 E24.43031
G1 X185.157 Y129.725 E24.46195
G1 X184.405 Y129.606 E24.4936
G1 X183.67 Y129.408 E24.52525
G1 X182.959 Y129.134 E24.55693
G1 X182.281 Y128.788 E24.58858
G1 X181.644 Y128.372 E24.62021
G1 X180.79 Y127.641 E24.66694
G1 X170.915 Y117.765 E25.24758
G1 X84.085 Y117.765 E28.85756
G1 X74.21 Y127.641 E29.4382
G1 X73.644 Y128.151 E29.46987
G1 X73.028 Y128.598 E29.50152
G1 X72.368 Y128.978 E29.53318
G1 X71.672 Y129.287 E29.56484
G1 X70.948 Y129.521 E29.59647
G1 X70.203 Y129.678 E29.62813
G1 X69.083 Y129.765 E29.67483
G1 X60.8 Y129.765 E30.0192
G1 X60.04 Y129.725 E30.05084
G1 X59.288 Y129.606 E30.08249
G1 X58.553 Y129.408 E30.11414
G1 X57.842 Y129.134 E30.14582
G1 X57.164 Y128.788 E30.17746
G1 X56.527 Y128.372 E30.20909
G1 X55.936 Y127.891 E30.24077
G1 X55.399 Y127.352 E30.27241
G1 X54.922 Y126.759 E30.30405
G1 X54.509 Y126.119 E30.33571
G1 X54.166 Y125.439 E30.36738
G1 X53.896 Y124.727 E30.39904
G1 X53.702 Y123.991 E30.43068
G1 X53.586 Y123.239 E30.46232
G1 X53.55 Y122.515 E30.49245
G1 X53.55 Y107.3 E31.12502
G1 X53.64 Y106.163 E31.17244
G1 X53.991 Y103.952 E31.26551
G1 X54.149 Y103.208 E31.29713
G1 X54.385 Y102.484 E31.32879
G1 X54.691 Y101.798 E31.36002
G1 X55.714 Y99.79 E31.45372
G1 X56.095 Y99.131 E31.48536
G1 X56.543 Y98.515 E31.51703
G1 X57.047 Y97.954 E31.54838
G1 X58.639 Y96.362 E31.64199
G1 X59.205 Y95.853 E31.67363
G1 X59.821 Y95.406 E31.70528
G0 F9000 X60.137 Y95.798
G1 F1800 X60.702 Y95.475 E31.73233
G1 X62.71 Y94.452 E31.82603
G1 X63.382 Y94.154 E31.85659
G1 X64.082 Y93.932 E31.88712
G1 X64.716 Y93.799 E31.91405
G1 X66.927 Y93.448 E32.00713
G1 X67.985 Y93.365 E32.05125
G1 X82.06 Y93.365 E32.63642
G1 X84.504 Y93.054 E32.73885
G1 X86.387 Y92.301 E32.82316
G1 X88.009 Y91.109 E32.90685
G1 X89.287 Y89.538 E32.99105
G1 X90.505 Y86.88 E33.1126
G1 X90.847 Y86.229 E33.14317
G1 X91.148 Y85.77 E33.166
G1 X92.285 Y84.177 E33.24736
G1 X92.744 Y83.603 E33.27792
G1 X93.262 Y83.082 E33.30846
G1 X93.834 Y82.621 E33.33901
G1 X94.452 Y82.225 E33.36952
G1 X95.11 Y81.898 E33.40007
G1 X95.675 Y81.684 E33.42519
G1 X97.544 Y81.071 E33.50697
G1 X98.254 Y80.881 E33.53752
G1 X98.98 Y80.768 E33.56807
G1 X99.648 Y80.735 E33.59588
G1 X100.872 Y80.735 E33.64676
G1 X101.605 Y80.775 E33.67728
G1 X102.446 Y80.921 E33.71277
G1 X103.872 Y81.263 E33.77374
G1 X104.576 Y81.473 E33.80428
G1 X105.253 Y81.758 E33.83482
G1 X105.895 Y82.115 E33.86536
G1 X106.669 Y82.684 E33.9053
G1 X107.782 Y83.63 E33.96603
G1 X108.535 Y84.379 E34.01019
G1 X111.248 Y87.542 E34.18344
G1 X113.991 Y89.877 E34.3332
G1 X117.07 Y91.758 E34.48321
G1 X120.402 Y93.135 E34.6331
G1 X123.906 Y93.975 E34.78291
G1 X127.5 Y94.257 E34.93279
G1 X131.094 Y93.975 E35.08267
G1 X134.598 Y93.135 E35.23247
G1 X137.93 Y91.758 E35.38237
G1 X141.009 Y89.877 E35.53237
G1 X143.752 Y87.542 E35.68214
G1 X146.463 Y84.381 E35.85527
G1 X147.215 Y83.632 E35.8994
G1 X148.33 Y82.684 E35.96024
G1 X148.914 Y82.24 E35.99074
G1 X149.544 Y81.861 E36.02131
G1 X150.211 Y81.553 E36.05185
G1 X151.128 Y81.263 E36.09184
G1 X152.554 Y80.921 E36.15281
G1 X153.276 Y80.789 E36.18332
G1 X154.128 Y80.735 E36.21882
G1 X155.352 Y80.735 E36.2697
G1 X156.085 Y80.775 E36.30022
G1 X156.81 Y80.894 E36.33077
G1 X157.456 Y81.071 E36.35862
G1 X159.325 Y81.684 E36.44039
G1 X160.009 Y81.951 E36.47092
G1 X160.661 Y82.29 E36.50147
G1 X161.271 Y82.698 E36.53198
G1 X161.834 Y83.17 E36.56253
G1 X162.342 Y83.701 E36.59308
G1 X162.715 Y84.177 E36.61822
G1 X163.852 Y85.77 E36.69959
G1 X164.246 Y86.39 E36.73013
G1 X164.495 Y86.88 E36.75298
G1 X165.713 Y89.538 E36.87454
G1 X166.991 Y91.109 E36.95874
G1 X168.613 Y92.301 E37.04242
G1 X170.496 Y93.054 E37.12674
G1 X172.94 Y93.365 E37.22916
G1 X187.015 Y93.365 E37.81434
G1 X188.073 Y93.448 E37.85846
G1 X190.284 Y93.799 E37.95153
G1 X191.002 Y93.954 E37.98207
G1 X191.7 Y94.186 E38.01265
G1 X192.29 Y94.452 E38.03956
G1 X194.298 Y95.475 E38.13325
G1 X194.934 Y95.843 E38.1638
G1 X195.525 Y96.279 E38.19433
G1 X196.007 Y96.716 E38.22138
G1 X197.599 Y98.308 E38.31499
G1 X198.089 Y98.855 E38.34552
G1 X198.517 Y99.452 E38.37606
G1 X198.84 Y100.017 E38.40311
G1 X199.863 Y102.025 E38.49681
G1 X200.161 Y102.697 E38.52737
G1 X200.383 Y103.397 E38.5579
G1 X200.515 Y104.029 E38.58474
G1 X200.866 Y106.237 E38.67769
G1 X200.95 Y107.297 E38.7219
G1 X200.95 Y122.515 E39.35459
G1 X200.91 Y123.248 E39.38511
G1 X200.791 Y123.973 E39.41566
G1 X200.593 Y124.681 E39.44622
G1 X200.32 Y125.363 E39.47676
G1 X199.974 Y126.011 E39.5073
G1 X199.56 Y126.618 E39.53785
G1 X199.083 Y127.176 E39.56837
G1 X198.547 Y127.679 E39.59893
G1 X197.96 Y128.121 E39.62948
G1 X197.329 Y128.496 E39.66
G1 X196.661 Y128.801 E39.69053
G1 X195.963 Y129.031 E39.72108
G1 X195.244 Y129.184 E39.75164
G1 X194.2 Y129.265 E39.79518
G1 X185.917 Y129.265 E40.13955
G1 X185.184 Y129.225 E40.17007
G1 X184.459 Y129.106 E40.20061
G1 X183.751 Y128.908 E40.23118
G1 X183.069 Y128.635 E40.26172
G1 X182.421 Y128.289 E40.29226
G1 X181.814 Y127.875 E40.32281
G1 X181.144 Y127.288 E40.35984
G1 X171.122 Y117.265 E40.94912
G1 X83.878 Y117.265 E44.57631
G1 X73.856 Y127.288 E45.16559
G1 X73.309 Y127.778 E45.19612
G1 X72.712 Y128.206 E45.22666
G1 X72.072 Y128.567 E45.25721
G1 X71.397 Y128.856 E45.28774
G1 X70.694 Y129.07 E45.31829
G1 X69.972 Y129.206 E45.34884
G1 X69.083 Y129.265 E45.38588
G1 X60.8 Y129.265 E45.73025
G1 X60.067 Y129.225 E45.76077
G1 X59.342 Y129.106 E45.79131
G1 X58.634 Y128.908 E45.82188
G1 X57.952 Y128.635 E45.85242
G1 X57.304 Y128.289 E45.88296
G1 X56.697 Y127.875 E45.91351
G1 X56.139 Y127.398 E45.94403
G1 X55.636 Y126.862 E45.97459
G1 X55.194 Y126.275 E46.00513
G1 X54.819 Y125.644 E46.03565
G1 X54.514 Y124.976 E46.06618
G1 X54.284 Y124.278 E46.09674
G1 X54.131 Y123.559 E46.1273
G1 X54.05 Y122.515 E46.17083
G1 X54.05 Y107.3 E46.8034
G1 X54.133 Y106.242 E46.84752
G1 X54.484 Y104.031 E46.94059
G1 X54.639 Y103.313 E46.97113
G1 X54.871 Y102.615 E47.00171
G1 X55.137 Y102.025 E47.02862
G1 X56.16 Y100.017 E47.12231
G1 X56.528 Y99.381 E47.15286
G1 X56.964 Y98.79 E47.1834
G1 X57.401 Y98.308 E47.21045
G1 X58.993 Y96.716 E47.30405
G1 X59.54 Y96.226 E47.33458
G1 X60.137 Y95.798 E47.36512
G0 F9000 X60.451 Y96.191
G1 F1800 X60.929 Y95.92 E47.38797
G1 X62.937 Y94.897 E47.48166
G1 X63.584 Y94.612 E47.51105
G1 X64.259 Y94.402 E47.54044
G1 X64.794 Y94.293 E47.56314
G1 X67.005 Y93.942 E47.65621
G1 X67.985 Y93.865 E47.69708
G1 X82.092 Y93.865 E48.28358
G1 X84.628 Y93.542 E48.38987
G1 X86.633 Y92.74 E48.47965
G1 X88.355 Y91.475 E48.56848
G1 X89.717 Y89.802 E48.65818
G1 X90.96 Y87.088 E48.78228
G1 X91.29 Y86.463 E48.81167
G1 X91.555 Y86.06 E48.83172
G1 X92.692 Y84.467 E48.91309
G1 X93.134 Y83.916 E48.94245
G1 X93.636 Y83.418 E48.97185
G1 X94.191 Y82.98 E49.00125
G1 X94.792 Y82.608 E49.03063
G1 X95.431 Y82.306 E49.06002
G1 X95.831 Y82.159 E49.07773
G1 X97.7 Y81.546 E49.15951
G1 X98.383 Y81.364 E49.1889
G1 X99.082 Y81.261 E49.21827
G1 X99.648 Y81.235 E49.24183
G1 X100.872 Y81.235 E49.29272
G1 X101.578 Y81.275 E49.32212
G1 X102.33 Y81.407 E49.35386
G1 X103.756 Y81.749 E49.41483
