;FLAVOR:Marlin
;TIME:9919
;Filament used: 4.34056m
;Layer height: 0.2
;MINX:98.715
;MINY:75.509
;MINZ:0.2
;MAXX:157.676
;MAXY:134.488
;MAXZ:25
;Generated with Cura_SteamEngine master
M140 S50
M105
M190 S50
M104 S190
M105
M109 S190
M82 ;absolute extrusion mode
M220 S100 ;reset feedrate
M221 S100 ;reset flowrate
G90 ;use absolute coordinates
M82 ;absolute extrusion mode
G28 ;home
G1 Z2 F1500 ;raise z
G92 E0 ;reset extruder

G1 X75 Y5 F5000 ;start position
G1 Z0.28 F1500 ;lower z
G1 E4 F500 ;prime the filament
G1 X180 E10 F500 ;1st line
G1 Y5.4 F5000
G1 X75 E20 F500 ;2nd line
G1 Z2 F1500 ;raise z
G92 E0 ;reset extruder
G92 E0
G92 E0
G1 F1500 E-6.5
;LAYER_COUNT:125
;LAYER:0
M107
G0 F6000 X105.017 Y86.741 Z0.2
;TYPE:SKIRT
G1 F1500 E0
G1 F600 X106.689 Y84.801 E0.10648
G1 X107.33 Y84.142 E0.1447
G1 X109.238 Y82.397 E0.2522
G1 X109.947 Y81.821 E0.29018
G1 X112.051 Y80.31 E0.39787
G1 X112.83 Y79.818 E0.43618
G1 X115.072 Y78.582 E0.54261
G1 X115.893 Y78.191 E0.58042
G1 X118.284 Y77.218 E0.68774
G1 X119.167 Y76.919 E0.7265
G1 X121.665 Y76.238 E0.83415
G1 X122.56 Y76.05 E0.87217
G1 X125.094 Y75.672 E0.97868
G1 X126.002 Y75.591 E1.01658
G1 X128.574 Y75.513 E1.12356
G1 X128.832 Y75.509 E1.13429
G1 X129.524 Y75.54 E1.16309
G1 X132.069 Y75.768 E1.26932
G1 X132.973 Y75.903 E1.30732
G1 X135.501 Y76.435 E1.41473
G1 X136.378 Y76.674 E1.45252
G1 X138.81 Y77.493 E1.55921
G1 X139.671 Y77.842 E1.59784
G1 X142.023 Y78.963 E1.70616
G1 X142.83 Y79.408 E1.74447
G1 X145.002 Y80.781 E1.8513
G1 X145.742 Y81.312 E1.88917
G1 X147.73 Y82.924 E1.99558
G1 X148.412 Y83.548 E2.03401
G1 X150.22 Y85.412 E2.14197
G1 X150.813 Y86.1 E2.17974
G1 X152.368 Y88.133 E2.28615
G1 X152.888 Y88.904 E2.32481
G1 X154.212 Y91.149 E2.43317
G1 X154.628 Y91.96 E2.47106
G1 X155.663 Y94.308 E2.57775
G1 X155.987 Y95.182 E2.6165
G1 X156.738 Y97.655 E2.72395
G1 X156.949 Y98.532 E2.76145
G1 X157.401 Y101.04 E2.8674
G1 X157.511 Y101.958 E2.90584
G1 X157.663 Y104.53 E3.01296
G1 X157.676 Y105.012 E3.03301
G1 X157.662 Y105.47 E3.05206
G1 X157.51 Y108.04 E3.15909
G1 X157.401 Y108.96 E3.19761
G1 X156.944 Y111.49 E3.3045
G1 X156.73 Y112.371 E3.34219
G1 X155.98 Y114.832 E3.44915
G1 X155.656 Y115.704 E3.48783
G1 X154.604 Y118.086 E3.59609
G1 X154.186 Y118.9 E3.63413
G1 X152.879 Y121.11 E3.74088
G1 X152.362 Y121.876 E3.7793
G1 X150.795 Y123.923 E3.88648
G1 X150.202 Y124.61 E3.92421
G1 X148.417 Y126.449 E4.03076
G1 X147.731 Y127.075 E4.06937
G1 X145.718 Y128.704 E4.17703
G1 X144.98 Y129.234 E4.2148
G1 X142.827 Y130.593 E4.32066
G1 X142.024 Y131.035 E4.35876
G1 X139.557 Y132.209 E4.47235
G1 X138.803 Y132.508 E4.50607
G1 X136.379 Y133.325 E4.61242
G1 X135.504 Y133.564 E4.65013
G1 X133.001 Y134.092 E4.75649
G1 X132.651 Y134.158 E4.77129
G1 X132.066 Y134.232 E4.79581
G1 X129.511 Y134.46 E4.90246
G1 X128.592 Y134.488 E4.94068
G1 X126.031 Y134.412 E5.0472
G1 X125.593 Y134.386 E5.06544
G1 X125.094 Y134.328 E5.08633
G1 X122.56 Y133.95 E5.19285
G1 X121.662 Y133.761 E5.231
G1 X119.164 Y133.079 E5.33866
G1 X118.284 Y132.781 E5.37728
G1 X115.893 Y131.808 E5.4846
G1 X115.072 Y131.417 E5.52241
G1 X112.814 Y130.172 E5.62961
G1 X112.037 Y129.681 E5.66782
G1 X109.953 Y128.185 E5.77448
G1 X109.239 Y127.606 E5.8127
G1 X107.327 Y125.856 E5.92046
G1 X106.688 Y125.197 E5.95862
G1 X105.016 Y123.256 E6.06513
G1 X104.457 Y122.522 E6.10349
G1 X103.012 Y120.373 E6.21115
G1 X102.548 Y119.588 E6.24907
G1 X101.382 Y117.316 E6.35524
G1 X101.011 Y116.473 E6.39353
G1 X100.106 Y114.034 E6.50169
G1 X99.84 Y113.163 E6.53955
G1 X99.241 Y110.691 E6.6453
G1 X99.077 Y109.783 E6.68366
G1 X98.771 Y107.216 E6.79114
G1 X98.744 Y106.947 E6.80238
G1 X98.715 Y106.276 E6.8303
G1 X98.715 Y103.726 E6.93632
G1 X98.769 Y102.815 E6.97426
G1 X99.073 Y100.246 E7.08181
G1 X99.138 Y99.806 E7.1003
G1 X99.241 Y99.309 E7.1214
G1 X99.845 Y96.816 E7.22805
G1 X100.113 Y95.939 E7.26618
G1 X101.013 Y93.52 E7.37348
G1 X101.385 Y92.678 E7.41175
G1 X102.563 Y90.387 E7.51885
G1 X103.025 Y89.605 E7.55662
G1 X104.458 Y87.475 E7.66335
G1 X105.017 Y86.741 E7.70171
G0 F6000 X105.396 Y87.068
G1 F600 X107.068 Y85.128 E7.80818
G1 X107.667 Y84.511 E7.84394
G1 X109.575 Y82.766 E7.95143
G1 X110.239 Y82.227 E7.98699
G1 X112.343 Y80.716 E8.09468
G1 X113.072 Y80.256 E8.13052
G1 X115.314 Y79.02 E8.23696
G1 X116.081 Y78.654 E8.27229
G1 X118.472 Y77.681 E8.37961
G1 X119.298 Y77.401 E8.41587
G1 X121.796 Y76.72 E8.52352
G1 X122.633 Y76.544 E8.55908
G1 X125.167 Y76.166 E8.6656
G1 X126.017 Y76.09 E8.70108
G1 X128.589 Y76.012 E8.80806
G1 X128.832 Y76.009 E8.81816
G1 X129.479 Y76.038 E8.84509
G1 X132.024 Y76.266 E8.95132
G1 X132.87 Y76.392 E8.98688
G1 X135.398 Y76.924 E9.09428
G1 X136.219 Y77.148 E9.12966
G1 X138.651 Y77.967 E9.23635
G1 X139.456 Y78.293 E9.27246
G1 X141.808 Y79.414 E9.38079
G1 X142.563 Y79.831 E9.41665
G1 X144.735 Y81.204 E9.52348
G1 X145.427 Y81.701 E9.5589
G1 X147.415 Y83.313 E9.66531
G1 X148.053 Y83.896 E9.70124
G1 X149.861 Y85.76 E9.8092
G1 X150.416 Y86.403 E9.84451
G1 X151.971 Y88.436 E9.95093
G1 X152.457 Y89.158 E9.98711
G1 X153.781 Y91.403 E10.09547
G1 X154.17 Y92.162 E10.13093
G1 X155.205 Y94.51 E10.23761
G1 X155.508 Y95.327 E10.27384
G1 X156.259 Y97.8 E10.38129
G1 X156.457 Y98.621 E10.4164
G1 X156.909 Y101.129 E10.52235
G1 X157.011 Y101.987 E10.55827
G1 X157.163 Y104.559 E10.66539
G1 X157.176 Y105.012 E10.68423
G1 X157.163 Y105.44 E10.70203
G1 X157.011 Y108.01 E10.80907
G1 X156.909 Y108.871 E10.84512
G1 X156.452 Y111.401 E10.952
G1 X156.252 Y112.226 E10.9873
G1 X155.502 Y114.687 E11.09426
G1 X155.199 Y115.502 E11.13041
G1 X154.147 Y117.884 E11.23867
G1 X153.755 Y118.646 E11.2743
G1 X152.448 Y120.856 E11.38104
G1 X151.965 Y121.572 E11.41695
G1 X150.398 Y123.619 E11.52413
G1 X149.843 Y124.262 E11.55944
G1 X148.058 Y126.101 E11.66599
G1 X147.417 Y126.687 E11.7021
G1 X145.404 Y128.316 E11.80976
G1 X144.713 Y128.811 E11.8451
G1 X142.56 Y130.17 E11.95095
G1 X141.809 Y130.584 E11.9866
G1 X139.469 Y131.699 E12.09437
G1 X139.328 Y131.764 E12.10083
G1 X138.644 Y132.034 E12.1314
G1 X136.22 Y132.851 E12.23775
G1 X135.4 Y133.075 E12.27309
G1 X132.897 Y133.603 E12.37944
G1 X132.569 Y133.664 E12.39331
G1 X132.021 Y133.734 E12.41628
G1 X129.466 Y133.962 E12.52293
G1 X128.607 Y133.988 E12.55865
G1 X126.046 Y133.912 E12.66518
G1 X125.635 Y133.888 E12.68229
G1 X125.167 Y133.834 E12.70188
G1 X122.633 Y133.456 E12.8084
G1 X121.794 Y133.279 E12.84404
G1 X119.296 Y132.597 E12.9517
G1 X118.472 Y132.318 E12.98787
G1 X116.081 Y131.345 E13.09519
G1 X115.313 Y130.979 E13.13056
G1 X113.055 Y129.734 E13.23776
G1 X112.328 Y129.275 E13.27351
G1 X110.244 Y127.779 E13.38016
G1 X109.577 Y127.237 E13.41589
G1 X107.665 Y125.487 E13.52366
G1 X107.067 Y124.871 E13.55935
G1 X105.395 Y122.93 E13.66586
G1 X104.872 Y122.243 E13.70175
G1 X103.427 Y120.094 E13.80942
G1 X102.993 Y119.359 E13.84491
G1 X101.827 Y117.087 E13.95108
G1 X101.48 Y116.299 E13.98688
G1 X100.575 Y113.86 E14.09503
G1 X100.326 Y113.045 E14.13046
G1 X99.727 Y110.573 E14.23621
G1 X99.574 Y109.724 E14.27208
G1 X99.268 Y107.157 E14.37956
G1 X99.242 Y106.904 E14.39013
G1 X99.215 Y106.276 E14.41626
G1 X99.215 Y103.726 E14.52228
G1 X99.265 Y102.874 E14.55776
G1 X99.569 Y100.305 E14.66531
G1 X99.63 Y99.892 E14.68267
G1 X99.727 Y99.427 E14.70242
G1 X100.331 Y96.934 E14.80907
G1 X100.582 Y96.113 E14.84476
G1 X101.482 Y93.694 E14.95206
G1 X101.829 Y92.907 E14.98782
G1 X103.007 Y90.616 E15.09493
G1 X103.44 Y89.884 E15.13028
G1 X104.873 Y87.754 E15.23701
G1 X105.396 Y87.068 E15.27288
G0 F6000 X105.775 Y87.394
G1 F600 X107.447 Y85.454 E15.37936
G1 X108.005 Y84.88 E15.41264
G1 X109.913 Y83.135 E15.52014
G1 X110.531 Y82.633 E15.55324
G1 X112.635 Y81.122 E15.66093
G1 X113.313 Y80.694 E15.69427
G1 X115.555 Y79.458 E15.80071
G1 X116.27 Y79.117 E15.83364
G1 X118.661 Y78.144 E15.94096
G1 X119.43 Y77.884 E15.97471
G1 X121.928 Y77.203 E16.08236
G1 X122.707 Y77.039 E16.11545
G1 X125.241 Y76.661 E16.22197
G1 X126.032 Y76.59 E16.25499
G1 X128.604 Y76.512 E16.36197
G1 X128.832 Y76.509 E16.37145
G1 X129.434 Y76.536 E16.3965
G1 X131.979 Y76.764 E16.50273
G1 X132.767 Y76.882 E16.53586
G1 X135.295 Y77.414 E16.64326
G1 X136.059 Y77.622 E16.67618
G1 X138.491 Y78.441 E16.78287
G1 X139.241 Y78.745 E16.81652
G1 X141.593 Y79.866 E16.92484
G1 X142.296 Y80.253 E16.95821
G1 X144.468 Y81.626 E17.06504
G1 X145.112 Y82.089 E17.09801
G1 X147.1 Y83.701 E17.20442
G1 X147.694 Y84.244 E17.23788
G1 X149.502 Y86.108 E17.34584
G1 X150.018 Y86.707 E17.37871
G1 X151.573 Y88.74 E17.48512
G1 X152.026 Y89.412 E17.51882
G1 X153.35 Y91.657 E17.62718
G1 X153.713 Y92.363 E17.66018
G1 X154.748 Y94.711 E17.76686
G1 X155.03 Y95.473 E17.80064
G1 X155.781 Y97.946 E17.9081
G1 X155.965 Y98.71 E17.94077
G1 X156.417 Y101.218 E18.04672
G1 X156.512 Y102.017 E18.08017
G1 X156.664 Y104.589 E18.18729
G1 X156.676 Y105.012 E18.20488
G1 X156.664 Y105.411 E18.22148
G1 X156.512 Y107.981 E18.32851
G1 X156.417 Y108.782 E18.36205
G1 X155.96 Y111.312 E18.46893
G1 X155.774 Y112.08 E18.50179
G1 X155.024 Y114.541 E18.60875
G1 X154.742 Y115.3 E18.64241
G1 X153.69 Y117.682 E18.75067
G1 X153.325 Y118.391 E18.78383
G1 X152.018 Y120.601 E18.89057
G1 X151.568 Y121.268 E18.92403
G1 X150.001 Y123.315 E19.0312
G1 X149.485 Y123.913 E19.06404
G1 X147.7 Y125.752 E19.17059
G1 X147.102 Y126.298 E19.20426
G1 X145.089 Y127.927 E19.31192
G1 X144.446 Y128.388 E19.34481
G1 X142.293 Y129.747 E19.45066
G1 X141.594 Y130.133 E19.48386
G1 X139.254 Y131.248 E19.59163
G1 X139.121 Y131.309 E19.59771
G1 X138.484 Y131.56 E19.62618
G1 X136.06 Y132.377 E19.73252
G1 X135.297 Y132.586 E19.76542
G1 X132.794 Y133.114 E19.87177
G1 X132.487 Y133.171 E19.88475
G1 X131.977 Y133.236 E19.90612
G1 X129.422 Y133.464 E20.01277
G1 X128.622 Y133.488 E20.04605
G1 X126.061 Y133.412 E20.15257
G1 X125.676 Y133.39 E20.1686
G1 X125.241 Y133.339 E20.18681
G1 X122.707 Y132.961 E20.29333
G1 X121.925 Y132.797 E20.32654
G1 X119.427 Y132.115 E20.4342
G1 X118.661 Y131.855 E20.46783
G1 X116.27 Y130.882 E20.57515
G1 X115.555 Y130.541 E20.60809
G1 X113.297 Y129.296 E20.71529
G1 X112.62 Y128.868 E20.74859
G1 X110.536 Y127.372 E20.85524
G1 X109.915 Y126.868 E20.88849
G1 X108.003 Y125.118 E20.99626
G1 X107.446 Y124.544 E21.02951
G1 X105.774 Y122.603 E21.13602
G1 X105.287 Y121.964 E21.16942
G1 X103.842 Y119.815 E21.27709
G1 X103.438 Y119.131 E21.31011
G1 X102.272 Y116.859 E21.41628
G1 X101.949 Y116.125 E21.44962
G1 X101.044 Y113.686 E21.55778
G1 X100.812 Y112.928 E21.59074
G1 X100.213 Y110.456 E21.69649
G1 X100.07 Y109.665 E21.72991
G1 X99.764 Y107.098 E21.83738
G1 X99.74 Y106.861 E21.84729
G1 X99.715 Y106.276 E21.87163
G1 X99.715 Y103.726 E21.97765
G1 X99.762 Y102.933 E22.01068
G1 X100.066 Y100.364 E22.11823
G1 X100.123 Y99.977 E22.13449
G1 X100.213 Y99.545 E22.15284
G1 X100.817 Y97.052 E22.25948
G1 X101.051 Y96.287 E22.29274
G1 X101.951 Y93.868 E22.40005
G1 X102.274 Y93.135 E22.43335
G1 X103.452 Y90.844 E22.54045
G1 X103.854 Y90.163 E22.57333
G1 X105.287 Y88.033 E22.68006
G1 X105.775 Y87.394 E22.71349
G0 F6000 X106.154 Y87.721
G1 F600 X107.826 Y85.781 E22.81997
G1 X108.342 Y85.249 E22.85078
G1 X110.25 Y83.504 E22.95828
G1 X110.822 Y83.039 E22.98892
G1 X112.926 Y81.528 E23.09662
G1 X113.555 Y81.132 E23.12752
G1 X115.797 Y79.896 E23.23396
G1 X116.458 Y79.58 E23.26442
G1 X118.849 Y78.607 E23.37174
G1 X119.561 Y78.366 E23.40299
G1 X122.059 Y77.685 E23.51064
G1 X122.781 Y77.533 E23.54131
G1 X125.315 Y77.155 E23.64783
G1 X126.048 Y77.09 E23.67842
G1 X128.62 Y77.012 E23.7854
G1 X128.832 Y77.009 E23.79422
G1 X129.39 Y77.034 E23.81744
G1 X131.935 Y77.262 E23.92367
G1 X132.664 Y77.371 E23.95432
G1 X135.192 Y77.903 E24.06172
G1 X135.9 Y78.096 E24.09223
G1 X138.332 Y78.915 E24.19892
G1 X139.026 Y79.196 E24.23005
G1 X141.378 Y80.317 E24.33837
G1 X142.029 Y80.676 E24.36928
G1 X144.201 Y82.049 E24.47611
G1 X144.797 Y82.477 E24.50662
G1 X146.785 Y84.089 E24.61303
G1 X147.335 Y84.592 E24.64401
G1 X149.143 Y86.456 E24.75198
G1 X149.621 Y87.011 E24.78243
G1 X151.176 Y89.044 E24.88884
G1 X151.596 Y89.666 E24.92004
G1 X152.92 Y91.911 E25.0284
G1 X153.255 Y92.565 E25.05895
G1 X154.29 Y94.913 E25.16564
G1 X154.551 Y95.618 E25.19689
G1 X155.302 Y98.091 E25.30434
G1 X155.473 Y98.798 E25.33458
G1 X155.925 Y101.306 E25.44053
G1 X156.013 Y102.046 E25.47152
G1 X156.165 Y104.618 E25.57863
G1 X156.176 Y105.012 E25.59502
G1 X156.165 Y105.381 E25.61037
G1 X156.013 Y107.951 E25.7174
G1 X155.924 Y108.693 E25.74847
G1 X155.467 Y111.223 E25.85536
G1 X155.296 Y111.934 E25.88576
G1 X154.546 Y114.395 E25.99273
G1 X154.284 Y115.098 E26.02392
G1 X153.232 Y117.48 E26.13218
G1 X152.895 Y118.137 E26.16288
G1 X151.588 Y120.347 E26.26962
G1 X151.171 Y120.964 E26.30058
G1 X149.604 Y123.011 E26.40776
G1 X149.126 Y123.565 E26.43818
G1 X147.341 Y125.404 E26.54473
G1 X146.788 Y125.909 E26.57587
G1 X144.775 Y127.538 E26.68353
G1 X144.179 Y127.965 E26.71401
G1 X142.026 Y129.324 E26.81986
G1 X141.378 Y129.681 E26.85062
G1 X138.914 Y130.854 E26.96408
G1 X138.324 Y131.087 E26.99045
G1 X135.9 Y131.904 E27.0968
G1 X135.194 Y132.096 E27.12722
G1 X132.691 Y132.624 E27.23357
G1 X132.404 Y132.678 E27.24571
G1 X131.933 Y132.738 E27.26545
G1 X129.378 Y132.966 E27.3721
G1 X128.637 Y132.988 E27.40292
G1 X126.076 Y132.912 E27.50944
G1 X125.718 Y132.891 E27.52435
G1 X125.315 Y132.845 E27.54121
G1 X122.781 Y132.467 E27.64773
G1 X122.057 Y132.314 E27.6785
G1 X119.559 Y131.632 E27.78615
G1 X118.849 Y131.392 E27.81731
G1 X116.458 Y130.419 E27.92463
G1 X115.796 Y130.103 E27.95513
G1 X113.538 Y128.858 E28.06233
G1 X112.911 Y128.462 E28.09316
G1 X110.827 Y126.966 E28.19982
G1 X110.252 Y126.499 E28.23062
G1 X108.34 Y124.749 E28.33838
G1 X107.825 Y124.218 E28.36913
G1 X106.153 Y122.277 E28.47564
G1 X105.701 Y121.685 E28.50661
G1 X104.256 Y119.536 E28.61427
G1 X103.883 Y118.903 E28.64482
G1 X102.717 Y116.631 E28.75099
G1 X102.417 Y115.951 E28.78189
G1 X101.512 Y113.512 E28.89005
G1 X101.298 Y112.81 E28.92056
G1 X100.699 Y110.338 E29.02631
G1 X100.567 Y109.606 E29.05723
G1 X100.261 Y107.039 E29.16471
G1 X100.238 Y106.817 E29.17399
G1 X100.215 Y106.276 E29.1965
G1 X100.215 Y103.726 E29.30252
G1 X100.258 Y102.992 E29.33309
G1 X100.562 Y100.423 E29.44064
G1 X100.615 Y100.063 E29.45577
G1 X100.699 Y99.662 E29.4728
G1 X101.303 Y97.169 E29.57944
G1 X101.519 Y96.462 E29.61018
G1 X102.419 Y94.043 E29.71749
G1 X102.719 Y93.364 E29.74835
G1 X103.897 Y91.073 E29.85545
G1 X104.269 Y90.442 E29.8859
G1 X105.702 Y88.312 E29.99263
G1 X106.154 Y87.721 E30.02357
G0 F6000 X106.532 Y88.047
G1 F600 X108.204 Y86.107 E30.13005
G1 X108.679 Y85.618 E30.15839
G1 X110.587 Y83.873 E30.26589
G1 X111.114 Y83.446 E30.29409
G1 X113.218 Y81.935 E30.40178
G1 X113.796 Y81.57 E30.4302
G1 X116.038 Y80.334 E30.53664
G1 X116.647 Y80.043 E30.5647
G1 X119.038 Y79.07 E30.67202
G1 X119.693 Y78.848 E30.70077
G1 X122.191 Y78.167 E30.80842
G1 X122.855 Y78.028 E30.83662
G1 X125.389 Y77.65 E30.94314
G1 X126.063 Y77.59 E30.97127
G1 X128.635 Y77.512 E31.07825
G1 X128.832 Y77.509 E31.08645
G1 X129.345 Y77.532 E31.10779
G1 X131.89 Y77.76 E31.21403
G1 X132.561 Y77.86 E31.24223
G1 X135.089 Y78.392 E31.34964
G1 X135.74 Y78.57 E31.3777
G1 X138.172 Y79.389 E31.48439
G1 X138.811 Y79.647 E31.51304
G1 X141.163 Y80.768 E31.62136
G1 X141.761 Y81.099 E31.64978
G1 X143.933 Y82.472 E31.75661
G1 X144.483 Y82.866 E31.78473
G1 X146.471 Y84.478 E31.89114
G1 X146.976 Y84.941 E31.91963
G1 X148.784 Y86.805 E32.02759
G1 X149.224 Y87.315 E32.05559
G1 X150.779 Y89.348 E32.16201
G1 X151.165 Y89.92 E32.1907
G1 X152.489 Y92.165 E32.29905
G1 X152.798 Y92.767 E32.32719
G1 X153.833 Y95.115 E32.43387
G1 X154.073 Y95.763 E32.4626
G1 X154.824 Y98.236 E32.57005
G1 X154.981 Y98.887 E32.59789
G1 X155.433 Y101.395 E32.70384
G1 X155.514 Y102.076 E32.73235
G1 X155.666 Y104.648 E32.83947
G1 X155.676 Y105.012 E32.85461
G1 X155.666 Y105.351 E32.86871
G1 X155.514 Y107.921 E32.97575
G1 X155.432 Y108.604 E33.00435
G1 X154.975 Y111.134 E33.11123
G1 X154.817 Y111.788 E33.13921
G1 X154.067 Y114.249 E33.24617
G1 X153.827 Y114.896 E33.27486
G1 X152.775 Y117.278 E33.38312
G1 X152.464 Y117.882 E33.41136
G1 X151.157 Y120.092 E33.51811
G1 X150.774 Y120.66 E33.54659
G1 X149.207 Y122.707 E33.65377
G1 X148.767 Y123.217 E33.68177
