;FLAVOR:Marlin
;TIME:2062
;Filament used: 1.51759m
;Layer height: 0.2
;MINX:73.316
;MINY:50.816
;MINZ:0.2
;MAXX:181.684
;MAXY:159.184
;MAXZ:4
;Generated with Cura_SteamEngine master
M140 S60
M105
M190 S60
M104 S200
M105
M109 S200
M82 ;absolute extrusion mode
M220 S100 ;reset feedrate
M221 S100 ;reset flowrate
G90 ;use absolute coordinates
M82 ;absolute extrusion mode
G28 ;home
G1 Z2 F1500 ;raise z
G92 E0 ;reset extruder

G1 X75 Y5 F5000 ;start position
G1 Z0.28 F1500 ;lower z
G1 E4 F500 ;prime the filament
G1 X180 E10 F500 ;1st line
G1 Y5.4 F5000
G1 X75 E20 F500 ;2nd line
G1 Z2 F1500 ;raise z
G92 E0 ;reset extruder
G92 E0
G92 E0
G1 F1500 E-6.5
;LAYER_COUNT:20
;LAYER:0
M107
G0 F9000 X85.692 Y70.534 Z0.2
;TYPE:SKIRT
G1 F1500 E0
G1 F1800 X85.995 Y70.168 E0.01975
G1 X86.699 Y69.352 E0.06456
G1 X87.417 Y68.543 E0.10953
G1 X87.591 Y68.351 E0.1203
G1 X87.875 Y68.047 E0.1376
G1 X88.625 Y67.26 E0.1828
G1 X89.218 Y66.654 E0.21805
G1 X89.419 Y66.454 E0.22984
G1 X89.754 Y66.129 E0.24924
G1 X90.519 Y65.403 E0.29309
G1 X91.167 Y64.803 E0.32981
G1 X91.372 Y64.618 E0.34129
G1 X91.719 Y64.313 E0.36049
G1 X92.487 Y63.651 E0.40265
G1 X93.174 Y63.076 E0.43989
G1 X93.375 Y62.912 E0.45068
G1 X93.766 Y62.6 E0.47148
G1 X94.597 Y61.953 E0.51526
G1 X95.267 Y61.445 E0.55022
G1 X95.49 Y61.281 E0.56173
G1 X95.86 Y61.015 E0.58067
G1 X96.716 Y60.414 E0.62416
G1 X97.46 Y59.906 E0.66161
G1 X97.682 Y59.759 E0.67268
G1 X98.082 Y59.5 E0.69249
G1 X98.972 Y58.938 E0.73625
G1 X99.72 Y58.48 E0.77272
G1 X99.952 Y58.342 E0.78394
G1 X100.28 Y58.152 E0.7997
G1 X101.276 Y57.588 E0.84729
G1 X101.991 Y57.196 E0.88119
G1 X102.228 Y57.07 E0.89235
G1 X102.684 Y56.835 E0.91368
G1 X103.612 Y56.369 E0.95685
G1 X104.395 Y55.989 E0.99303
G1 X104.642 Y55.873 E1.00438
G1 X105.058 Y55.684 E1.02338
G1 X105.999 Y55.269 E1.06613
G1 X106.831 Y54.914 E1.10374
G1 X107.097 Y54.804 E1.11571
G1 X107.492 Y54.648 E1.13336
G1 X108.442 Y54.281 E1.17571
G1 X109.348 Y53.947 E1.21585
G1 X109.596 Y53.859 E1.22679
G1 X110.002 Y53.721 E1.24462
G1 X110.983 Y53.397 E1.28757
G1 X111.822 Y53.132 E1.32415
G1 X112.114 Y53.044 E1.33683
G1 X112.497 Y52.935 E1.35339
G1 X113.569 Y52.64 E1.39961
G1 X114.391 Y52.425 E1.43494
G1 X114.659 Y52.358 E1.44642
G1 X115.091 Y52.257 E1.46487
G1 X115.987 Y52.055 E1.50305
G1 X116.994 Y51.844 E1.54583
G1 X117.243 Y51.795 E1.55638
G1 X117.728 Y51.706 E1.57688
G1 X118.614 Y51.552 E1.61427
G1 X119.604 Y51.394 E1.65595
G1 X119.873 Y51.354 E1.66725
G1 X120.311 Y51.296 E1.68562
G1 X121.406 Y51.162 E1.73149
G1 X122.249 Y51.071 E1.76674
G1 X122.509 Y51.046 E1.7776
G1 X122.988 Y51.006 E1.79758
G1 X124.036 Y50.929 E1.84127
G1 X124.904 Y50.878 E1.87742
G1 X125.168 Y50.866 E1.88841
G1 X125.645 Y50.85 E1.90825
G1 X126.677 Y50.825 E1.95117
G1 X127.561 Y50.816 E1.98792
G1 X127.857 Y50.816 E2.00023
G1 X128.323 Y50.824 E2.01961
G1 X129.385 Y50.851 E2.06377
G1 X130.188 Y50.882 E2.09718
G1 X130.481 Y50.898 E2.10938
G1 X130.993 Y50.931 E2.13071
G1 X131.785 Y50.989 E2.16373
G1 X132.892 Y51.086 E2.20993
G1 X133.171 Y51.114 E2.22159
G1 X133.63 Y51.166 E2.24079
G1 X134.648 Y51.292 E2.28344
G1 X135.501 Y51.409 E2.31923
G1 X135.8 Y51.454 E2.3318
G1 X136.228 Y51.525 E2.34984
G1 X137.235 Y51.701 E2.39234
G1 X138.162 Y51.876 E2.43156
G1 X138.415 Y51.927 E2.44229
G1 X138.886 Y52.028 E2.46232
G1 X139.806 Y52.235 E2.50153
G1 X140.748 Y52.459 E2.54178
G1 X141.068 Y52.54 E2.55551
G1 X141.393 Y52.628 E2.5695
G1 X142.474 Y52.928 E2.61614
G1 X143.274 Y53.162 E2.6508
G1 X143.532 Y53.241 E2.66202
G1 X144.013 Y53.395 E2.68301
G1 X144.939 Y53.703 E2.72359
G1 X145.865 Y54.024 E2.76433
G1 X146.135 Y54.121 E2.77626
G1 X146.456 Y54.242 E2.79052
G1 X147.442 Y54.623 E2.83447
G1 X148.309 Y54.972 E2.87333
G1 X148.547 Y55.071 E2.88404
G1 X148.995 Y55.264 E2.90432
G1 X149.887 Y55.661 E2.94492
G1 X150.722 Y56.045 E2.98313
G1 X150.968 Y56.162 E2.99445
G1 X151.413 Y56.38 E3.01505
G1 X152.305 Y56.83 E3.05659
G1 X153.114 Y57.252 E3.09453
G1 X153.347 Y57.377 E3.10552
G1 X153.726 Y57.588 E3.12355
G1 X154.654 Y58.115 E3.16792
G1 X155.426 Y58.567 E3.20511
G1 X155.674 Y58.716 E3.21714
G1 X156.016 Y58.929 E3.23389
G1 X156.883 Y59.479 E3.27658
G1 X157.684 Y60.002 E3.31635
G1 X157.92 Y60.161 E3.32818
G1 X158.232 Y60.377 E3.34396
G1 X159.118 Y61.001 E3.38901
G1 X159.841 Y61.526 E3.42616
G1 X160.058 Y61.687 E3.4374
G1 X160.391 Y61.942 E3.45483
G1 X161.223 Y62.592 E3.49873
G1 X161.917 Y63.149 E3.53573
G1 X162.172 Y63.36 E3.54949
G1 X163.132 Y64.185 E3.60211
G1 X163.954 Y64.913 E3.64776
G1 X164.155 Y65.096 E3.65906
G1 X164.461 Y65.382 E3.67648
G1 X165.236 Y66.121 E3.721
G1 X165.828 Y66.7 E3.75543
G1 X166.023 Y66.896 E3.76692
G1 X166.375 Y67.259 E3.78794
G1 X167.081 Y68.003 E3.83058
G1 X167.695 Y68.666 E3.86815
G1 X167.868 Y68.857 E3.87887
G1 X168.186 Y69.218 E3.89887
G1 X168.841 Y69.98 E3.94064
G1 X169.45 Y70.707 E3.98007
G1 X169.607 Y70.898 E3.99035
G1 X169.858 Y71.213 E4.0071
G1 X170.525 Y72.069 E4.05221
G1 X171.071 Y72.789 E4.08978
G1 X171.229 Y73.003 E4.10084
G1 X171.463 Y73.329 E4.11752
G1 X172.084 Y74.214 E4.16247
G1 X172.593 Y74.959 E4.19999
G1 X172.744 Y75.186 E4.21132
G1 X172.977 Y75.546 E4.22915
G1 X173.455 Y76.299 E4.26623
G1 X174.02 Y77.22 E4.31115
G1 X174.158 Y77.451 E4.32234
G1 X174.347 Y77.777 E4.33801
G1 X174.902 Y78.757 E4.38483
G1 X175.307 Y79.497 E4.4199
G1 X175.429 Y79.727 E4.43073
G1 X175.662 Y80.178 E4.45183
G1 X176.128 Y81.105 E4.49497
G1 X176.511 Y81.894 E4.53143
G1 X176.76 Y82.433 E4.55611
G1 X177.231 Y83.496 E4.60445
G1 X177.587 Y84.33 E4.64215
G1 X177.697 Y84.598 E4.6542
G1 X177.856 Y85 E4.67217
G1 X178.219 Y85.942 E4.71414
G1 X178.553 Y86.848 E4.75429
G1 X178.641 Y87.096 E4.76523
G1 X178.781 Y87.507 E4.78328
G1 X179.098 Y88.469 E4.82539
G1 X179.366 Y89.316 E4.86232
G1 X179.456 Y89.614 E4.87527
G1 X179.565 Y89.999 E4.8919
G1 X179.859 Y91.067 E4.93796
G1 X180.075 Y91.893 E4.97345
G1 X180.145 Y92.177 E4.98561
G1 X180.242 Y92.592 E5.00333
G1 X180.469 Y93.607 E5.04657
G1 X180.651 Y94.473 E5.08336
G1 X180.705 Y94.743 E5.09481
G1 X180.794 Y95.228 E5.11531
G1 X180.944 Y96.091 E5.15173
G1 X181.105 Y97.097 E5.19409
G1 X181.146 Y97.372 E5.20564
G1 X181.205 Y97.819 E5.22439
G1 X181.335 Y98.884 E5.269
G1 X181.428 Y99.738 E5.30471
G1 X181.454 Y100.009 E5.31603
G1 X181.494 Y100.488 E5.33601
G1 X181.571 Y101.536 E5.3797
G1 X181.622 Y102.404 E5.41585
G1 X181.634 Y102.668 E5.42684
G1 X181.65 Y103.145 E5.44668
G1 X181.675 Y104.177 E5.4896
G1 X181.684 Y105.061 E5.52635
G1 X181.684 Y105.357 E5.53866
G1 X181.676 Y105.824 E5.55808
G1 X181.649 Y106.883 E5.60212
G1 X181.618 Y107.687 E5.63557
G1 X181.602 Y107.981 E5.64781
G1 X181.569 Y108.493 E5.66914
G1 X181.511 Y109.285 E5.70216
G1 X181.414 Y110.392 E5.74836
G1 X181.386 Y110.671 E5.76002
G1 X181.334 Y111.128 E5.77914
G1 X181.211 Y112.123 E5.82082
G1 X181.091 Y112.999 E5.85758
G1 X181.046 Y113.3 E5.87024
G1 X180.975 Y113.726 E5.88819
G1 X180.829 Y114.569 E5.92376
G1 X180.623 Y115.664 E5.97008
G1 X180.573 Y115.915 E5.98072
G1 X180.473 Y116.383 E6.00062
G1 X180.259 Y117.331 E6.04103
G1 X180.036 Y118.263 E6.08087
G1 X179.915 Y118.736 E6.10117
G1 X179.618 Y119.811 E6.14753
G1 X179.339 Y120.771 E6.1891
G1 X179.259 Y121.033 E6.20049
G1 X179.104 Y121.518 E6.22165
G1 X178.794 Y122.449 E6.26245
G1 X178.475 Y123.368 E6.30289
G1 X178.295 Y123.857 E6.32456
G1 X177.941 Y124.78 E6.36566
G1 X177.528 Y125.809 E6.41176
G1 X177.441 Y126.02 E6.42124
G1 X177.232 Y126.507 E6.44328
G1 X176.839 Y127.387 E6.48335
G1 X176.455 Y128.222 E6.52156
G1 X176.333 Y128.48 E6.53342
G1 X176.123 Y128.907 E6.5532
G1 X175.67 Y129.805 E6.59502
G1 X175.248 Y130.614 E6.63296
G1 X175.123 Y130.847 E6.64395
G1 X174.915 Y131.222 E6.66178
G1 X174.384 Y132.157 E6.70648
G1 X173.931 Y132.93 E6.74373
G1 X173.805 Y133.14 E6.75391
G1 X173.567 Y133.524 E6.7727
G1 X173.017 Y134.389 E6.81531
G1 X172.494 Y135.189 E6.85505
G1 X172.291 Y135.49 E6.87014
G1 X171.607 Y136.466 E6.91969
G1 X170.977 Y137.336 E6.96435
G1 X170.641 Y137.782 E6.98757
G1 X170.02 Y138.579 E7.02957
G1 X169.306 Y139.469 E7.07701
G1 X168.991 Y139.848 E7.0975
G1 X168.211 Y140.751 E7.14711
G1 X167.586 Y141.455 E7.18625
G1 X167.409 Y141.65 E7.1972
G1 X167.12 Y141.959 E7.21479
G1 X166.377 Y142.738 E7.25954
G1 X165.781 Y143.347 E7.29497
G1 X165.581 Y143.546 E7.3067
G1 X165.242 Y143.875 E7.32634
G1 X164.6 Y144.485 E7.36316
G1 X163.826 Y145.201 E7.40699
G1 X163.648 Y145.363 E7.417
G1 X163.274 Y145.693 E7.43774
G1 X162.517 Y146.344 E7.47925
G1 X161.831 Y146.919 E7.51646
G1 X161.632 Y147.082 E7.52716
G1 X161.244 Y147.391 E7.54778
G1 X160.404 Y148.046 E7.59206
G1 X159.728 Y148.558 E7.62732
G1 X159.51 Y148.719 E7.63859
G1 X159.14 Y148.985 E7.65753
G1 X158.286 Y149.584 E7.7009
G1 X157.541 Y150.093 E7.73841
G1 X157.325 Y150.237 E7.74921
G1 X156.919 Y150.5 E7.76932
G1 X156.052 Y151.048 E7.81196
G1 X155.287 Y151.517 E7.84927
G1 X155.032 Y151.669 E7.86161
G1 X154.716 Y151.851 E7.87677
G1 X153.72 Y152.414 E7.92433
G1 X153.006 Y152.805 E7.95818
G1 X152.762 Y152.935 E7.96967
G1 X152.328 Y153.158 E7.98996
G1 X151.395 Y153.628 E8.03339
G1 X150.606 Y154.011 E8.06986
G1 X150.358 Y154.127 E8.08124
G1 X149.951 Y154.312 E8.09983
G1 X149 Y154.733 E8.14307
G1 X148.165 Y155.089 E8.1808
G1 X147.92 Y155.19 E8.19182
G1 X147.487 Y155.362 E8.21119
G1 X146.561 Y155.717 E8.25242
G1 X145.656 Y156.051 E8.29253
G1 X145.404 Y156.141 E8.30365
G1 X144.99 Y156.282 E8.32184
G1 X144.019 Y156.601 E8.36433
G1 X143.181 Y156.866 E8.40087
G1 X142.895 Y156.953 E8.4133
G1 X142.503 Y157.065 E8.43025
G1 X141.424 Y157.362 E8.47678
G1 X140.6 Y157.577 E8.51218
G1 X140.329 Y157.644 E8.52379
G1 X139.901 Y157.744 E8.54206
G1 X138.855 Y157.978 E8.58662
G1 X138.027 Y158.152 E8.6218
G1 X137.757 Y158.205 E8.63324
G1 X137.272 Y158.294 E8.65374
G1 X136.23 Y158.474 E8.6977
G1 X135.402 Y158.606 E8.73256
G1 X135.125 Y158.646 E8.7442
G1 X134.686 Y158.705 E8.76261
G1 X133.595 Y158.838 E8.80831
G1 X132.754 Y158.929 E8.84348
G1 X132.491 Y158.954 E8.85446
G1 X132.012 Y158.994 E8.87444
G1 X130.963 Y159.071 E8.91817
G1 X130.094 Y159.122 E8.95436
G1 X129.832 Y159.134 E8.96527
G1 X129.355 Y159.15 E8.98511
G1 X128.323 Y159.175 E9.02803
G1 X127.439 Y159.184 E9.06478
G1 X127.143 Y159.184 E9.07709
G1 X126.677 Y159.176 E9.09647
G1 X125.615 Y159.149 E9.14063
G1 X124.812 Y159.118 E9.17404
G1 X124.519 Y159.102 E9.18624
G1 X124.007 Y159.069 E9.20757
G1 X123.215 Y159.011 E9.24059
G1 X122.108 Y158.914 E9.28679
G1 X121.829 Y158.886 E9.29845
G1 X121.37 Y158.834 E9.31765
G1 X120.352 Y158.708 E9.3603
G1 X119.499 Y158.591 E9.39609
G1 X119.2 Y158.546 E9.40866
G1 X118.772 Y158.475 E9.4267
G1 X117.765 Y158.299 E9.4692
G1 X116.838 Y158.124 E9.50842
G1 X116.585 Y158.073 E9.51915
G1 X116.117 Y157.973 E9.53905
G1 X115.18 Y157.762 E9.57898
G1 X114.248 Y157.54 E9.61881
G1 X113.932 Y157.46 E9.63237
G1 X113.607 Y157.372 E9.64636
G1 X112.526 Y157.072 E9.69301
G1 X111.726 Y156.838 E9.72766
G1 X111.468 Y156.759 E9.73888
G1 X110.991 Y156.606 E9.7597
G1 X110.05 Y156.294 E9.80092
G1 X109.131 Y155.975 E9.84136
G1 X108.865 Y155.879 E9.85312
G1 X108.544 Y155.758 E9.86738
G1 X107.558 Y155.377 E9.91133
G1 X106.691 Y155.028 E9.95019
G1 X106.453 Y154.929 E9.9609
G1 X106.005 Y154.736 E9.98118
G1 X105.112 Y154.339 E10.02182
G1 X104.275 Y153.954 E10.06012
G1 X104.031 Y153.838 E10.07135
G1 X103.582 Y153.617 E10.09216
G1 X102.696 Y153.17 E10.13341
G1 X101.89 Y152.75 E10.1712
G1 X101.653 Y152.623 E10.18238
G1 X101.274 Y152.412 E10.20041
G1 X100.346 Y151.885 E10.24478
G1 X99.574 Y151.433 E10.28198
G1 X99.326 Y151.284 E10.294
G1 X98.986 Y151.072 E10.31066
G1 X98.113 Y150.518 E10.35365
G1 X97.314 Y149.996 E10.39333
G1 X97.08 Y149.839 E10.40504
G1 X96.762 Y149.619 E10.42112
G1 X95.877 Y148.995 E10.46614
G1 X95.163 Y148.477 E10.50281
G1 X94.942 Y148.313 E10.51426
G1 X94.609 Y148.058 E10.53169
G1 X93.9 Y147.505 E10.56908
G1 X93.076 Y146.843 E10.61302
G1 X92.846 Y146.654 E10.6254
G1 X92.501 Y146.36 E10.64424
G1 X91.735 Y145.699 E10.68631
G1 X91.043 Y145.084 E10.7248
G1 X90.844 Y144.903 E10.73598
G1 X90.538 Y144.617 E10.75339
G1 X89.761 Y143.876 E10.79803
G1 X89.153 Y143.281 E10.8334
G1 X88.954 Y143.081 E10.84513
G1 X88.625 Y142.742 E10.86477
G1 X87.916 Y141.994 E10.90762
G1 X87.304 Y141.333 E10.94507
G1 X87.132 Y141.143 E10.95573
G1 X86.815 Y140.783 E10.97567
G1 X86.157 Y140.018 E11.01762
G1 X85.549 Y139.292 E11.05699
G1 X85.393 Y139.102 E11.06721
G1 X85.142 Y138.787 E11.08396
G1 X84.475 Y137.931 E11.12907
G1 X83.929 Y137.211 E11.16664
G1 X83.771 Y136.997 E11.1777
G1 X83.537 Y136.672 E11.19435
G1 X82.895 Y135.757 E11.24082
G1 X82.403 Y135.036 E11.27711
G1 X82.258 Y134.817 E11.28803
G1 X82.002 Y134.421 E11.30764
G1 X81.449 Y133.546 E11.35067
G1 X80.981 Y132.782 E11.38792
G1 X80.842 Y132.549 E11.3992
G1 X80.649 Y132.216 E11.4152
G1 X80.088 Y131.224 E11.46258
G1 X79.696 Y130.509 E11.49648
G1 X79.564 Y130.261 E11.50816
G1 X79.338 Y129.822 E11.52869
G1 X78.872 Y128.895 E11.57183
G1 X78.489 Y128.106 E11.60829
G1 X78.373 Y127.858 E11.61967
G1 X78.188 Y127.451 E11.63826
G1 X77.829 Y126.642 E11.67506
G1 X77.411 Y125.663 E11.71931
G1 X77.303 Y125.402 E11.73106
G1 X77.144 Y125 E11.74903
G1 X76.781 Y124.058 E11.791
G1 X76.447 Y123.152 E11.83115
G1 X76.359 Y122.904 E11.84209
G1 X76.219 Y122.494 E11.8601
G1 X75.897 Y121.516 E11.90291
G1 X75.632 Y120.677 E11.93949
G1 X75.547 Y120.395 E11.95173
G1 X75.435 Y120.003 E11.96868
G1 X75.139 Y118.928 E12.01504
G1 X74.924 Y118.105 E12.0504
G1 X74.855 Y117.823 E12.06247
G1 X74.758 Y117.41 E12.08011
G1 X74.519 Y116.344 E12.12553
G1 X74.346 Y115.517 E12.16066
G1 X74.295 Y115.257 E12.17167
G1 X74.206 Y114.772 E12.19217
G1 X74.026 Y113.728 E12.23622
G1 X73.894 Y112.899 E12.27112
G1 X73.854 Y112.628 E12.28251
G1 X73.796 Y112.188 E12.30096
G1 X73.662 Y111.095 E12.34674
G1 X73.571 Y110.253 E12.38195
G1 X73.546 Y109.991 E12.39289
G1 X73.506 Y109.506 E12.41312
G1 X73.428 Y108.445 E12.45736
G1 X73.378 Y107.596 E12.49271
G1 X73.366 Y107.332 E12.5037
G1 X73.349 Y106.848 E12.52384
G1 X73.327 Y105.966 E12.56052
G1 X73.316 Y104.942 E12.60309
G1 X73.316 Y104.643 E12.61552
G1 X73.324 Y104.177 E12.6349
G1 X73.351 Y103.115 E12.67907
G1 X73.382 Y102.312 E12.71248
G1 X73.398 Y102.019 E12.72468
G1 X73.432 Y101.501 E12.74626
G1 X73.507 Y100.498 E12.78807
G1 X73.586 Y99.605 E12.82535
G1 X73.614 Y99.329 E12.83688
G1 X73.666 Y98.87 E12.85609
G1 X73.792 Y97.852 E12.89873
G1 X73.909 Y96.999 E12.93453
G1 X73.954 Y96.7 E12.9471
G1 X74.027 Y96.263 E12.96552
G1 X74.209 Y95.224 E13.00937
G1 X74.376 Y94.339 E13.04682
G1 X74.427 Y94.085 E13.05759
G1 X74.527 Y93.617 E13.07748
G1 X74.738 Y92.68 E13.11741
G1 X74.96 Y91.748 E13.15725
G1 X75.04 Y91.432 E13.1708
G1 X75.128 Y91.107 E13.1848
G1 X75.428 Y90.026 E13.23144
G1 X75.662 Y89.226 E13.26609
G1 X75.741 Y88.968 E13.27731
G1 X75.897 Y88.482 E13.29853
G1 X76.22 Y87.511 E13.34108
G1 X76.525 Y86.632 E13.37976
G1 X76.621 Y86.365 E13.39155
G1 X76.742 Y86.044 E13.40582
G1 X77.123 Y85.058 E13.44976
G1 X77.472 Y84.191 E13.48862
G1 X77.571 Y83.953 E13.49934
G1 X77.764 Y83.505 E13.51962
G1 X78.164 Y82.605 E13.56056
G1 X78.557 Y81.752 E13.59961
G1 X78.668 Y81.519 E13.61034
G1 X78.88 Y81.087 E13.63035
G1 X79.328 Y80.2 E13.67166
G1 X79.749 Y79.392 E13.70954
G1 X79.883 Y79.142 E13.72133
G1 X80.09 Y78.77 E13.73903
G1 X80.629 Y77.821 E13.78441
G1 X81.067 Y77.073 E13.82044
G1 X81.216 Y76.826 E13.83244
G1 X81.429 Y76.484 E13.84919
G1 X81.979 Y75.617 E13.89187
G1 X82.502 Y74.816 E13.93165
G1 X82.661 Y74.58 E13.94348
G1 X82.881 Y74.262 E13.95955
G1 X83.523 Y73.351 E14.00589
G1 X84.026 Y72.659 E14.04146
G1 X84.182 Y72.45 E14.0523
G1 X84.449 Y72.101 E14.07057
G1 X85.08 Y71.295 E14.11313
G1 X85.692 Y70.534 E14.15373
G0 F9000 X86.082 Y70.847
G1 F1800 X86.379 Y70.489 E14.17307
G1 X87.169 Y69.574 E14.22332
G1 X87.79 Y68.875 E14.2622
G1 X88.158 Y68.476 E14.28476
G1 X88.875 Y67.721 E14.32805
G1 X89.576 Y67.003 E14.36977
G1 X89.767 Y66.813 E14.38097
G1 X90.098 Y66.492 E14.40014
G1 X90.858 Y65.77 E14.44372
G1 X91.506 Y65.17 E14.48044
G1 X91.703 Y64.993 E14.49145
G1 X92.046 Y64.691 E14.51045
G1 X92.808 Y64.034 E14.55228
G1 X93.495 Y63.459 E14.58953
G1 X93.98 Y63.069 E14.6154
G1 X94.78 Y62.443 E14.65763
G1 X95.569 Y61.844 E14.69882
G1 X95.782 Y61.687 E14.70982
