;FLAVOR:Marlin
;TIME:2062
;Filament used: 1.51798m
;Layer height: 0.2
;MINX:73.316
;MINY:50.816
;MINZ:0.2
;MAXX:181.684
;MAXY:159.184
;MAXZ:4
;Generated with Cura_SteamEngine master
M140 S60
M105
M190 S60
M104 S200
M105
M109 S200
M82 ;absolute extrusion mode
M220 S100 ;reset feedrate
M221 S100 ;reset flowrate
G90 ;use absolute coordinates
M82 ;absolute extrusion mode
G28 ;home
G1 Z2 F1500 ;raise z
G92 E0 ;reset extruder

G1 X75 Y5 F5000 ;start position
G1 Z0.28 F1500 ;lower z
G1 E4 F500 ;prime the filament
G1 X180 E10 F500 ;1st line
G1 Y5.4 F5000
G1 X75 E20 F500 ;2nd line
G1 Z2 F1500 ;raise z
G92 E0 ;reset extruder
G92 E0
G92 E0
G1 F1500 E-6.5
;LAYER_COUNT:20
;LAYER:0
M107
G0 F9000 X85.649 Y70.583 Z0.2
;TYPE:SKIRT
G1 F1500 E0
G1 F1800 X85.886 Y70.298 E0.01541
G1 X86.673 Y69.381 E0.06565
G1 X87.416 Y68.543 E0.11221
G1 X87.596 Y68.345 E0.12334
G1 X87.883 Y68.038 E0.14081
G1 X88.625 Y67.26 E0.18551
G1 X89.218 Y66.654 E0.22076
G1 X89.419 Y66.454 E0.23255
G1 X89.76 Y66.123 E0.2523
G1 X90.519 Y65.404 E0.29577
G1 X91.167 Y64.804 E0.33249
G1 X91.37 Y64.621 E0.34385
G1 X91.72 Y64.313 E0.36323
G1 X92.482 Y63.656 E0.40506
G1 X93.168 Y63.081 E0.44228
G1 X93.375 Y62.912 E0.45339
G1 X93.765 Y62.602 E0.4741
G1 X94.6 Y61.951 E0.51812
G1 X95.269 Y61.444 E0.55302
G1 X95.49 Y61.281 E0.56443
G1 X95.86 Y61.015 E0.58338
G1 X96.714 Y60.416 E0.62675
G1 X97.459 Y59.907 E0.66426
G1 X97.691 Y59.753 E0.67584
G1 X98.082 Y59.5 E0.6952
G1 X98.972 Y58.938 E0.73896
G1 X99.72 Y58.48 E0.77543
G1 X99.952 Y58.342 E0.78665
G1 X100.289 Y58.147 E0.80284
G1 X101.276 Y57.589 E0.84997
G1 X101.991 Y57.197 E0.88388
G1 X102.228 Y57.071 E0.89503
G1 X102.679 Y56.838 E0.91614
G1 X103.603 Y56.374 E0.95913
G1 X104.386 Y55.993 E0.99533
G1 X104.645 Y55.871 E1.00723
G1 X105.057 Y55.684 E1.02604
G1 X105.996 Y55.269 E1.06872
G1 X106.83 Y54.913 E1.10643
G1 X107.116 Y54.796 E1.11927
G1 X107.492 Y54.648 E1.13607
G1 X108.442 Y54.281 E1.17841
G1 X109.348 Y53.947 E1.21856
G1 X109.596 Y53.859 E1.2295
G1 X110.002 Y53.721 E1.24733
G1 X110.983 Y53.397 E1.29028
G1 X111.822 Y53.132 E1.32686
G1 X112.114 Y53.044 E1.33954
G1 X112.497 Y52.935 E1.35609
G1 X113.569 Y52.64 E1.40232
G1 X114.391 Y52.425 E1.43764
G1 X114.659 Y52.358 E1.44913
G1 X115.091 Y52.257 E1.46757
G1 X115.987 Y52.055 E1.50576
G1 X116.994 Y51.844 E1.54853
G1 X117.243 Y51.795 E1.55909
G1 X117.728 Y51.706 E1.57959
G1 X118.614 Y51.552 E1.61697
G1 X119.604 Y51.394 E1.65865
G1 X119.873 Y51.354 E1.66996
G1 X120.311 Y51.296 E1.68833
G1 X121.406 Y51.162 E1.73419
G1 X122.249 Y51.071 E1.76945
G1 X122.509 Y51.046 E1.78031
G1 X122.988 Y51.006 E1.80029
G1 X124.036 Y50.929 E1.84398
G1 X124.904 Y50.878 E1.88013
G1 X125.168 Y50.866 E1.89111
G1 X125.645 Y50.85 E1.91096
G1 X126.677 Y50.825 E1.95387
G1 X127.561 Y50.816 E1.99063
G1 X127.857 Y50.816 E2.00294
G1 X128.323 Y50.824 E2.02231
G1 X129.385 Y50.851 E2.06648
G1 X130.188 Y50.882 E2.09989
G1 X130.481 Y50.898 E2.11209
G1 X130.993 Y50.931 E2.13342
G1 X131.785 Y50.989 E2.16644
G1 X132.892 Y51.086 E2.21264
G1 X133.171 Y51.114 E2.22429
G1 X133.63 Y51.166 E2.2435
G1 X134.648 Y51.292 E2.28614
G1 X135.501 Y51.409 E2.32194
G1 X135.8 Y51.454 E2.33451
G1 X136.228 Y51.525 E2.35255
G1 X137.235 Y51.701 E2.39505
G1 X138.162 Y51.876 E2.43427
G1 X138.415 Y51.927 E2.445
G1 X138.886 Y52.028 E2.46503
G1 X139.806 Y52.235 E2.50423
G1 X140.748 Y52.459 E2.54449
G1 X141.068 Y52.54 E2.55821
G1 X141.393 Y52.628 E2.57221
G1 X142.474 Y52.928 E2.61885
G1 X143.274 Y53.162 E2.65351
G1 X143.532 Y53.241 E2.66472
G1 X144.013 Y53.395 E2.68572
G1 X144.939 Y53.703 E2.72629
G1 X145.865 Y54.024 E2.76704
G1 X146.135 Y54.121 E2.77897
G1 X146.456 Y54.242 E2.79323
G1 X147.442 Y54.623 E2.83718
G1 X148.309 Y54.972 E2.87603
G1 X148.547 Y55.071 E2.88675
G1 X148.995 Y55.264 E2.90703
G1 X149.887 Y55.661 E2.94762
G1 X150.722 Y56.045 E2.98583
G1 X150.968 Y56.162 E2.99716
G1 X151.413 Y56.38 E3.01776
G1 X152.305 Y56.83 E3.0593
G1 X153.114 Y57.252 E3.09723
G1 X153.347 Y57.377 E3.10823
G1 X153.726 Y57.588 E3.12626
G1 X154.654 Y58.115 E3.17063
G1 X155.426 Y58.567 E3.20782
G1 X155.674 Y58.716 E3.21985
G1 X156.016 Y58.929 E3.2366
G1 X156.883 Y59.479 E3.27929
G1 X157.684 Y60.002 E3.31906
G1 X157.92 Y60.161 E3.33089
G1 X158.232 Y60.377 E3.34667
G1 X159.118 Y61.001 E3.39172
G1 X159.841 Y61.526 E3.42887
G1 X160.058 Y61.687 E3.4401
G1 X160.391 Y61.942 E3.45754
G1 X161.223 Y62.592 E3.50144
G1 X161.917 Y63.149 E3.53843
G1 X162.172 Y63.36 E3.55219
G1 X163.132 Y64.185 E3.60482
G1 X163.954 Y64.913 E3.65047
G1 X164.155 Y65.096 E3.66177
G1 X164.461 Y65.382 E3.67918
G1 X165.236 Y66.121 E3.72371
G1 X165.828 Y66.7 E3.75813
G1 X166.023 Y66.896 E3.76963
G1 X166.375 Y67.259 E3.79065
G1 X167.081 Y68.003 E3.83329
G1 X167.695 Y68.666 E3.87086
G1 X167.879 Y68.87 E3.88228
G1 X168.187 Y69.22 E3.90166
G1 X168.844 Y69.982 E3.94349
G1 X169.419 Y70.668 E3.98071
G1 X169.588 Y70.875 E3.99182
G1 X169.896 Y71.261 E4.01235
G1 X170.425 Y71.938 E4.04807
G1 X171.054 Y72.767 E4.09133
G1 X171.219 Y72.99 E4.10287
G1 X171.485 Y73.36 E4.12181
G1 X172.084 Y74.214 E4.16518
G1 X172.593 Y74.959 E4.20269
G1 X172.75 Y75.195 E4.21448
G1 X172.977 Y75.547 E4.23189
G1 X173.456 Y76.302 E4.26906
G1 X174.02 Y77.221 E4.31389
G1 X174.158 Y77.452 E4.32508
G1 X174.349 Y77.782 E4.34093
G1 X174.898 Y78.752 E4.38727
G1 X175.304 Y79.493 E4.4224
G1 X175.429 Y79.728 E4.43347
G1 X175.662 Y80.179 E4.45457
G1 X176.123 Y81.096 E4.49724
G1 X176.507 Y81.885 E4.53372
G1 X176.629 Y82.145 E4.54566
G1 X176.816 Y82.557 E4.56448
G1 X177.231 Y83.496 E4.60716
G1 X177.587 Y84.33 E4.64486
G1 X177.704 Y84.616 E4.6577
G1 X177.852 Y84.992 E4.6745
G1 X178.219 Y85.942 E4.71685
G1 X178.553 Y86.848 E4.75699
G1 X178.739 Y87.382 E4.7805
G1 X179.054 Y88.332 E4.82211
G1 X179.367 Y89.32 E4.8652
G1 X179.456 Y89.614 E4.87797
G1 X179.564 Y89.996 E4.89447
G1 X179.859 Y91.066 E4.94062
G1 X180.075 Y91.892 E4.97612
G1 X180.142 Y92.159 E4.98756
G1 X180.243 Y92.593 E5.00609
G1 X180.473 Y93.618 E5.04976
G1 X180.654 Y94.483 E5.0865
G1 X180.705 Y94.743 E5.09752
G1 X180.794 Y95.231 E5.11814
G1 X180.969 Y96.246 E5.16096
G1 X181.105 Y97.098 E5.19683
G1 X181.145 Y97.363 E5.20797
G1 X181.205 Y97.818 E5.22706
G1 X181.335 Y98.884 E5.2717
G1 X181.428 Y99.739 E5.30746
G1 X181.454 Y100.009 E5.31874
G1 X181.494 Y100.487 E5.33868
G1 X181.571 Y101.535 E5.38237
G1 X181.622 Y102.403 E5.41852
G1 X181.634 Y102.668 E5.42955
G1 X181.65 Y103.145 E5.44939
G1 X181.675 Y104.177 E5.49231
G1 X181.684 Y105.06 E5.52902
G1 X181.684 Y105.356 E5.54132
G1 X181.676 Y105.822 E5.5607
G1 X181.649 Y106.884 E5.60487
G1 X181.618 Y107.688 E5.63832
G1 X181.602 Y107.984 E5.65064
G1 X181.569 Y108.493 E5.67185
G1 X181.498 Y109.45 E5.71175
G1 X181.415 Y110.392 E5.75106
G1 X181.386 Y110.672 E5.76277
G1 X181.334 Y111.132 E5.78201
G1 X181.211 Y112.12 E5.82341
G1 X181.091 Y112.997 E5.86021
G1 X181.046 Y113.3 E5.87294
G1 X180.975 Y113.728 E5.89098
G1 X180.829 Y114.57 E5.92651
G1 X180.623 Y115.663 E5.97275
G1 X180.574 Y115.908 E5.98314
G1 X180.473 Y116.383 E6.00333
G1 X180.262 Y117.32 E6.04326
G1 X180.04 Y118.252 E6.08309
G1 X179.968 Y118.538 E6.09535
G1 X179.871 Y118.898 E6.11085
G1 X179.577 Y119.956 E6.15651
G1 X179.339 Y120.771 E6.19181
G1 X179.256 Y121.041 E6.20355
G1 X179.106 Y121.509 E6.22398
G1 X178.794 Y122.45 E6.2652
G1 X178.475 Y123.369 E6.30564
G1 X178.295 Y123.858 E6.32731
G1 X177.939 Y124.785 E6.36859
G1 X177.528 Y125.809 E6.41446
G1 X177.434 Y126.036 E6.42468
G1 X177.231 Y126.508 E6.44604
G1 X176.84 Y127.383 E6.48589
G1 X176.457 Y128.217 E6.52404
G1 X176.333 Y128.48 E6.53613
G1 X176.123 Y128.907 E6.55591
G1 X175.67 Y129.805 E6.59773
G1 X175.248 Y130.614 E6.63566
G1 X175.123 Y130.847 E6.64666
G1 X174.915 Y131.222 E6.66449
G1 X174.384 Y132.157 E6.70919
G1 X173.931 Y132.93 E6.74644
G1 X173.805 Y133.14 E6.75662
G1 X173.567 Y133.524 E6.7754
G1 X173.017 Y134.389 E6.81802
G1 X172.494 Y135.189 E6.85776
G1 X172.291 Y135.49 E6.87285
G1 X171.607 Y136.466 E6.9224
G1 X170.977 Y137.336 E6.96706
G1 X170.826 Y137.539 E6.97758
G1 X170.558 Y137.891 E6.99597
G1 X169.903 Y138.729 E7.04019
G1 X169.346 Y139.422 E7.07716
G1 X169.155 Y139.653 E7.08962
G1 X168.856 Y140.004 E7.10879
G1 X168.212 Y140.749 E7.14973
G1 X167.589 Y141.451 E7.18875
G1 X167.404 Y141.655 E7.2002
G1 X167.118 Y141.961 E7.21761
G1 X166.377 Y142.738 E7.26225
G1 X165.781 Y143.347 E7.29768
G1 X165.581 Y143.546 E7.30941
G1 X165.242 Y143.875 E7.32905
G1 X164.6 Y144.485 E7.36587
G1 X163.826 Y145.201 E7.4097
G1 X163.648 Y145.363 E7.41971
G1 X163.274 Y145.693 E7.44045
G1 X162.517 Y146.344 E7.48196
G1 X161.831 Y146.919 E7.51917
G1 X161.632 Y147.082 E7.52987
G1 X161.244 Y147.391 E7.55049
G1 X160.404 Y148.046 E7.59477
G1 X159.728 Y148.558 E7.63003
G1 X159.51 Y148.719 E7.6413
G1 X159.14 Y148.985 E7.66024
G1 X158.286 Y149.584 E7.70361
G1 X157.541 Y150.093 E7.74112
G1 X157.325 Y150.237 E7.75191
G1 X156.919 Y150.5 E7.77203
G1 X156.052 Y151.048 E7.81467
G1 X155.287 Y151.517 E7.85197
G1 X155.032 Y151.669 E7.86432
G1 X154.716 Y151.851 E7.87948
G1 X153.72 Y152.414 E7.92704
G1 X153.006 Y152.805 E7.96089
G1 X152.762 Y152.935 E7.97238
G1 X152.328 Y153.158 E7.99267
G1 X151.395 Y153.628 E8.0361
G1 X150.606 Y154.011 E8.07257
G1 X150.358 Y154.127 E8.08395
G1 X149.951 Y154.312 E8.10254
G1 X149 Y154.733 E8.14578
G1 X148.165 Y155.089 E8.18351
G1 X147.92 Y155.19 E8.19453
G1 X147.487 Y155.362 E8.2139
G1 X146.561 Y155.717 E8.25513
G1 X145.656 Y156.051 E8.29524
G1 X145.404 Y156.141 E8.30636
G1 X144.99 Y156.282 E8.32455
G1 X144.019 Y156.601 E8.36704
G1 X143.181 Y156.866 E8.40358
G1 X142.895 Y156.953 E8.41601
G1 X142.503 Y157.065 E8.43296
G1 X141.424 Y157.362 E8.47949
G1 X140.6 Y157.577 E8.51489
G1 X140.329 Y157.644 E8.5265
G1 X139.901 Y157.744 E8.54477
G1 X138.855 Y157.978 E8.58933
G1 X138.027 Y158.152 E8.62451
G1 X137.757 Y158.205 E8.63595
G1 X137.272 Y158.294 E8.65645
G1 X136.23 Y158.474 E8.70041
G1 X135.402 Y158.606 E8.73527
G1 X135.125 Y158.646 E8.74691
G1 X134.686 Y158.705 E8.76532
G1 X133.595 Y158.838 E8.81102
G1 X132.754 Y158.929 E8.84619
G1 X132.491 Y158.954 E8.85717
G1 X132.012 Y158.994 E8.87715
G1 X130.963 Y159.071 E8.92088
G1 X130.094 Y159.122 E8.95707
G1 X129.832 Y159.134 E8.96798
G1 X129.355 Y159.15 E8.98782
G1 X128.323 Y159.175 E9.03074
G1 X127.439 Y159.184 E9.06749
G1 X127.143 Y159.184 E9.0798
G1 X126.677 Y159.176 E9.09918
G1 X125.615 Y159.149 E9.14334
G1 X124.812 Y159.118 E9.17675
G1 X124.519 Y159.102 E9.18895
G1 X124.007 Y159.069 E9.21028
G1 X123.215 Y159.011 E9.2433
G1 X122.108 Y158.914 E9.2895
G1 X121.829 Y158.886 E9.30116
G1 X121.37 Y158.834 E9.32036
G1 X120.352 Y158.708 E9.36301
G1 X119.499 Y158.591 E9.3988
G1 X119.2 Y158.546 E9.41137
G1 X118.772 Y158.475 E9.42941
G1 X117.765 Y158.299 E9.47191
G1 X116.838 Y158.124 E9.51113
G1 X116.585 Y158.073 E9.52186
G1 X116.117 Y157.973 E9.54176
G1 X115.18 Y157.762 E9.58169
G1 X114.248 Y157.54 E9.62152
G1 X113.932 Y157.46 E9.63508
G1 X113.607 Y157.372 E9.64907
G1 X112.526 Y157.072 E9.69572
G1 X111.726 Y156.838 E9.73037
G1 X111.468 Y156.759 E9.74159
G1 X110.991 Y156.606 E9.76241
G1 X110.05 Y156.294 E9.80363
G1 X109.131 Y155.975 E9.84407
G1 X108.865 Y155.879 E9.85583
G1 X108.544 Y155.758 E9.87009
G1 X107.558 Y155.377 E9.91404
G1 X106.691 Y155.028 E9.9529
G1 X106.453 Y154.929 E9.96361
G1 X106.005 Y154.736 E9.98389
G1 X105.112 Y154.339 E10.02452
G1 X104.275 Y153.954 E10.06283
G1 X104.031 Y153.838 E10.07406
G1 X103.582 Y153.617 E10.09487
G1 X102.696 Y153.17 E10.13612
G1 X101.89 Y152.75 E10.17391
G1 X101.653 Y152.623 E10.18509
G1 X101.274 Y152.412 E10.20312
G1 X100.346 Y151.885 E10.24749
G1 X99.574 Y151.433 E10.28469
G1 X99.326 Y151.284 E10.29671
G1 X98.986 Y151.072 E10.31337
G1 X98.113 Y150.518 E10.35636
G1 X97.314 Y149.996 E10.39604
G1 X97.08 Y149.839 E10.40775
G1 X96.762 Y149.619 E10.42383
G1 X95.877 Y148.995 E10.46885
G1 X95.163 Y148.477 E10.50552
G1 X94.942 Y148.313 E10.51697
G1 X94.609 Y148.058 E10.5344
G1 X93.9 Y147.505 E10.57179
G1 X93.076 Y146.843 E10.61573
G1 X92.846 Y146.654 E10.62811
G1 X92.501 Y146.36 E10.64695
G1 X91.735 Y145.699 E10.68902
G1 X91.043 Y145.084 E10.72751
G1 X90.844 Y144.903 E10.73869
G1 X90.538 Y144.617 E10.7561
G1 X89.761 Y143.876 E10.80074
G1 X89.153 Y143.281 E10.83611
G1 X88.954 Y143.081 E10.84784
G1 X88.625 Y142.742 E10.86748
G1 X87.916 Y141.994 E10.91033
G1 X87.304 Y141.333 E10.94778
G1 X87.121 Y141.13 E10.95914
G1 X86.815 Y140.782 E10.97841
G1 X86.152 Y140.013 E11.02062
G1 X85.579 Y139.329 E11.05772
G1 X85.412 Y139.125 E11.06868
G1 X85.101 Y138.735 E11.08942
G1 X84.458 Y137.909 E11.13294
G1 X83.946 Y137.234 E11.16816
G1 X83.775 Y137.003 E11.18011
G1 X83.516 Y136.641 E11.19862
G1 X82.895 Y135.757 E11.24353
G1 X82.403 Y135.036 E11.27982
G1 X82.258 Y134.817 E11.29074
G1 X81.999 Y134.418 E11.31052
G1 X81.538 Y133.69 E11.34634
G1 X80.98 Y132.779 E11.39076
G1 X80.842 Y132.548 E11.40194
G1 X80.649 Y132.215 E11.41795
G1 X80.086 Y131.219 E11.46551
G1 X79.695 Y130.505 E11.49936
G1 X79.571 Y130.272 E11.51033
G1 X79.338 Y129.821 E11.53144
G1 X78.877 Y128.904 E11.57411
G1 X78.493 Y128.115 E11.61059
G1 X78.371 Y127.855 E11.62253
G1 X78.186 Y127.447 E11.64115
G1 X77.763 Y126.489 E11.68469
G1 X77.411 Y125.663 E11.72202
G1 X77.296 Y125.384 E11.73457
G1 X77.148 Y125.008 E11.75137
G1 X76.781 Y124.058 E11.79371
G1 X76.447 Y123.152 E11.83385
G1 X76.359 Y122.904 E11.84479
G1 X76.221 Y122.498 E11.86262
G1 X75.897 Y121.517 E11.90557
G1 X75.632 Y120.678 E11.94215
G1 X75.544 Y120.386 E11.95483
G1 X75.435 Y120.003 E11.97139
G1 X75.14 Y118.931 E12.01761
G1 X74.925 Y118.109 E12.05294
G1 X74.858 Y117.841 E12.06442
G1 X74.757 Y117.409 E12.08287
G1 X74.555 Y116.513 E12.12106
G1 X74.344 Y115.506 E12.16383
G1 X74.295 Y115.257 E12.17438
G1 X74.206 Y114.772 E12.19488
G1 X74.052 Y113.886 E12.23227
G1 X73.894 Y112.896 E12.27395
G1 X73.854 Y112.627 E12.28526
G1 X73.796 Y112.189 E12.30363
G1 X73.662 Y111.094 E12.34949
G1 X73.571 Y110.251 E12.38474
G1 X73.546 Y109.991 E12.3956
G1 X73.506 Y109.506 E12.41583
G1 X73.429 Y108.446 E12.46002
G1 X73.379 Y107.598 E12.49534
G1 X73.366 Y107.332 E12.50641
G1 X73.349 Y106.848 E12.52654
G1 X73.327 Y105.966 E12.56322
G1 X73.316 Y104.942 E12.6058
G1 X73.316 Y104.643 E12.61823
G1 X73.324 Y104.177 E12.63761
G1 X73.351 Y103.115 E12.68177
G1 X73.382 Y102.312 E12.71518
G1 X73.398 Y102.019 E12.72738
G1 X73.432 Y101.501 E12.74897
G1 X73.507 Y100.498 E12.79078
G1 X73.586 Y99.605 E12.82805
G1 X73.614 Y99.329 E12.83959
G1 X73.666 Y98.87 E12.85879
G1 X73.792 Y97.852 E12.90144
G1 X73.909 Y96.999 E12.93723
G1 X73.954 Y96.7 E12.94981
G1 X74.027 Y96.263 E12.96823
G1 X74.209 Y95.224 E13.01208
G1 X74.376 Y94.339 E13.04952
G1 X74.427 Y94.085 E13.06029
G1 X74.527 Y93.617 E13.08019
G1 X74.738 Y92.68 E13.12012
G1 X74.96 Y91.748 E13.15995
G1 X75.04 Y91.432 E13.17351
G1 X75.128 Y91.107 E13.18751
G1 X75.428 Y90.026 E13.23415
G1 X75.662 Y89.226 E13.2688
G1 X75.741 Y88.968 E13.28002
G1 X75.897 Y88.482 E13.30124
G1 X76.22 Y87.511 E13.34378
G1 X76.525 Y86.632 E13.38247
G1 X76.621 Y86.365 E13.39426
G1 X76.742 Y86.044 E13.40852
G1 X77.123 Y85.058 E13.45247
G1 X77.472 Y84.191 E13.49133
G1 X77.571 Y83.953 E13.50204
G1 X77.764 Y83.505 E13.52232
G1 X78.164 Y82.605 E13.56327
G1 X78.557 Y81.752 E13.60232
G1 X78.668 Y81.519 E13.61305
G1 X78.88 Y81.087 E13.63305
G1 X79.328 Y80.2 E13.67437
G1 X79.749 Y79.392 E13.71225
G1 X79.883 Y79.142 E13.72404
G1 X80.09 Y78.77 E13.74174
G1 X80.629 Y77.821 E13.78711
G1 X81.067 Y77.073 E13.82315
G1 X81.216 Y76.826 E13.83514
G1 X81.429 Y76.484 E13.8519
G1 X81.979 Y75.617 E13.89458
G1 X82.502 Y74.816 E13.93435
G1 X82.661 Y74.58 E13.94619
G1 X82.881 Y74.262 E13.96226
G1 X83.519 Y73.357 E14.0083
G1 X84.025 Y72.66 E14.04411
G1 X84.187 Y72.442 E14.0554
G1 X84.442 Y72.109 E14.07284
G1 X85.092 Y71.277 E14.11673
G1 X85.649 Y70.583 E14.15373
G0 F9000 X86.039 Y70.896
G1 F1800 X86.265 Y70.624 E14.16843
G1 X87.052 Y69.707 E14.21867
G1 X87.79 Y68.875 E14.26491
G1 X87.961 Y68.686 E14.2755
G1 X88.245 Y68.383 E14.29277
G1 X88.983 Y67.609 E14.33723
G1 X89.576 Y67.003 E14.37248
G1 X89.767 Y66.813 E14.38368
G1 X90.105 Y66.486 E14.40324
G1 X90.858 Y65.771 E14.44641
G1 X91.506 Y65.171 E14.48312
G1 X91.963 Y64.765 E14.50854
G1 X92.684 Y64.141 E14.54818
G1 X92.803 Y64.039 E14.5547
