;FLAVOR:Marlin
;TIME:3538
;Filament used: 1.39301m
;Layer height: 0.12
;MINX:97.515
;MINY:75.01
;MINZ:0.16
;MAXX:157.475
;MAXY:134.99
;MAXZ:3.04
;Generated with Cura_SteamEngine master
M140 S90
M105
M190 S90
M104 S232
M105
M109 S232
M82 ;absolute extrusion mode
M220 S100 ;reset feedrate
M221 S100 ;reset flowrate
G90 ;use absolute coordinates
M82 ;absolute extrusion mode
G28 ;home
G1 Z2 F1500 ;raise z
G92 E0 ;reset extruder

G1 X75 Y5 F5000 ;start position
G1 Z0.28 F1500 ;lower z
G1 E4 F500 ;prime the filament
G1 X180 E10 F500 ;1st line
G1 Y5.4 F5000
G1 X75 E20 F500 ;2nd line
G1 Z2 F1500 ;raise z
G92 E0 ;reset extruder
G92 E0
G92 E0
G1 F1500 E-6.5
;LAYER_COUNT:25
;LAYER:0
M107
G0 F9000 X104.221 Y86.071 Z0.16
;TYPE:SKIRT
G1 F1500 E0
G1 F1800 X105.725 Y84.36 E0.05304
G1 X106.292 Y83.779 E0.07194
G1 X107.965 Y82.231 E0.12501
G1 X108.582 Y81.715 E0.14373
G1 X110.404 Y80.346 E0.19679
G1 X111.082 Y79.89 E0.21582
G1 X113.033 Y78.719 E0.26879
G1 X113.747 Y78.339 E0.28762
G1 X115.81 Y77.373 E0.34066
G1 X116.566 Y77.066 E0.35966
G1 X118.72 Y76.318 E0.41274
G1 X119.49 Y76.094 E0.43141
G1 X121.705 Y75.57 E0.48441
G1 X122.509 Y75.423 E0.50344
G1 X124.77 Y75.131 E0.55651
G1 X125.575 Y75.069 E0.57531
G1 X127.851 Y75.01 E0.62832
G1 X128.664 Y75.031 E0.64725
G1 X130.934 Y75.207 E0.70026
G1 X131.737 Y75.311 E0.71912
G1 X133.981 Y75.72 E0.77222
G1 X134.771 Y75.906 E0.79112
G1 X136.955 Y76.542 E0.84408
G1 X137.723 Y76.809 E0.86301
G1 X139.835 Y77.669 E0.9161
G1 X140.564 Y78.011 E0.93485
G1 X142.573 Y79.08 E0.98783
G1 X143.27 Y79.498 E1.00675
G1 X145.162 Y80.771 E1.05984
G1 X145.808 Y81.256 E1.07865
G1 X147.556 Y82.713 E1.13163
G1 X148.155 Y83.267 E1.15063
G1 X149.744 Y84.898 E1.20364
G1 X150.277 Y85.505 E1.22245
G1 X151.691 Y87.291 E1.27549
G1 X152.161 Y87.951 E1.29435
G1 X153.384 Y89.873 E1.34739
G1 X153.785 Y90.582 E1.36636
G1 X154.803 Y92.62 E1.41939
G1 X155.127 Y93.361 E1.43822
G1 X155.931 Y95.494 E1.4913
G1 X156.176 Y96.262 E1.51006
G1 X156.757 Y98.463 E1.56306
G1 X156.924 Y99.26 E1.58202
G1 X157.275 Y101.511 E1.63506
G1 X157.359 Y102.323 E1.65407
G1 X157.475 Y104.598 E1.7071
G1 X157.475 Y105.4 E1.72578
G1 X157.359 Y107.675 E1.77881
G1 X157.275 Y108.486 E1.79779
G1 X156.924 Y110.739 E1.85088
G1 X156.757 Y111.537 E1.86986
G1 X156.176 Y113.738 E1.92286
G1 X155.931 Y114.505 E1.94161
G1 X155.128 Y116.636 E1.99463
G1 X154.804 Y117.378 E2.01348
G1 X153.786 Y119.416 E2.06652
G1 X153.386 Y120.123 E2.08543
G1 X152.163 Y122.046 E2.13849
G1 X151.693 Y122.708 E2.15739
G1 X150.28 Y124.493 E2.2104
G1 X149.746 Y125.1 E2.22922
G1 X148.156 Y126.732 E2.28227
G1 X147.557 Y127.286 E2.30126
G1 X145.808 Y128.744 E2.35428
G1 X145.162 Y129.229 E2.37308
G1 X143.27 Y130.502 E2.42618
G1 X142.573 Y130.92 E2.4451
G1 X140.564 Y131.989 E2.49808
G1 X139.838 Y132.329 E2.51675
G1 X137.726 Y133.19 E2.56985
G1 X136.952 Y133.46 E2.58893
G1 X134.768 Y134.095 E2.64189
G1 X133.981 Y134.28 E2.66071
G1 X131.737 Y134.689 E2.71381
G1 X130.934 Y134.793 E2.73267
G1 X128.664 Y134.969 E2.78567
G1 X127.851 Y134.99 E2.80461
G1 X125.575 Y134.931 E2.85762
G1 X124.774 Y134.87 E2.87632
G1 X122.513 Y134.579 E2.92939
G1 X121.702 Y134.431 E2.94859
G1 X119.487 Y133.906 E3.00159
G1 X118.72 Y133.682 E3.02019
G1 X116.566 Y132.934 E3.07328
G1 X115.81 Y132.627 E3.09227
G1 X113.747 Y131.661 E3.14531
G1 X113.033 Y131.281 E3.16414
G1 X111.082 Y130.11 E3.21712
G1 X110.404 Y129.654 E3.23614
G1 X108.582 Y128.285 E3.2892
G1 X107.965 Y127.769 E3.30793
G1 X106.292 Y126.221 E3.361
G1 X105.725 Y125.64 E3.3799
G1 X104.221 Y123.929 E3.43293
G1 X103.719 Y123.295 E3.45176
G1 X102.398 Y121.438 E3.50482
G1 X101.96 Y120.75 E3.52381
G1 X100.839 Y118.768 E3.57682
G1 X100.478 Y118.044 E3.59566
G1 X99.566 Y115.957 E3.64869
G1 X99.279 Y115.195 E3.66764
G1 X98.588 Y113.027 E3.72062
G1 X98.384 Y112.252 E3.73928
G1 X97.916 Y110.02 E3.79237
G1 X97.789 Y109.21 E3.81146
G1 X97.556 Y106.946 E3.86445
G1 X97.515 Y106.14 E3.88324
G1 X97.515 Y103.862 E3.93628
G1 X97.556 Y103.057 E3.95504
G1 X97.789 Y100.791 E4.00808
G1 X97.916 Y99.98 E4.02719
G1 X98.384 Y97.748 E4.08029
G1 X98.588 Y96.973 E4.09895
G1 X99.279 Y94.805 E4.15192
G1 X99.566 Y94.043 E4.17088
G1 X100.478 Y91.956 E4.22391
G1 X100.839 Y91.232 E4.24274
G1 X101.96 Y89.25 E4.29576
G1 X102.398 Y88.562 E4.31475
G1 X103.719 Y86.705 E4.3678
G1 X104.221 Y86.071 E4.38663
G0 F9000 X104.484 Y86.302
G1 F1800 X105.988 Y84.591 E4.43967
G1 X106.529 Y84.036 E4.45771
G1 X108.202 Y82.488 E4.51078
G1 X108.793 Y81.995 E4.5287
G1 X110.615 Y80.626 E4.58176
G1 X111.262 Y80.19 E4.59992
G1 X113.213 Y79.019 E4.6529
G1 X113.895 Y78.656 E4.67089
G1 X115.958 Y77.69 E4.72392
G1 X116.68 Y77.396 E4.74207
G1 X118.834 Y76.648 E4.79516
G1 X119.571 Y76.434 E4.81303
G1 X121.786 Y75.91 E4.86602
G1 X122.554 Y75.77 E4.8842
G1 X124.815 Y75.478 E4.93728
G1 X125.584 Y75.419 E4.95523
G1 X127.86 Y75.36 E5.00824
G1 X128.637 Y75.38 E5.02634
G1 X130.907 Y75.556 E5.07935
G1 X131.674 Y75.655 E5.09735
G1 X133.918 Y76.064 E5.15046
G1 X134.673 Y76.242 E5.16852
G1 X136.857 Y76.878 E5.22148
G1 X137.591 Y77.134 E5.23958
G1 X139.703 Y77.994 E5.29267
G1 X140.4 Y78.32 E5.31058
G1 X142.409 Y79.389 E5.36357
G1 X143.075 Y79.789 E5.38165
G1 X144.967 Y81.062 E5.43475
G1 X145.584 Y81.525 E5.45271
G1 X147.332 Y82.982 E5.50569
G1 X147.904 Y83.511 E5.52383
G1 X149.493 Y85.142 E5.57684
G1 X150.003 Y85.722 E5.59482
G1 X151.417 Y87.508 E5.64786
G1 X151.866 Y88.139 E5.66589
G1 X153.089 Y90.061 E5.71893
G1 X153.472 Y90.738 E5.73704
G1 X154.49 Y92.776 E5.79008
G1 X154.799 Y93.485 E5.80808
G1 X155.603 Y95.618 E5.86116
G1 X155.838 Y96.351 E5.87908
G1 X156.419 Y98.552 E5.93208
G1 X156.578 Y99.314 E5.9502
G1 X156.929 Y101.565 E6.00324
G1 X157.009 Y102.341 E6.0214
G1 X157.125 Y104.616 E6.07444
G1 X157.125 Y105.382 E6.09227
G1 X157.009 Y107.657 E6.14531
G1 X156.929 Y108.432 E6.16345
G1 X156.578 Y110.685 E6.21654
G1 X156.419 Y111.448 E6.23468
G1 X155.838 Y113.649 E6.28768
G1 X155.604 Y114.381 E6.30557
G1 X154.801 Y116.512 E6.35859
G1 X154.491 Y117.222 E6.37663
G1 X153.473 Y119.26 E6.42967
G1 X153.091 Y119.935 E6.44773
G1 X151.868 Y121.858 E6.50078
G1 X151.418 Y122.491 E6.51887
G1 X150.005 Y124.276 E6.57187
G1 X149.495 Y124.856 E6.58985
G1 X147.905 Y126.488 E6.6429
G1 X147.333 Y127.017 E6.66104
G1 X145.584 Y128.475 E6.71405
G1 X144.967 Y128.938 E6.73201
G1 X143.075 Y130.211 E6.7851
G1 X142.409 Y130.611 E6.80319
G1 X140.4 Y131.68 E6.85618
G1 X139.706 Y132.005 E6.87402
G1 X137.594 Y132.866 E6.92712
G1 X136.854 Y133.124 E6.94536
G1 X134.67 Y133.759 E6.99832
G1 X133.918 Y133.936 E7.0163
G1 X131.674 Y134.345 E7.06941
G1 X130.907 Y134.444 E7.08742
G1 X128.637 Y134.62 E7.14042
G1 X127.86 Y134.64 E7.15852
G1 X125.584 Y134.581 E7.21153
G1 X124.818 Y134.522 E7.22942
G1 X122.557 Y134.231 E7.28249
G1 X121.783 Y134.09 E7.30081
G1 X119.568 Y133.565 E7.35381
G1 X118.834 Y133.352 E7.3716
G1 X116.68 Y132.604 E7.42469
G1 X115.958 Y132.31 E7.44284
G1 X113.895 Y131.344 E7.49587
G1 X113.213 Y130.981 E7.51386
G1 X111.262 Y129.81 E7.56684
G1 X110.615 Y129.374 E7.585
G1 X108.793 Y128.005 E7.63806
G1 X108.202 Y127.512 E7.65598
G1 X106.529 Y125.964 E7.70905
G1 X105.988 Y125.409 E7.72709
G1 X104.484 Y123.698 E7.78013
G1 X104.004 Y123.092 E7.79813
G1 X102.683 Y121.235 E7.85119
G1 X102.265 Y120.578 E7.86932
G1 X101.144 Y118.596 E7.92233
G1 X100.799 Y117.904 E7.94033
G1 X99.887 Y115.817 E7.99336
G1 X99.612 Y115.089 E8.01148
G1 X98.921 Y112.921 E8.06446
G1 X98.726 Y112.18 E8.0823
G1 X98.258 Y109.948 E8.13539
G1 X98.138 Y109.174 E8.15363
G1 X97.905 Y106.91 E8.20662
G1 X97.865 Y106.14 E8.22457
G1 X97.865 Y103.862 E8.2776
G1 X97.904 Y103.092 E8.29555
G1 X98.137 Y100.826 E8.34859
G1 X98.258 Y100.052 E8.36683
G1 X98.726 Y97.82 E8.41992
G1 X98.921 Y97.079 E8.43776
G1 X99.612 Y94.911 E8.49074
G1 X99.887 Y94.183 E8.50886
G1 X100.799 Y92.096 E8.56189
G1 X101.144 Y91.404 E8.57989
G1 X102.265 Y89.422 E8.6329
G1 X102.683 Y88.765 E8.65103
G1 X104.004 Y86.908 E8.70409
G1 X104.484 Y86.302 E8.72209
G0 F9000 X104.747 Y86.533
G1 F1800 X106.251 Y84.822 E8.77513
G1 X106.767 Y84.293 E8.79233
G1 X108.44 Y82.745 E8.8454
G1 X109.003 Y82.275 E8.86248
G1 X110.825 Y80.906 E8.91553
G1 X111.443 Y80.49 E8.93288
G1 X113.394 Y79.319 E8.98586
G1 X114.043 Y78.973 E9.00298
G1 X116.106 Y78.007 E9.05602
G1 X116.795 Y77.727 E9.07333
G1 X118.949 Y76.979 E9.12642
G1 X119.651 Y76.775 E9.14344
G1 X121.866 Y76.251 E9.19643
G1 X122.599 Y76.117 E9.21378
G1 X124.86 Y75.825 E9.26686
G1 X125.593 Y75.768 E9.28398
G1 X127.869 Y75.709 E9.33698
G1 X128.61 Y75.728 E9.35424
G1 X130.88 Y75.904 E9.40725
G1 X131.612 Y75.999 E9.42444
G1 X133.856 Y76.408 E9.47754
G1 X134.575 Y76.578 E9.49474
G1 X136.759 Y77.214 E9.5477
G1 X137.459 Y77.458 E9.56496
G1 X139.571 Y78.318 E9.61805
G1 X140.235 Y78.629 E9.63513
G1 X142.244 Y79.698 E9.68811
G1 X142.879 Y80.079 E9.70535
G1 X144.771 Y81.352 E9.75844
G1 X145.36 Y81.794 E9.77559
G1 X147.108 Y83.251 E9.82857
G1 X147.653 Y83.755 E9.84585
G1 X149.242 Y85.386 E9.89887
G1 X149.728 Y85.939 E9.91601
G1 X151.142 Y87.725 E9.96904
G1 X151.57 Y88.327 E9.98624
G1 X152.793 Y90.249 E10.03928
G1 X153.159 Y90.895 E10.05656
G1 X154.177 Y92.933 E10.1096
G1 X154.472 Y93.608 E10.12675
G1 X155.276 Y95.741 E10.17983
G1 X155.499 Y96.441 E10.19693
G1 X156.08 Y98.642 E10.24993
G1 X156.232 Y99.368 E10.2672
G1 X156.583 Y101.619 E10.32024
G1 X156.66 Y102.359 E10.33756
G1 X156.776 Y104.634 E10.3906
G1 X156.776 Y105.364 E10.40759
G1 X156.66 Y107.639 E10.46063
G1 X156.583 Y108.378 E10.47793
G1 X156.232 Y110.631 E10.53102
G1 X156.08 Y111.358 E10.54831
G1 X155.499 Y113.559 E10.60131
G1 X155.276 Y114.258 E10.61839
G1 X154.473 Y116.389 E10.67141
G1 X154.178 Y117.065 E10.68858
G1 X153.16 Y119.103 E10.74162
G1 X152.795 Y119.747 E10.75885
G1 X151.572 Y121.67 E10.81191
G1 X151.144 Y122.273 E10.82913
G1 X149.731 Y124.058 E10.88213
G1 X149.244 Y124.612 E10.89931
G1 X147.654 Y126.244 E10.95235
G1 X147.109 Y126.748 E10.96964
G1 X145.36 Y128.206 E11.02265
G1 X144.771 Y128.648 E11.0398
G1 X142.879 Y129.921 E11.09289
G1 X142.244 Y130.302 E11.11013
G1 X140.235 Y131.371 E11.16311
G1 X139.574 Y131.681 E11.18011
G1 X137.462 Y132.542 E11.23321
G1 X136.756 Y132.788 E11.25062
G1 X134.572 Y133.423 E11.30357
G1 X133.856 Y133.592 E11.3207
G1 X131.612 Y134.001 E11.3738
G1 X130.88 Y134.096 E11.39099
G1 X128.61 Y134.272 E11.444
G1 X127.869 Y134.291 E11.46126
G1 X125.593 Y134.232 E11.51426
G1 X124.863 Y134.175 E11.53131
G1 X122.602 Y133.884 E11.58439
G1 X121.863 Y133.75 E11.60187
G1 X119.648 Y133.225 E11.65487
G1 X118.949 Y133.021 E11.67182
G1 X116.795 Y132.273 E11.72491
G1 X116.106 Y131.993 E11.74223
G1 X114.043 Y131.027 E11.79526
G1 X113.394 Y130.681 E11.81239
G1 X111.443 Y129.51 E11.86536
G1 X110.825 Y129.094 E11.88271
G1 X109.003 Y127.725 E11.93577
G1 X108.44 Y127.255 E11.95284
G1 X106.767 Y125.707 E12.00591
G1 X106.251 Y125.178 E12.02312
G1 X104.747 Y123.467 E12.07615
G1 X104.289 Y122.889 E12.09332
G1 X102.968 Y121.032 E12.14638
G1 X102.57 Y120.405 E12.16367
G1 X101.449 Y118.423 E12.21669
G1 X101.119 Y117.764 E12.23384
G1 X100.207 Y115.677 E12.28687
G1 X99.946 Y114.983 E12.30413
G1 X99.255 Y112.815 E12.35711
G1 X99.069 Y112.108 E12.37413
G1 X98.601 Y109.876 E12.42723
G1 X98.486 Y109.139 E12.44459
G1 X98.253 Y106.875 E12.49758
G1 X98.215 Y106.14 E12.51472
G1 X98.215 Y103.862 E12.56776
G1 X98.253 Y103.128 E12.58487
G1 X98.486 Y100.862 E12.6379
G1 X98.601 Y100.124 E12.65529
G1 X99.069 Y97.892 E12.70839
G1 X99.255 Y97.185 E12.72541
G1 X99.946 Y95.017 E12.77839
G1 X100.207 Y94.323 E12.79565
G1 X101.119 Y92.236 E12.84867
G1 X101.449 Y91.577 E12.86583
G1 X102.57 Y89.595 E12.91885
G1 X102.968 Y88.968 E12.93614
G1 X104.289 Y87.111 E12.9892
G1 X104.747 Y86.533 E13.00637
G0 F9000 X105.01 Y86.764
G1 F1800 X106.514 Y85.053 E13.0594
G1 X107.005 Y84.549 E13.07579
G1 X108.678 Y83.001 E13.12885
G1 X109.213 Y82.555 E13.14507
G1 X111.035 Y81.186 E13.19813
G1 X111.623 Y80.79 E13.21463
G1 X113.574 Y79.619 E13.26761
G1 X114.192 Y79.29 E13.28391
G1 X116.255 Y78.324 E13.33695
G1 X116.91 Y78.058 E13.35341
G1 X119.064 Y77.31 E13.40649
G1 X119.732 Y77.115 E13.4227
G1 X121.947 Y76.591 E13.47569
G1 X122.644 Y76.464 E13.49218
G1 X124.905 Y76.172 E13.54526
G1 X125.602 Y76.118 E13.56154
G1 X127.878 Y76.059 E13.61455
G1 X128.583 Y76.077 E13.63097
G1 X130.853 Y76.253 E13.68397
G1 X131.549 Y76.344 E13.70032
G1 X133.793 Y76.753 E13.75342
G1 X134.477 Y76.914 E13.76978
G1 X136.661 Y77.55 E13.82274
G1 X137.327 Y77.782 E13.83916
G1 X139.439 Y78.642 E13.89225
G1 X140.071 Y78.938 E13.9085
G1 X142.08 Y80.007 E13.96149
G1 X142.684 Y80.369 E13.97788
G1 X144.576 Y81.642 E14.03097
G1 X145.136 Y82.062 E14.04727
G1 X146.884 Y83.519 E14.10025
G1 X147.403 Y83.999 E14.11671
G1 X148.992 Y85.63 E14.16973
G1 X149.454 Y86.157 E14.18604
G1 X150.868 Y87.943 E14.23908
G1 X151.275 Y88.515 E14.25542
G1 X152.498 Y90.437 E14.30846
G1 X152.846 Y91.051 E14.32489
G1 X153.864 Y93.089 E14.37793
G1 X154.144 Y93.732 E14.39426
G1 X154.948 Y95.865 E14.44733
G1 X155.161 Y96.53 E14.46359
G1 X155.742 Y98.731 E14.51659
G1 X155.887 Y99.421 E14.533
G1 X156.238 Y101.672 E14.58605
G1 X156.31 Y102.376 E14.60252
G1 X156.426 Y104.651 E14.65556
G1 X156.426 Y105.347 E14.67176
G1 X156.31 Y107.622 E14.7248
G1 X156.238 Y108.325 E14.74125
G1 X155.887 Y110.578 E14.79434
G1 X155.742 Y111.269 E14.81078
G1 X155.161 Y113.47 E14.86378
G1 X154.949 Y114.135 E14.88003
G1 X154.146 Y116.266 E14.93305
G1 X153.865 Y116.909 E14.94938
G1 X152.847 Y118.947 E15.00242
G1 X152.5 Y119.56 E15.01882
G1 X151.277 Y121.483 E15.07188
G1 X150.869 Y122.056 E15.08826
G1 X149.456 Y123.841 E15.14126
G1 X148.993 Y124.368 E15.15759
G1 X147.403 Y126 E15.21064
G1 X146.885 Y126.479 E15.22707
G1 X145.136 Y127.937 E15.28008
G1 X144.576 Y128.358 E15.29639
G1 X142.684 Y129.631 E15.34949
G1 X142.08 Y129.993 E15.36588
G1 X140.071 Y131.062 E15.41886
G1 X139.441 Y131.357 E15.43506
G1 X137.329 Y132.218 E15.48816
G1 X136.658 Y132.452 E15.5047
G1 X134.474 Y133.087 E15.55766
G1 X133.793 Y133.247 E15.57395
G1 X131.549 Y133.656 E15.62705
G1 X130.853 Y133.747 E15.64339
G1 X128.583 Y133.923 E15.6964
G1 X127.878 Y133.941 E15.71282
G1 X125.602 Y133.882 E15.76583
G1 X124.908 Y133.828 E15.78204
G1 X122.647 Y133.537 E15.83511
G1 X121.944 Y133.409 E15.85175
G1 X119.729 Y132.884 E15.90475
G1 X119.064 Y132.69 E15.92087
G1 X116.91 Y131.942 E15.97396
G1 X116.255 Y131.676 E15.99042
G1 X114.192 Y130.71 E16.04346
G1 X113.574 Y130.381 E16.05976
G1 X111.623 Y129.21 E16.11273
G1 X111.035 Y128.814 E16.12924
G1 X109.213 Y127.445 E16.1823
G1 X108.678 Y126.999 E16.19852
G1 X107.005 Y125.451 E16.25158
G1 X106.514 Y124.947 E16.26796
G1 X105.01 Y123.236 E16.321
G1 X104.575 Y122.686 E16.33733
G1 X103.254 Y120.829 E16.39039
G1 X102.874 Y120.233 E16.40684
G1 X101.753 Y118.251 E16.45986
G1 X101.44 Y117.624 E16.47617
G1 X100.528 Y115.537 E16.5292
G1 X100.279 Y114.877 E16.54562
G1 X99.588 Y112.709 E16.5986
G1 X99.411 Y112.037 E16.61478
G1 X98.943 Y109.805 E16.66788
G1 X98.834 Y109.103 E16.68442
G1 X98.601 Y106.839 E16.7374
G1 X98.565 Y106.14 E16.7537
G1 X98.565 Y103.862 E16.80674
G1 X98.601 Y103.164 E16.82301
G1 X98.834 Y100.898 E16.87604
G1 X98.943 Y100.195 E16.89261
G1 X99.411 Y97.963 E16.9457
G1 X99.588 Y97.291 E16.96188
G1 X100.279 Y95.123 E17.01486
G1 X100.528 Y94.463 E17.03128
G1 X101.44 Y92.376 E17.08431
G1 X101.753 Y91.749 E17.10063
G1 X102.874 Y89.767 E17.15364
G1 X103.254 Y89.171 E17.1701
G1 X104.575 Y87.314 E17.22315
G1 X105.01 Y86.764 E17.23948
G0 F9000 X105.273 Y86.995
G1 F1800 X106.777 Y85.284 E17.29252
G1 X107.242 Y84.806 E17.30804
G1 X108.915 Y83.258 E17.36111
G1 X109.423 Y82.834 E17.37652
G1 X111.245 Y81.465 E17.42958
G1 X111.803 Y81.09 E17.44523
G1 X113.754 Y79.919 E17.49821
G1 X114.34 Y79.607 E17.51366
G1 X116.403 Y78.641 E17.5667
G1 X117.025 Y78.388 E17.58233
G1 X119.179 Y77.64 E17.63542
G1 X119.812 Y77.456 E17.65077
G1 X122.027 Y76.932 E17.70376
G1 X122.689 Y76.811 E17.71943
G1 X124.95 Y76.519 E17.77251
G1 X125.611 Y76.468 E17.78794
G1 X127.887 Y76.409 E17.84095
G1 X128.556 Y76.426 E17.85653
G1 X130.826 Y76.602 E17.90954
G1 X131.486 Y76.688 E17.92504
G1 X133.73 Y77.097 E17.97814
G1 X134.379 Y77.25 E17.99367
G1 X136.563 Y77.886 E18.04663
G1 X137.195 Y78.106 E18.06221
