;FLAVOR:Marlin
;TIME:5214
;Filament used: 1.31137m
;Layer height: 0.08
;MINX:94.637
;MINY:72.137
;MINZ:0.12
;MAXX:160.363
;MAXY:137.863
;MAXZ:3
;Generated with Cura_SteamEngine master
M140 S60
M105
M190 S60
M104 S200
M105
M109 S200
M82 ;absolute extrusion mode
M220 S100 ;reset feedrate
M221 S100 ;reset flowrate
G90 ;use absolute coordinates
M82 ;absolute extrusion mode
G28 ;home
G1 Z2 F1500 ;raise z
G92 E0 ;reset extruder

G1 X75 Y5 F5000 ;start position
G1 Z0.28 F1500 ;lower z
G1 E4 F500 ;prime the filament
G1 X180 E10 F500 ;1st line
G1 Y5.4 F5000
G1 X75 E20 F500 ;2nd line
G1 Z2 F1500 ;raise z
G92 E0 ;reset extruder
G92 E0
G92 E0
G1 F1500 E-6.5
;LAYER_COUNT:37
;LAYER:0
M107
G0 F9000 X102.326 Y83.898 Z0.12
;TYPE:SKIRT
G1 F1500 E0
G1 F1800 X102.795 Y83.333 E0.01282
G1 X103.257 Y82.812 E0.02498
G1 X103.527 Y82.528 E0.03182
G1 X103.794 Y82.256 E0.03848
G1 X104.714 Y81.338 E0.06117
G1 X105.195 Y80.87 E0.07289
G1 X105.664 Y80.439 E0.08401
G1 X105.827 Y80.298 E0.08778
G1 X106.332 Y79.878 E0.09925
G1 X107.301 Y79.095 E0.121
G1 X107.849 Y78.664 E0.13317
G1 X108.352 Y78.292 E0.1441
G1 X108.759 Y78.011 E0.15273
G1 X109.068 Y77.808 E0.15919
G1 X110.088 Y77.146 E0.18042
G1 X110.752 Y76.729 E0.19412
G1 X111.309 Y76.402 E0.20539
G1 X111.634 Y76.226 E0.21185
G1 X112.021 Y76.024 E0.21947
G1 X113.123 Y75.464 E0.24105
G1 X113.79 Y75.137 E0.25403
G1 X114.373 Y74.872 E0.26521
G1 X114.743 Y74.72 E0.27219
G1 X115.118 Y74.572 E0.27923
G1 X116.32 Y74.111 E0.30171
G1 X116.924 Y73.888 E0.31295
G1 X117.54 Y73.682 E0.3243
G1 X117.994 Y73.547 E0.33257
G1 X118.317 Y73.458 E0.33842
G1 X119.581 Y73.12 E0.36126
G1 X120.304 Y72.939 E0.37428
G1 X120.833 Y72.82 E0.38375
G1 X121.03 Y72.781 E0.38725
G1 X121.323 Y72.727 E0.39246
G1 X121.669 Y72.669 E0.39858
G1 X122.834 Y72.485 E0.41918
G1 X123.678 Y72.364 E0.43407
G1 X124.248 Y72.298 E0.44408
G1 X124.72 Y72.259 E0.45235
G1 X125.117 Y72.235 E0.4593
G1 X126.377 Y72.17 E0.48133
G1 X127.086 Y72.143 E0.49372
G1 X127.703 Y72.137 E0.50449
G1 X127.917 Y72.141 E0.50823
G1 X128.456 Y72.161 E0.51765
G1 X129.707 Y72.226 E0.53952
G1 X130.559 Y72.284 E0.55444
G1 X131.164 Y72.342 E0.56505
G1 X131.606 Y72.4 E0.57283
G1 X131.97 Y72.454 E0.57926
G1 X133.219 Y72.653 E0.60134
G1 X133.912 Y72.772 E0.61362
G1 X134.554 Y72.902 E0.62506
G1 X135.007 Y73.011 E0.63319
G1 X135.346 Y73.099 E0.63931
G1 X136.425 Y73.388 E0.65881
G1 X137.267 Y73.626 E0.67409
G1 X137.834 Y73.803 E0.68447
G1 X138.035 Y73.872 E0.68818
G1 X138.301 Y73.967 E0.69311
G1 X138.602 Y74.08 E0.69872
G1 X139.876 Y74.57 E0.72256
G1 X140.461 Y74.804 E0.73356
G1 X141.04 Y75.055 E0.74458
G1 X141.456 Y75.254 E0.75263
G1 X141.882 Y75.466 E0.76094
G1 X142.954 Y76.012 E0.78195
G1 X143.561 Y76.332 E0.79393
G1 X144.113 Y76.644 E0.805
G1 X144.5 Y76.881 E0.81292
G1 X144.847 Y77.102 E0.82011
G1 X145.898 Y77.786 E0.842
G1 X146.464 Y78.165 E0.8539
G1 X146.999 Y78.547 E0.86538
G1 X147.351 Y78.817 E0.87312
G1 X147.654 Y79.057 E0.87987
G1 X148.619 Y79.841 E0.90158
G1 X149.184 Y80.312 E0.91443
G1 X149.629 Y80.704 E0.92478
G1 X149.972 Y81.027 E0.93301
G1 X150.244 Y81.294 E0.93967
G1 X151.162 Y82.214 E0.96236
G1 X151.63 Y82.695 E0.97408
G1 X152.061 Y83.164 E0.9852
G1 X152.202 Y83.327 E0.98896
G1 X152.622 Y83.832 E1.00043
G1 X153.405 Y84.801 E1.02219
G1 X153.836 Y85.349 E1.03436
G1 X154.208 Y85.852 E1.04529
G1 X154.489 Y86.259 E1.05392
G1 X154.692 Y86.568 E1.06038
G1 X155.354 Y87.588 E1.08161
G1 X155.771 Y88.252 E1.0953
G1 X156.098 Y88.809 E1.10658
G1 X156.274 Y89.134 E1.11303
G1 X156.474 Y89.517 E1.12058
G1 X157.025 Y90.6 E1.1418
G1 X157.343 Y91.246 E1.15437
G1 X157.611 Y91.833 E1.16564
G1 X157.78 Y92.243 E1.17338
G1 X157.928 Y92.618 E1.18042
G1 X158.395 Y93.836 E1.2032
G1 X158.621 Y94.451 E1.21464
G1 X158.821 Y95.05 E1.22567
G1 X158.956 Y95.506 E1.23397
G1 X159.042 Y95.819 E1.23964
G1 X159.378 Y97.073 E1.26231
G1 X159.558 Y97.789 E1.2752
G1 X159.679 Y98.328 E1.28485
G1 X159.719 Y98.53 E1.28844
G1 X159.773 Y98.823 E1.29364
G1 X159.831 Y99.168 E1.29975
G1 X160.038 Y100.485 E1.32303
G1 X160.134 Y101.154 E1.33483
G1 X160.202 Y101.743 E1.34519
G1 X160.22 Y101.947 E1.34876
G1 X160.24 Y102.218 E1.35351
G1 X160.265 Y102.617 E1.36049
G1 X160.33 Y103.874 E1.38247
G1 X160.357 Y104.578 E1.39477
G1 X160.363 Y105.194 E1.40553
G1 X160.359 Y105.413 E1.40935
G1 X160.351 Y105.671 E1.41386
G1 X160.334 Y106.076 E1.42094
G1 X160.265 Y107.358 E1.44335
G1 X160.22 Y108.028 E1.45508
G1 X160.161 Y108.642 E1.46585
G1 X160.134 Y108.859 E1.46967
G1 X160.062 Y109.364 E1.47858
G1 X159.871 Y110.578 E1.50003
G1 X159.727 Y111.418 E1.51492
G1 X159.603 Y112.03 E1.52582
G1 X159.489 Y112.507 E1.53438
G1 X159.401 Y112.846 E1.5405
G1 X159.072 Y114.07 E1.56263
G1 X158.878 Y114.756 E1.57508
G1 X158.694 Y115.341 E1.58579
G1 X158.533 Y115.8 E1.59428
G1 X158.42 Y116.101 E1.5999
G1 X157.933 Y117.369 E1.62361
G1 X157.699 Y117.955 E1.63463
G1 X157.445 Y118.54 E1.64577
G1 X157.246 Y118.956 E1.65382
G1 X157.034 Y119.382 E1.66213
G1 X156.496 Y120.439 E1.68284
G1 X156.173 Y121.053 E1.69495
G1 X155.842 Y121.636 E1.70666
G1 X155.619 Y122 E1.71411
G1 X155.398 Y122.347 E1.7213
G1 X154.73 Y123.374 E1.74269
G1 X154.338 Y123.96 E1.755
G1 X153.953 Y124.499 E1.76657
G1 X153.683 Y124.851 E1.77431
G1 X153.447 Y125.15 E1.78097
G1 X152.784 Y125.969 E1.79937
G1 X152.188 Y126.684 E1.81562
G1 X151.796 Y127.129 E1.82597
G1 X151.473 Y127.472 E1.8342
G1 X151.206 Y127.744 E1.84086
G1 X150.286 Y128.662 E1.86355
G1 X149.805 Y129.13 E1.87527
G1 X149.336 Y129.561 E1.88639
G1 X149.173 Y129.702 E1.89016
G1 X148.668 Y130.122 E1.90162
G1 X147.699 Y130.905 E1.92338
G1 X147.151 Y131.336 E1.93555
G1 X146.648 Y131.708 E1.94648
G1 X146.241 Y131.989 E1.95511
G1 X145.933 Y132.192 E1.96155
G1 X145.074 Y132.751 E1.97945
G1 X144.25 Y133.27 E1.99645
G1 X143.691 Y133.598 E2.00777
G1 X143.366 Y133.774 E2.01423
G1 X142.981 Y133.975 E2.02181
G1 X141.916 Y134.517 E2.04268
G1 X141.224 Y134.857 E2.05614
G1 X140.627 Y135.128 E2.06759
G1 X140.237 Y135.288 E2.07495
G1 X139.883 Y135.427 E2.08159
G1 X138.664 Y135.894 E2.10438
G1 X138.038 Y136.124 E2.11603
G1 X137.456 Y136.319 E2.12675
G1 X137.006 Y136.453 E2.13494
G1 X136.683 Y136.542 E2.14079
G1 X135.419 Y136.88 E2.16364
G1 X134.696 Y137.061 E2.17666
G1 X134.167 Y137.18 E2.18612
G1 X133.97 Y137.219 E2.18963
G1 X133.677 Y137.273 E2.19483
G1 X133.331 Y137.331 E2.20096
G1 X132.166 Y137.515 E2.22155
G1 X131.322 Y137.636 E2.23644
G1 X130.752 Y137.702 E2.24646
G1 X130.28 Y137.741 E2.25473
G1 X129.883 Y137.765 E2.26168
G1 X128.625 Y137.83 E2.28367
G1 X127.92 Y137.857 E2.29599
G1 X127.304 Y137.863 E2.30675
G1 X127.086 Y137.859 E2.31056
G1 X126.829 Y137.851 E2.31505
G1 X126.424 Y137.834 E2.32212
G1 X125.128 Y137.764 E2.34479
G1 X124.442 Y137.717 E2.35679
G1 X123.836 Y137.658 E2.36743
G1 X123.4 Y137.601 E2.3751
G1 X123.029 Y137.546 E2.38165
G1 X121.78 Y137.347 E2.40374
G1 X121.087 Y137.228 E2.41602
G1 X120.433 Y137.095 E2.42767
G1 X119.99 Y136.988 E2.43563
G1 X119.635 Y136.896 E2.44203
G1 X118.575 Y136.612 E2.46119
G1 X117.733 Y136.374 E2.47647
G1 X117.166 Y136.197 E2.48684
G1 X116.965 Y136.128 E2.49055
G1 X116.699 Y136.033 E2.49549
G1 X116.398 Y135.92 E2.5011
G1 X115.124 Y135.43 E2.52494
G1 X114.539 Y135.196 E2.53594
G1 X113.96 Y134.945 E2.54696
G1 X113.544 Y134.746 E2.55501
G1 X113.118 Y134.534 E2.56332
G1 X112.047 Y133.988 E2.58431
G1 X111.438 Y133.667 E2.59633
G1 X110.877 Y133.35 E2.60758
G1 X110.5 Y133.119 E2.6153
G1 X110.153 Y132.898 E2.62249
G1 X109.102 Y132.214 E2.64438
G1 X108.536 Y131.835 E2.65628
G1 X108.001 Y131.453 E2.66776
G1 X107.649 Y131.183 E2.6755
G1 X107.346 Y130.943 E2.68225
G1 X106.381 Y130.159 E2.70396
G1 X105.816 Y129.688 E2.71681
G1 X105.371 Y129.296 E2.72716
G1 X105.227 Y129.162 E2.7306
G1 X105.021 Y128.965 E2.73557
G1 X104.738 Y128.688 E2.74249
G1 X103.838 Y127.786 E2.76474
G1 X103.369 Y127.304 E2.77648
G1 X102.935 Y126.831 E2.78769
G1 X102.637 Y126.481 E2.79572
G1 X102.378 Y126.168 E2.80281
G1 X101.595 Y125.199 E2.82456
G1 X101.164 Y124.651 E2.83674
G1 X100.792 Y124.148 E2.84766
G1 X100.511 Y123.741 E2.8563
G1 X100.308 Y123.432 E2.86275
G1 X99.659 Y122.433 E2.88356
G1 X99.267 Y121.812 E2.89638
G1 X98.969 Y121.311 E2.90656
G1 X98.869 Y121.132 E2.91014
G1 X98.718 Y120.853 E2.91568
G1 X98.526 Y120.483 E2.92296
G1 X97.967 Y119.384 E2.94449
G1 X97.639 Y118.715 E2.9575
G1 X97.372 Y118.127 E2.96877
G1 X97.22 Y117.757 E2.97576
G1 X97.072 Y117.382 E2.9828
G1 X96.6 Y116.149 E3.00585
G1 X96.371 Y115.523 E3.01749
G1 X96.176 Y114.941 E3.02821
G1 X96.047 Y114.504 E3.03617
G1 X95.958 Y114.181 E3.04202
G1 X95.621 Y112.924 E3.06474
G1 X95.44 Y112.203 E3.07772
G1 X95.32 Y111.667 E3.08731
G1 X95.281 Y111.47 E3.09082
G1 X95.227 Y111.177 E3.09602
G1 X95.169 Y110.831 E3.10215
G1 X94.961 Y109.505 E3.12558
G1 X94.864 Y108.825 E3.13758
G1 X94.797 Y108.248 E3.14772
G1 X94.78 Y108.056 E3.15109
G1 X94.742 Y107.497 E3.16087
G1 X94.677 Y106.28 E3.18215
G1 X94.643 Y105.414 E3.19729
G1 X94.637 Y104.797 E3.20806
G1 X94.641 Y104.583 E3.2118
G1 X94.649 Y104.329 E3.21623
G1 X94.666 Y103.924 E3.22331
G1 X94.736 Y102.629 E3.24596
G1 X94.783 Y101.942 E3.25798
G1 X94.841 Y101.342 E3.26851
G1 X94.9 Y100.892 E3.27643
G1 X94.954 Y100.528 E3.28286
G1 X95.153 Y99.276 E3.305
G1 X95.272 Y98.584 E3.31726
G1 X95.405 Y97.933 E3.32886
G1 X95.511 Y97.493 E3.33676
G1 X95.6 Y97.152 E3.34291
G1 X95.928 Y95.93 E3.36501
G1 X96.124 Y95.237 E3.37758
G1 X96.303 Y94.666 E3.38803
G1 X96.372 Y94.465 E3.39174
G1 X96.467 Y94.199 E3.39668
G1 X96.581 Y93.895 E3.40234
G1 X97.014 Y92.767 E3.42344
G1 X97.323 Y91.996 E3.43795
G1 X97.572 Y91.424 E3.44884
G1 X97.748 Y91.055 E3.45598
G1 X97.968 Y90.613 E3.4646
G1 X98.52 Y89.532 E3.48579
G1 X98.847 Y88.914 E3.498
G1 X99.143 Y88.389 E3.50853
G1 X99.249 Y88.213 E3.51211
G1 X99.537 Y87.754 E3.52158
G1 X100.286 Y86.602 E3.54557
G1 X100.665 Y86.036 E3.55746
G1 X101.047 Y85.501 E3.56894
G1 X101.317 Y85.149 E3.57669
G1 X101.557 Y84.846 E3.58344
G1 X102.326 Y83.898 E3.60475
G0 F9000 X102.596 Y84.122
G1 F1800 X103.065 Y83.557 E3.61758
G1 X103.511 Y83.052 E3.62934
G1 X103.778 Y82.773 E3.63608
G1 X104.042 Y82.504 E3.64267
G1 X104.958 Y81.588 E3.66529
G1 X105.439 Y81.12 E3.677
G1 X105.893 Y80.704 E3.68776
G1 X106.242 Y80.406 E3.69577
G1 X106.553 Y80.15 E3.7028
G1 X107.517 Y79.37 E3.72446
G1 X108.065 Y78.939 E3.73663
G1 X108.552 Y78.579 E3.74721
G1 X108.952 Y78.303 E3.75569
G1 X109.259 Y78.101 E3.76211
G1 X110.274 Y77.442 E3.78324
G1 X110.938 Y77.025 E3.79693
G1 X111.477 Y76.709 E3.80784
G1 X111.796 Y76.536 E3.81418
G1 X112.18 Y76.336 E3.82174
G1 X113.132 Y75.851 E3.84039
G1 X113.944 Y75.452 E3.85619
G1 X114.508 Y75.195 E3.86702
G1 X114.872 Y75.045 E3.87389
G1 X115.243 Y74.899 E3.88085
G1 X116.442 Y74.439 E3.90328
G1 X117.046 Y74.216 E3.91452
G1 X117.641 Y74.017 E3.92547
G1 X118.088 Y73.884 E3.93362
G1 X118.408 Y73.796 E3.93941
G1 X119.666 Y73.459 E3.96215
G1 X120.389 Y73.278 E3.97517
G1 X120.901 Y73.163 E3.98433
G1 X121.098 Y73.124 E3.98784
G1 X121.382 Y73.072 E3.99288
G1 X121.724 Y73.015 E3.99893
G1 X123.047 Y72.807 E4.02232
G1 X123.728 Y72.71 E4.03433
G1 X124.279 Y72.646 E4.04402
G1 X124.47 Y72.629 E4.04737
G1 X124.742 Y72.609 E4.05213
G1 X125.136 Y72.585 E4.05902
G1 X126.39 Y72.52 E4.08095
G1 X127.099 Y72.493 E4.09334
G1 X127.697 Y72.487 E4.10378
G1 X128.155 Y72.498 E4.11178
G1 X128.558 Y72.516 E4.11882
G1 X129.85 Y72.586 E4.14142
G1 X130.535 Y72.633 E4.1534
G1 X131.12 Y72.689 E4.16367
G1 X131.554 Y72.746 E4.17131
G1 X131.915 Y72.8 E4.17768
G1 X133.16 Y72.998 E4.1997
G1 X133.853 Y73.117 E4.21197
G1 X134.474 Y73.243 E4.22304
G1 X134.92 Y73.35 E4.23105
G1 X135.255 Y73.437 E4.23709
G1 X136.479 Y73.766 E4.25922
G1 X137.171 Y73.962 E4.27178
G1 X137.72 Y74.134 E4.28183
G1 X137.921 Y74.203 E4.28554
G1 X138.178 Y74.295 E4.2903
G1 X138.477 Y74.407 E4.29588
G1 X139.746 Y74.895 E4.31962
G1 X140.331 Y75.129 E4.33062
G1 X140.892 Y75.372 E4.3413
G1 X141.3 Y75.567 E4.34919
G1 X141.723 Y75.778 E4.35745
G1 X142.79 Y76.322 E4.37836
G1 X143.397 Y76.642 E4.39034
G1 X143.932 Y76.944 E4.40107
G1 X144.313 Y77.177 E4.40887
G1 X144.656 Y77.395 E4.41597
G1 X145.703 Y78.077 E4.43778
G1 X146.269 Y78.456 E4.44968
G1 X146.787 Y78.825 E4.46078
G1 X147.134 Y79.092 E4.46843
G1 X147.433 Y79.329 E4.47509
G1 X148.395 Y80.11 E4.49673
G1 X148.96 Y80.581 E4.50957
G1 X149.391 Y80.96 E4.5196
G1 X149.535 Y81.094 E4.52303
G1 X149.916 Y81.463 E4.53229
G1 X150.912 Y82.458 E4.55687
G1 X151.38 Y82.939 E4.56859
G1 X151.796 Y83.393 E4.57935
G1 X152.094 Y83.742 E4.58736
G1 X152.35 Y84.053 E4.59439
G1 X153.13 Y85.017 E4.61605
G1 X153.561 Y85.565 E4.62822
G1 X153.921 Y86.052 E4.63879
G1 X154.197 Y86.452 E4.64728
G1 X154.399 Y86.759 E4.6537
G1 X155.058 Y87.774 E4.67483
G1 X155.475 Y88.438 E4.68852
G1 X155.791 Y88.977 E4.69943
G1 X155.964 Y89.296 E4.70577
G1 X156.162 Y89.676 E4.71325
G1 X156.711 Y90.755 E4.73439
G1 X157.029 Y91.401 E4.74696
G1 X157.288 Y91.969 E4.75786
G1 X157.455 Y92.372 E4.76548
G1 X157.601 Y92.743 E4.77244
G1 X158.066 Y93.957 E4.79514
G1 X158.292 Y94.572 E4.80658
G1 X158.486 Y95.151 E4.81725
G1 X158.619 Y95.6 E4.82542
G1 X158.704 Y95.91 E4.83104
G1 X159.038 Y97.158 E4.85359
G1 X159.218 Y97.874 E4.86649
G1 X159.336 Y98.396 E4.87583
G1 X159.376 Y98.598 E4.87943
G1 X159.428 Y98.882 E4.88447
G1 X159.485 Y99.223 E4.8905
G1 X159.691 Y100.535 E4.9137
G1 X159.787 Y101.204 E4.9255
G1 X159.853 Y101.774 E4.93552
G1 X159.891 Y102.24 E4.94368
G1 X159.915 Y102.635 E4.95059
G1 X159.98 Y103.888 E4.9725
G1 X160.007 Y104.592 E4.9848
G1 X160.013 Y105.187 E4.99519
G1 X160.002 Y105.657 E5.0034
G1 X159.984 Y106.057 E5.01039
G1 X159.915 Y107.334 E5.03272
G1 X159.87 Y108.004 E5.04445
G1 X159.813 Y108.599 E5.05489
G1 X159.754 Y109.055 E5.06291
G1 X159.7 Y109.416 E5.06929
G1 X159.501 Y110.669 E5.09144
G1 X159.382 Y111.359 E5.10367
G1 X159.262 Y111.951 E5.11422
G1 X159.15 Y112.42 E5.12264
G1 X159.063 Y112.755 E5.12868
G1 X158.735 Y113.975 E5.15074
G1 X158.541 Y114.661 E5.16319
G1 X158.364 Y115.227 E5.17354
G1 X158.293 Y115.433 E5.17735
G1 X158.129 Y115.881 E5.18568
G1 X157.608 Y117.239 E5.21108
G1 X157.374 Y117.825 E5.22209
G1 X157.128 Y118.392 E5.23289
G1 X156.933 Y118.8 E5.24078
G1 X156.722 Y119.224 E5.24905
G1 X156.186 Y120.276 E5.26967
G1 X155.863 Y120.89 E5.28178
G1 X155.543 Y121.455 E5.29312
G1 X155.323 Y121.813 E5.30046
G1 X155.105 Y122.156 E5.30756
G1 X154.439 Y123.179 E5.32887
G1 X154.047 Y123.765 E5.34118
G1 X153.675 Y124.287 E5.35237
G1 X153.408 Y124.634 E5.36002
G1 X153.175 Y124.929 E5.36658
G1 X152.512 Y125.748 E5.38498
G1 X151.919 Y126.46 E5.40116
G1 X151.54 Y126.891 E5.41118
G1 X151.406 Y127.035 E5.41462
G1 X151.037 Y127.416 E5.42388
G1 X150.042 Y128.412 E5.44846
G1 X149.561 Y128.88 E5.46018
G1 X149.107 Y129.296 E5.47094
G1 X148.758 Y129.594 E5.47895
G1 X148.447 Y129.85 E5.48598
G1 X147.483 Y130.63 E5.50764
G1 X146.935 Y131.061 E5.51981
G1 X146.448 Y131.421 E5.53038
G1 X146.048 Y131.697 E5.53887
G1 X145.742 Y131.899 E5.54527
G1 X144.883 Y132.458 E5.56317
G1 X144.063 Y132.974 E5.58009
G1 X143.523 Y133.291 E5.59102
G1 X143.204 Y133.464 E5.59736
G1 X142.822 Y133.663 E5.60488
G1 X141.9 Y134.133 E5.62295
G1 X141.069 Y134.542 E5.63912
G1 X140.492 Y134.805 E5.65019
G1 X140.109 Y134.962 E5.65742
G1 X139.758 Y135.1 E5.66401
G1 X138.544 Y135.565 E5.68671
G1 X137.918 Y135.795 E5.69835
G1 X137.355 Y135.984 E5.70872
G1 X136.912 Y136.116 E5.71679
G1 X136.592 Y136.204 E5.72259
G1 X135.334 Y136.541 E5.74533
G1 X134.611 Y136.722 E5.75835
G1 X134.099 Y136.837 E5.76751
G1 X133.902 Y136.876 E5.77102
G1 X133.618 Y136.928 E5.77606
G1 X133.276 Y136.985 E5.78211
G1 X131.953 Y137.193 E5.8055
G1 X131.272 Y137.29 E5.81751
G1 X130.721 Y137.354 E5.82719
G1 X130.53 Y137.371 E5.83054
G1 X130.258 Y137.391 E5.8353
G1 X129.864 Y137.415 E5.8422
G1 X128.612 Y137.48 E5.86409
G1 X127.907 Y137.507 E5.87641
G1 X127.311 Y137.513 E5.88682
G1 X126.843 Y137.502 E5.89499
G1 X126.443 Y137.484 E5.90198
G1 X125.152 Y137.414 E5.92456
G1 X124.466 Y137.367 E5.93656
G1 X123.88 Y137.311 E5.94684
G1 X123.451 Y137.255 E5.9544
G1 X123.084 Y137.2 E5.96088
G1 X121.839 Y137.002 E5.98289
G1 X121.146 Y136.883 E5.99517
G1 X120.514 Y136.755 E6.00643
G1 X120.078 Y136.649 E6.01426
G1 X119.725 Y136.557 E6.02063
