;FLAVOR:Marlin
;TIME:2019
;Filament used: 1.65322m
;Layer height: 0.2
;MINX:96.714
;MINY:87.146
;MINZ:0.16
;MAXX:156.212
;MAXY:146.644
;MAXZ:2.96
;Generated with Cura_SteamEngine master
M140 S60
M105
M190 S60
M104 S200
M105
M109 S200
M82 ;absolute extrusion mode
M220 S100 ;reset feedrate
M221 S100 ;reset flowrate
G90 ;use absolute coordinates
M82 ;absolute extrusion mode
G28 ;home
G1 Z2 F1500 ;raise z
G92 E0 ;reset extruder

G1 X75 Y5 F5000 ;start position
G1 Z0.28 F1500 ;lower z
G1 E4 F500 ;prime the filament
G1 X180 E10 F500 ;1st line
G1 Y5.4 F5000
G1 X75 E20 F500 ;2nd line
G1 Z2 F1500 ;raise z
G92 E0 ;reset extruder
G92 E0
G92 E0
G1 F1500 E-6.5
;LAYER_COUNT:15
;LAYER:0
M107
G0 F9000 X104.631 Y96.698 Z0.16
;TYPE:SKIRT
G1 F1500 E0
G1 F1800 X106.26 Y95.071 E0.07658
G1 X106.847 Y94.541 E0.10288
G1 X108.651 Y93.074 E0.18022
G1 X109.336 Y92.577 E0.20836
G1 X111.265 Y91.331 E0.28474
G1 X111.937 Y90.943 E0.31055
G1 X113.975 Y89.899 E0.38671
G1 X114.735 Y89.56 E0.41439
G1 X116.872 Y88.741 E0.49051
G1 X117.637 Y88.493 E0.51726
G1 X119.911 Y87.883 E0.59556
G1 X120.706 Y87.714 E0.6226
G1 X122.927 Y87.362 E0.69739
G1 X123.73 Y87.277 E0.72425
G1 X125.997 Y87.157 E0.79975
G1 X126.407 Y87.146 E0.8134
G1 X126.527 Y87.146 E0.81739
G1 X126.925 Y87.156 E0.83063
G1 X129.104 Y87.268 E0.9032
G1 X129.915 Y87.353 E0.93032
G1 X132.245 Y87.721 E1.00878
G1 X133.043 Y87.89 E1.03591
G1 X135.299 Y88.495 E1.11359
G1 X136.068 Y88.745 E1.14049
G1 X138.182 Y89.556 E1.2158
G1 X138.93 Y89.889 E1.24303
G1 X140.977 Y90.934 E1.31947
G1 X141.667 Y91.333 E1.34598
G1 X143.57 Y92.566 E1.4214
G1 X143.914 Y92.802 E1.43527
G1 X143.98 Y92.85 E1.43799
G1 X144.297 Y93.093 E1.45127
G1 X146.036 Y94.5 E1.52567
G1 X146.643 Y95.047 E1.55285
G1 X148.296 Y96.701 E1.63063
G1 X148.831 Y97.295 E1.65721
G1 X150.271 Y99.069 E1.73321
G1 X150.753 Y99.731 E1.76045
G1 X152.006 Y101.66 E1.83695
G1 X152.412 Y102.363 E1.86395
G1 X153.469 Y104.437 E1.94138
G1 X153.795 Y105.168 E1.968
G1 X154.614 Y107.292 E2.04371
G1 X154.871 Y108.082 E2.07134
G1 X155.476 Y110.349 E2.14938
G1 X155.643 Y111.139 E2.17624
G1 X155.99 Y113.338 E2.25028
G1 X156.048 Y113.787 E2.26534
G1 X156.067 Y113.98 E2.27179
G1 X156.094 Y114.34 E2.2838
G1 X156.202 Y116.435 E2.35357
G1 X156.212 Y116.834 E2.36685
G1 X156.212 Y116.93 E2.37004
G1 X156.202 Y117.333 E2.38345
G1 X156.085 Y119.581 E2.45832
G1 X156 Y120.386 E2.48524
G1 X155.642 Y122.655 E2.56164
G1 X155.473 Y123.452 E2.58874
G1 X154.87 Y125.703 E2.66625
G1 X154.621 Y126.47 E2.69307
G1 X153.803 Y128.606 E2.76914
G1 X153.468 Y129.358 E2.79652
G1 X152.409 Y131.432 E2.87398
G1 X152.006 Y132.13 E2.90079
G1 X150.756 Y134.054 E2.9771
G1 X150.283 Y134.706 E3.00389
G1 X148.836 Y136.495 E3.08042
G1 X148.29 Y137.101 E3.10755
G1 X146.673 Y138.718 E3.18361
G1 X146.066 Y139.264 E3.21076
G1 X144.279 Y140.709 E3.2872
G1 X143.634 Y141.178 E3.31372
G1 X141.666 Y142.459 E3.39182
G1 X140.96 Y142.867 E3.41894
G1 X138.963 Y143.886 E3.49351
G1 X138.212 Y144.221 E3.52086
G1 X136.036 Y145.054 E3.59836
G1 X135.273 Y145.301 E3.62503
G1 X133.036 Y145.901 E3.70207
G1 X132.236 Y146.071 E3.72927
G1 X129.942 Y146.433 E3.80651
G1 X129.139 Y146.517 E3.83336
G1 X126.921 Y146.633 E3.90724
G1 X126.516 Y146.644 E3.92071
G1 X126.423 Y146.644 E3.9238
G1 X126.012 Y146.633 E3.93748
G1 X123.811 Y146.516 E4.01079
G1 X123.513 Y146.495 E4.02072
G1 X122.918 Y146.424 E4.04065
G1 X120.666 Y146.066 E4.1165
G1 X119.875 Y145.897 E4.1434
G1 X117.642 Y145.298 E4.22029
G1 X116.864 Y145.045 E4.2475
G1 X114.741 Y144.227 E4.32318
G1 X114.014 Y143.903 E4.34965
G1 X111.953 Y142.855 E4.42655
G1 X111.239 Y142.443 E4.45397
G1 X109.289 Y141.174 E4.53135
G1 X108.647 Y140.707 E4.55776
G1 X106.864 Y139.267 E4.63398
G1 X106.251 Y138.716 E4.6614
G1 X104.64 Y137.104 E4.7372
G1 X104.103 Y136.508 E4.76388
G1 X102.648 Y134.714 E4.84071
G1 X102.168 Y134.053 E4.86788
G1 X100.906 Y132.11 E4.94494
G1 X100.429 Y131.265 E4.97721
G1 X99.465 Y129.375 E5.04778
G1 X99.133 Y128.631 E5.07487
G1 X98.304 Y126.475 E5.1517
G1 X98.05 Y125.693 E5.17905
G1 X97.461 Y123.487 E5.25499
G1 X97.293 Y122.694 E5.28195
G1 X96.927 Y120.37 E5.3602
G1 X96.876 Y119.978 E5.37335
G1 X96.861 Y119.836 E5.3781
G1 X96.828 Y119.411 E5.39227
G1 X96.724 Y117.343 E5.46114
G1 X96.714 Y116.954 E5.47409
G1 X96.714 Y116.835 E5.47804
G1 X96.725 Y116.431 E5.49149
G1 X96.837 Y114.288 E5.56286
G1 X96.854 Y114.03 E5.57146
G1 X96.866 Y113.89 E5.57613
G1 X96.933 Y113.341 E5.59453
G1 X97.287 Y111.103 E5.66989
G1 X97.458 Y110.3 E5.6972
G1 X98.051 Y108.096 E5.77311
G1 X98.296 Y107.343 E5.79945
G1 X99.13 Y105.161 E5.87714
G1 X99.467 Y104.402 E5.90476
G1 X100.502 Y102.376 E5.98043
G1 X100.908 Y101.675 E6.00737
G1 X102.179 Y99.722 E6.08488
G1 X102.654 Y99.069 E6.11173
G1 X104.087 Y97.301 E6.18743
G1 X104.631 Y96.698 E6.21444
G0 F9000 X104.985 Y97.051
G1 F1800 X106.614 Y95.424 E6.29101
G1 X107.163 Y94.929 E6.3156
G1 X108.967 Y93.462 E6.39294
G1 X109.607 Y92.997 E6.41925
G1 X111.536 Y91.751 E6.49563
G1 X112.165 Y91.388 E6.51978
G1 X114.203 Y90.344 E6.59594
G1 X114.913 Y90.027 E6.6218
G1 X117.05 Y89.208 E6.69792
G1 X117.767 Y88.976 E6.72299
G1 X120.041 Y88.366 E6.80129
G1 X120.784 Y88.207 E6.82657
G1 X123.005 Y87.855 E6.90136
G1 X123.757 Y87.776 E6.92651
G1 X126.024 Y87.656 E7.00201
G1 X126.407 Y87.646 E7.01476
G1 X126.527 Y87.646 E7.01875
G1 X126.899 Y87.656 E7.03113
G1 X129.078 Y87.768 E7.10369
G1 X129.837 Y87.847 E7.12908
G1 X132.167 Y88.215 E7.20753
G1 X132.914 Y88.373 E7.23293
G1 X135.17 Y88.978 E7.31061
G1 X135.889 Y89.212 E7.33576
G1 X138.003 Y90.023 E7.41107
G1 X138.702 Y90.335 E7.43653
G1 X140.749 Y91.38 E7.51297
G1 X141.395 Y91.753 E7.53778
G1 X143.298 Y92.986 E7.6132
G1 X143.62 Y93.207 E7.62619
G1 X143.686 Y93.255 E7.62891
G1 X143.982 Y93.482 E7.64131
G1 X145.721 Y94.889 E7.71571
G1 X146.289 Y95.4 E7.74112
G1 X147.942 Y97.054 E7.8189
G1 X148.443 Y97.61 E7.84379
G1 X149.883 Y99.384 E7.91979
G1 X150.334 Y100.004 E7.94529
G1 X151.587 Y101.933 E8.02179
G1 X151.966 Y102.59 E8.04702
G1 X153.023 Y104.664 E8.12444
G1 X153.329 Y105.348 E8.14937
G1 X154.148 Y107.472 E8.22508
G1 X154.388 Y108.211 E8.25092
G1 X154.993 Y110.478 E8.32896
G1 X155.149 Y111.217 E8.35408
G1 X155.496 Y113.416 E8.42813
G1 X155.55 Y113.836 E8.44221
G1 X155.569 Y114.029 E8.44866
G1 X155.594 Y114.366 E8.4599
G1 X155.702 Y116.461 E8.52967
G1 X155.712 Y116.834 E8.54209
G1 X155.712 Y116.93 E8.54528
G1 X155.702 Y117.307 E8.55782
G1 X155.585 Y119.555 E8.63269
G1 X155.506 Y120.308 E8.65787
G1 X155.148 Y122.577 E8.73427
G1 X154.99 Y123.323 E8.75964
G1 X154.387 Y125.574 E8.83715
G1 X154.155 Y126.291 E8.86221
G1 X153.337 Y128.427 E8.93829
G1 X153.023 Y129.131 E8.96392
G1 X151.964 Y131.205 E9.04138
G1 X151.587 Y131.858 E9.06646
G1 X150.337 Y133.782 E9.14277
G1 X149.894 Y134.391 E9.16782
G1 X148.447 Y136.18 E9.24435
G1 X147.937 Y136.748 E9.26974
G1 X146.32 Y138.365 E9.34579
G1 X145.752 Y138.876 E9.37121
G1 X143.965 Y140.321 E9.44764
G1 X143.361 Y140.759 E9.47246
G1 X141.393 Y142.04 E9.55056
G1 X140.733 Y142.422 E9.57592
G1 X138.736 Y143.441 E9.65049
G1 X138.033 Y143.754 E9.67608
G1 X135.857 Y144.587 E9.75358
G1 X135.143 Y144.818 E9.77854
G1 X132.906 Y145.418 E9.85557
G1 X132.158 Y145.577 E9.88101
G1 X129.864 Y145.939 E9.95825
G1 X129.113 Y146.018 E9.98337
G1 X126.895 Y146.134 E10.05724
G1 X126.516 Y146.144 E10.06985
G1 X126.423 Y146.144 E10.07294
G1 X126.038 Y146.134 E10.08575
G1 X123.837 Y146.017 E10.15906
G1 X123.554 Y145.997 E10.1685
G1 X122.997 Y145.93 E10.18715
G1 X120.745 Y145.572 E10.263
G1 X120.005 Y145.414 E10.28816
G1 X117.772 Y144.815 E10.36506
G1 X117.043 Y144.578 E10.39056
G1 X114.92 Y143.76 E10.46623
G1 X114.241 Y143.457 E10.49096
G1 X112.18 Y142.409 E10.56786
G1 X111.512 Y142.024 E10.5935
G1 X109.562 Y140.755 E10.67089
G1 X108.961 Y140.318 E10.6956
G1 X107.178 Y138.878 E10.77183
G1 X106.605 Y138.363 E10.79745
G1 X104.994 Y136.751 E10.87325
G1 X104.491 Y136.193 E10.89824
G1 X103.036 Y134.399 E10.97507
G1 X102.587 Y133.781 E11.00047
G1 X101.325 Y131.838 E11.07753
G1 X100.879 Y131.047 E11.10773
G1 X100.847 Y130.981 E11.11017
G1 X99.91 Y129.147 E11.17867
G1 X99.6 Y128.452 E11.20398
G1 X98.771 Y126.296 E11.28081
G1 X98.533 Y125.564 E11.30641
G1 X97.944 Y123.358 E11.38235
G1 X97.787 Y122.616 E11.40758
G1 X97.421 Y120.292 E11.48583
G1 X97.373 Y119.926 E11.49811
G1 X97.358 Y119.784 E11.50286
G1 X97.327 Y119.386 E11.51613
G1 X97.223 Y117.318 E11.585
G1 X97.214 Y116.954 E11.59711
G1 X97.214 Y116.835 E11.60107
G1 X97.224 Y116.457 E11.61365
G1 X97.336 Y114.314 E11.68502
G1 X97.364 Y113.933 E11.69773
G1 X97.427 Y113.419 E11.71495
G1 X97.781 Y111.181 E11.79031
G1 X97.941 Y110.43 E11.81585
G1 X98.534 Y108.226 E11.89176
G1 X98.763 Y107.522 E11.91639
G1 X99.597 Y105.34 E11.99408
G1 X99.913 Y104.63 E12.01993
G1 X100.948 Y102.604 E12.0956
G1 X101.327 Y101.947 E12.12082
G1 X102.598 Y99.994 E12.19833
G1 X103.043 Y99.384 E12.22344
G1 X104.476 Y97.616 E12.29913
G1 X104.985 Y97.051 E12.32443
G0 F9000 X105.338 Y97.405
G1 F1800 X106.967 Y95.778 E12.401
G1 X107.478 Y95.317 E12.42389
G1 X109.282 Y93.85 E12.50123
G1 X109.879 Y93.417 E12.52576
G1 X111.808 Y92.171 E12.60214
G1 X112.392 Y91.833 E12.62458
G1 X114.43 Y90.789 E12.70074
G1 X115.092 Y90.494 E12.72485
G1 X117.229 Y89.675 E12.80096
G1 X117.896 Y89.458 E12.82429
G1 X120.17 Y88.848 E12.9026
G1 X120.862 Y88.701 E12.92613
G1 X123.083 Y88.349 E13.00092
G1 X123.783 Y88.275 E13.02433
G1 X126.05 Y88.155 E13.09984
G1 X126.407 Y88.146 E13.11172
G1 X126.527 Y88.146 E13.11571
G1 X126.873 Y88.155 E13.12722
G1 X129.052 Y88.267 E13.19979
G1 X129.759 Y88.341 E13.22343
G1 X132.089 Y88.709 E13.30189
G1 X132.784 Y88.856 E13.32552
G1 X135.04 Y89.461 E13.4032
G1 X135.71 Y89.679 E13.42664
G1 X137.824 Y90.49 E13.50195
G1 X138.475 Y90.78 E13.52565
G1 X140.522 Y91.825 E13.60209
G1 X141.123 Y92.172 E13.62518
G1 X143.026 Y93.405 E13.70059
G1 X143.326 Y93.611 E13.7127
G1 X143.392 Y93.659 E13.71541
G1 X143.668 Y93.87 E13.72697
G1 X145.407 Y95.277 E13.80137
G1 X145.935 Y95.753 E13.82501
G1 X147.588 Y97.407 E13.90279
G1 X148.055 Y97.925 E13.92598
G1 X149.495 Y99.699 E14.00198
G1 X149.915 Y100.276 E14.02572
G1 X151.168 Y102.205 E14.10222
G1 X151.521 Y102.817 E14.12572
G1 X152.578 Y104.891 E14.20314
G1 X152.862 Y105.528 E14.22634
G1 X153.681 Y107.652 E14.30205
G1 X153.905 Y108.34 E14.32612
G1 X154.51 Y110.607 E14.40416
G1 X154.655 Y111.295 E14.42755
G1 X155.002 Y113.494 E14.50159
G1 X155.053 Y113.885 E14.5147
G1 X155.072 Y114.078 E14.52115
G1 X155.095 Y114.391 E14.53159
G1 X155.203 Y116.486 E14.60137
G1 X155.212 Y116.834 E14.61294
G1 X155.212 Y116.93 E14.61614
G1 X155.203 Y117.281 E14.62782
G1 X155.086 Y119.529 E14.70269
G1 X155.013 Y120.23 E14.72613
G1 X154.655 Y122.499 E14.80253
G1 X154.507 Y123.194 E14.82616
G1 X153.904 Y125.445 E14.90367
G1 X153.688 Y126.112 E14.92699
G1 X152.87 Y128.248 E15.00306
G1 X152.578 Y128.904 E15.02695
G1 X151.519 Y130.978 E15.1044
G1 X151.167 Y131.585 E15.12774
G1 X149.917 Y133.509 E15.20405
G1 X149.505 Y134.077 E15.22739
G1 X148.058 Y135.866 E15.30392
G1 X147.583 Y136.394 E15.32754
G1 X145.966 Y138.011 E15.4036
G1 X145.437 Y138.487 E15.42727
G1 X143.65 Y139.932 E15.5037
G1 X143.088 Y140.34 E15.5268
G1 X141.12 Y141.621 E15.6049
G1 X140.506 Y141.976 E15.62849
G1 X138.509 Y142.995 E15.70306
G1 X137.854 Y143.287 E15.72691
G1 X135.678 Y144.12 E15.80441
G1 X135.014 Y144.336 E15.82763
G1 X132.777 Y144.936 E15.90466
G1 X132.08 Y145.083 E15.92836
G1 X129.786 Y145.445 E16.0056
G1 X129.087 Y145.519 E16.02898
G1 X126.869 Y145.635 E16.10285
G1 X126.516 Y145.644 E16.1146
G1 X126.423 Y145.644 E16.11769
G1 X126.065 Y145.634 E16.1296
G1 X123.864 Y145.517 E16.20291
G1 X123.594 Y145.498 E16.21191
G1 X123.075 Y145.436 E16.2293
G1 X120.823 Y145.078 E16.30514
G1 X120.134 Y144.932 E16.32856
G1 X117.901 Y144.333 E16.40546
G1 X117.223 Y144.112 E16.42918
G1 X115.1 Y143.294 E16.50485
G1 X114.468 Y143.012 E16.52787
G1 X112.407 Y141.964 E16.60477
G1 X111.784 Y141.605 E16.62868
G1 X109.834 Y140.336 E16.70607
G1 X109.275 Y139.929 E16.72906
G1 X107.492 Y138.489 E16.80529
G1 X106.959 Y138.009 E16.82915
G1 X105.348 Y136.397 E16.90495
G1 X104.879 Y135.878 E16.92822
G1 X103.424 Y134.084 E17.00504
G1 X103.006 Y133.509 E17.02869
G1 X101.744 Y131.566 E17.10574
G1 X101.329 Y130.829 E17.13388
G1 X101.294 Y130.757 E17.13654
G1 X100.356 Y128.92 E17.20514
G1 X100.067 Y128.273 E17.22871
G1 X99.238 Y126.117 E17.30554
G1 X99.016 Y125.435 E17.32939
G1 X98.427 Y123.229 E17.40534
G1 X98.281 Y122.538 E17.42883
G1 X97.915 Y120.214 E17.50707
G1 X97.87 Y119.873 E17.51851
G1 X97.855 Y119.731 E17.52326
G1 X97.827 Y119.361 E17.53561
G1 X97.723 Y117.293 E17.60447
G1 X97.714 Y116.954 E17.61575
G1 X97.714 Y116.835 E17.61971
G1 X97.723 Y116.483 E17.63142
G1 X97.835 Y114.34 E17.7028
G1 X97.863 Y113.976 E17.71494
G1 X97.921 Y113.497 E17.73099
G1 X98.275 Y111.259 E17.80635
G1 X98.424 Y110.56 E17.83012
G1 X99.017 Y108.356 E17.90603
G1 X99.23 Y107.7 E17.92897
G1 X100.064 Y105.518 E18.00667
G1 X100.358 Y104.857 E18.03073
G1 X101.393 Y102.831 E18.1064
G1 X101.747 Y102.22 E18.12988
G1 X103.018 Y100.267 E18.20738
G1 X103.431 Y99.699 E18.23074
G1 X104.864 Y97.931 E18.30644
G1 X105.338 Y97.405 E18.32999
G0 F9000 X105.691 Y97.759
G1 F1800 X107.32 Y96.132 E18.40656
G1 X107.794 Y95.705 E18.42778
G1 X109.598 Y94.238 E18.50512
G1 X110.15 Y93.837 E18.52781
G1 X112.079 Y92.591 E18.60419
G1 X112.62 Y92.278 E18.62498
G1 X114.658 Y91.234 E18.70114
G1 X115.271 Y90.961 E18.72346
G1 X117.408 Y90.142 E18.79957
G1 X118.026 Y89.941 E18.82119
G1 X120.3 Y89.331 E18.8995
G1 X120.941 Y89.195 E18.92129
G1 X123.162 Y88.843 E18.99608
G1 X123.81 Y88.775 E19.01775
G1 X126.077 Y88.655 E19.09326
G1 X126.407 Y88.646 E19.10424
G1 X126.527 Y88.646 E19.10823
G1 X126.848 Y88.654 E19.11891
G1 X129.027 Y88.766 E19.19148
G1 X129.681 Y88.835 E19.21335
G1 X132.011 Y89.203 E19.29181
G1 X132.655 Y89.339 E19.3137
G1 X134.911 Y89.944 E19.39139
G1 X135.531 Y90.146 E19.41308
G1 X137.645 Y90.957 E19.48839
G1 X138.248 Y91.225 E19.51033
G1 X140.295 Y92.27 E19.58678
G1 X140.852 Y92.592 E19.60817
G1 X142.755 Y93.825 E19.68359
G1 X143.032 Y94.015 E19.69476
G1 X143.098 Y94.063 E19.69748
G1 X143.353 Y94.259 E19.70818
G1 X145.092 Y95.666 E19.78258
G1 X145.582 Y96.107 E19.8045
G1 X147.235 Y97.761 E19.88228
G1 X147.667 Y98.24 E19.90373
G1 X149.107 Y100.014 E19.97973
G1 X149.495 Y100.548 E20.00168
G1 X150.748 Y102.477 E20.07819
G1 X151.076 Y103.044 E20.09997
G1 X152.133 Y105.118 E20.1774
G1 X152.395 Y105.707 E20.19884
G1 X153.214 Y107.831 E20.27455
G1 X153.422 Y108.468 E20.29684
G1 X154.027 Y110.735 E20.37488
G1 X154.162 Y111.373 E20.39657
G1 X154.509 Y113.572 E20.47061
G1 X154.555 Y113.934 E20.48275
G1 X154.574 Y114.127 E20.4892
G1 X154.596 Y114.417 E20.49887
G1 X154.704 Y116.512 E20.56865
G1 X154.712 Y116.834 E20.57936
G1 X154.712 Y116.93 E20.58255
G1 X154.704 Y117.255 E20.59337
G1 X154.587 Y119.503 E20.66824
G1 X154.519 Y120.152 E20.68994
G1 X154.161 Y122.421 E20.76634
G1 X154.024 Y123.064 E20.78821
G1 X153.421 Y125.315 E20.86571
G1 X153.221 Y125.933 E20.88732
G1 X152.403 Y128.069 E20.96339
G1 X152.132 Y128.676 E20.9855
G1 X151.073 Y130.75 E21.06296
G1 X150.748 Y131.313 E21.08458
G1 X149.498 Y133.237 E21.16089
G1 X149.116 Y133.762 E21.18249
G1 X147.669 Y135.551 E21.25902
G1 X147.229 Y136.04 E21.28089
G1 X145.612 Y137.657 E21.35695
G1 X145.123 Y138.098 E21.37885
G1 X143.336 Y139.543 E21.45529
G1 X142.816 Y139.921 E21.47667
G1 X140.848 Y141.202 E21.55477
G1 X140.279 Y141.531 E21.57663
G1 X138.282 Y142.55 E21.6512
G1 X137.675 Y142.82 E21.6733
G1 X135.499 Y143.653 E21.75079
G1 X134.884 Y143.853 E21.7723
G1 X132.647 Y144.453 E21.84934
G1 X132.002 Y144.59 E21.87127
G1 X129.708 Y144.952 E21.94851
G1 X129.06 Y145.019 E21.97018
G1 X126.842 Y145.135 E22.04405
G1 X126.516 Y145.144 E22.0549
G1 X126.423 Y145.144 E22.05799
G1 X126.091 Y145.135 E22.06904
G1 X123.89 Y145.018 E22.14235
G1 X123.634 Y145 E22.15088
G1 X123.154 Y144.942 E22.16696
G1 X120.902 Y144.584 E22.2428
G1 X120.264 Y144.449 E22.26449
G1 X118.031 Y143.85 E22.34139
G1 X117.403 Y143.645 E22.36336
G1 X115.28 Y142.827 E22.43903
G1 X114.694 Y142.566 E22.46037
G1 X112.633 Y141.518 E22.53727
G1 X112.057 Y141.185 E22.5594
