;FLAVOR:Marlin
;TIME:5903
;Filament used: 2.00671m
;Layer height: 0.12
;MINX:109.375
;MINY:62.37
;MINZ:0.16
;MAXX:143.82
;MAXY:113.279
;MAXZ:38.32
;Generated with Cura_SteamEngine master
M140 S60
M105
M190 S60
M104 S200
M105
M109 S200
M82 ;absolute extrusion mode
M220 S100 ;reset feedrate
M221 S100 ;reset flowrate
G90 ;use absolute coordinates
M82 ;absolute extrusion mode
G28 ;home
G1 Z2 F1500 ;raise z
G92 E0 ;reset extruder

G1 X75 Y5 F5000 ;start position
G1 Z0.28 F1500 ;lower z
G1 E4 F500 ;prime the filament
G1 X180 E10 F500 ;1st line
G1 Y5.4 F5000
G1 X75 E20 F500 ;2nd line
G1 Z2 F1500 ;raise z
G92 E0 ;reset extruder
G92 E0
G92 E0
G1 F1500 E-6.5
;LAYER_COUNT:320
;LAYER:0
M107
G0 F9000 X114.693 Y66.693 Z0.16
;TYPE:SKIRT
G1 F1500 E0
G1 F1800 X115.122 Y66.026 E0.01846
G1 X115.157 Y65.983 E0.01975
G1 X115.351 Y65.688 E0.02798
G1 X115.852 Y65.072 E0.04646
G1 X116.413 Y64.511 E0.06493
G1 X117.027 Y64.009 E0.0834
G1 X117.689 Y63.571 E0.10188
G1 X118.201 Y63.293 E0.11544
G1 X118.427 Y63.181 E0.12132
G1 X119.155 Y62.865 E0.13979
G1 X119.911 Y62.624 E0.15827
G1 X120.687 Y62.46 E0.17673
G1 X121.476 Y62.375 E0.19521
G1 X122.27 Y62.37 E0.21369
G1 X123.06 Y62.444 E0.23217
G1 X123.838 Y62.598 E0.25063
G1 X124.597 Y62.83 E0.26911
G1 X125.329 Y63.136 E0.28758
G1 X125.695 Y63.324 E0.29716
G1 X125.816 Y63.39 E0.30037
G1 X126.493 Y63.804 E0.31885
G1 X127.124 Y64.285 E0.33732
G1 X127.704 Y64.826 E0.35579
G1 X128.226 Y65.424 E0.37427
G1 X128.686 Y66.07 E0.39273
G1 X129.078 Y66.76 E0.41121
G1 X129.399 Y67.486 E0.42969
G1 X129.645 Y68.24 E0.44815
G1 X129.782 Y68.868 E0.46312
G1 X130.354 Y68.828 E0.47647
G1 X130.551 Y68.795 E0.48112
G1 X131.34 Y68.714 E0.49958
G1 X132.134 Y68.714 E0.51807
G1 X132.923 Y68.793 E0.53653
G1 X133.701 Y68.951 E0.55502
G1 X134.459 Y69.186 E0.57349
G1 X135.189 Y69.497 E0.59197
G1 X135.884 Y69.879 E0.61043
G1 X136.537 Y70.33 E0.62891
G1 X137.142 Y70.844 E0.64739
G1 X137.465 Y71.167 E0.65802
G1 X137.623 Y71.334 E0.66338
G1 X138.139 Y71.937 E0.68185
G1 X138.591 Y72.589 E0.70033
G1 X138.976 Y73.283 E0.7188
G1 X139.288 Y74.012 E0.73726
G1 X139.342 Y74.185 E0.74148
G1 X139.456 Y74.453 E0.74826
G1 X139.691 Y75.211 E0.76674
G1 X139.7 Y75.257 E0.76783
G1 X139.784 Y75.509 E0.77402
G1 X139.957 Y76.284 E0.7925
G1 X140.035 Y76.88 E0.8065
G1 X140.206 Y78.722 E0.84957
G1 X140.592 Y79.376 E0.86725
G1 X140.807 Y79.818 E0.87869
G1 X141.114 Y80.504 E0.89619
G1 X141.401 Y81.244 E0.91467
G1 X141.601 Y81.965 E0.93209
G1 X141.621 Y82.025 E0.93356
G1 X141.798 Y82.799 E0.95205
G1 X141.884 Y83.44 E0.96711
G1 X142.048 Y85.217 E1.00865
G1 X142.27 Y85.559 E1.01815
G1 X142.736 Y86.503 E1.04266
G1 X142.974 Y87.079 E1.05717
G1 X143.24 Y87.826 E1.07563
G1 X143.273 Y87.963 E1.07891
G1 X143.409 Y88.398 E1.08952
G1 X143.569 Y89.176 E1.10801
G1 X143.625 Y89.625 E1.11855
G1 X143.784 Y91.29 E1.15749
G1 X143.82 Y92.083 E1.17597
G1 X143.775 Y92.875 E1.19444
G1 X143.732 Y93.187 E1.20177
G1 X143.679 Y93.64 E1.21239
G1 X143.577 Y94.102 E1.22341
G1 X143.553 Y94.279 E1.22757
G1 X143.368 Y95.051 E1.24605
G1 X143.107 Y95.8 E1.26452
G1 X142.771 Y96.519 E1.28299
G1 X142.311 Y97.28 E1.3037
G1 X142.116 Y97.565 E1.31174
G1 X141.636 Y98.196 E1.33019
G1 X141.094 Y98.776 E1.34868
G1 X140.497 Y99.299 E1.36716
G1 X139.6 Y99.912 E1.39245
G1 X139.571 Y99.929 E1.39323
G1 X139.239 Y100.101 E1.40194
G1 X138.796 Y100.71 E1.41947
G1 X138.267 Y101.301 E1.43794
G1 X137.68 Y101.836 E1.45643
G1 X136.968 Y102.359 E1.477
G1 X136.885 Y102.413 E1.4793
G1 X136.199 Y102.812 E1.49778
G1 X136.13 Y102.843 E1.49954
G1 X135.79 Y103.321 E1.5132
G1 X135.268 Y103.918 E1.53166
G1 X134.891 Y104.282 E1.54386
G1 X134.279 Y104.787 E1.56234
G1 X133.619 Y105.228 E1.58082
G1 X132.919 Y105.601 E1.59928
G1 X132.642 Y105.714 E1.60625
G1 X132.613 Y106.187 E1.61728
G1 X132.487 Y106.97 E1.63575
G1 X132.282 Y107.737 E1.65423
G1 X132.001 Y108.479 E1.6727
G1 X131.647 Y109.189 E1.69117
G1 X131.223 Y109.86 E1.70965
G1 X130.734 Y110.484 E1.72811
G1 X130.184 Y111.057 E1.7466
G1 X129.779 Y111.412 E1.75914
G1 X129.679 Y111.494 E1.76215
G1 X129.041 Y111.966 E1.78063
G1 X128.359 Y112.371 E1.7991
G1 X127.639 Y112.705 E1.81758
G1 X126.89 Y112.965 E1.83603
G1 X126.118 Y113.149 E1.85451
G1 X125.331 Y113.254 E1.873
G1 X124.538 Y113.279 E1.89147
G1 X123.746 Y113.224 E1.90995
G1 X122.648 Y113.012 E1.93599
G1 X122.368 Y112.937 E1.94274
G1 X121.613 Y112.693 E1.96121
G1 X120.887 Y112.375 E1.97966
G1 X120.195 Y111.985 E1.99816
G1 X119.547 Y111.527 E2.01663
G1 X118.948 Y111.007 E2.0351
G1 X118.405 Y110.429 E2.05356
G1 X118.331 Y110.329 E2.05646
G1 X117.967 Y109.904 E2.06949
G1 X117.801 Y109.665 E2.07626
G1 X117.2 Y109.19 E2.0941
G1 X116.63 Y108.638 E2.11257
G1 X116.119 Y108.031 E2.13105
G1 X115.671 Y107.376 E2.14952
G1 X115.292 Y106.679 E2.16799
G1 X114.984 Y105.948 E2.18646
G1 X114.806 Y105.364 E2.20068
G1 X114.599 Y105.161 E2.20743
G1 X114.092 Y104.55 E2.22591
G1 X113.649 Y103.892 E2.24438
G1 X113.275 Y103.192 E2.26286
G1 X113.142 Y102.857 E2.27125
G1 X113.038 Y102.655 E2.27654
G1 X112.936 Y102.396 E2.28302
G1 X112.324 Y101.301 E2.31222
G1 X111.972 Y100.59 E2.33069
G1 X111.694 Y99.847 E2.34916
G1 X111.492 Y99.079 E2.36765
G1 X111.406 Y98.685 E2.37704
G1 X111.311 Y98.429 E2.3834
G1 X111.219 Y98.119 E2.39093
G1 X111.192 Y98.006 E2.39363
G1 X111.017 Y97.418 E2.40792
G1 X110.94 Y97.115 E2.4152
G1 X110.847 Y96.761 E2.42372
G1 X110.761 Y96.368 E2.43308
G1 X110.667 Y95.985 E2.44227
G1 X110.612 Y95.811 E2.44651
G1 X110.557 Y95.521 E2.45339
G1 X110.519 Y95.382 E2.45674
G1 X110.347 Y94.607 E2.47522
G1 X110.316 Y94.372 E2.48074
G1 X110.233 Y94.026 E2.48903
G1 X110.193 Y93.738 E2.4958
G1 X110.084 Y93.247 E2.50751
G1 X110.006 Y92.654 E2.52143
G1 X109.993 Y92.517 E2.52464
G1 X109.91 Y92.14 E2.53362
G1 X109.833 Y91.552 E2.54743
G1 X109.754 Y90.694 E2.56749
G1 X109.667 Y90.065 E2.58227
G1 X109.563 Y88.512 E2.61851
G1 X109.454 Y87.386 E2.64485
G1 X109.417 Y86.593 E2.66333
G1 X109.407 Y86.164 E2.67332
G1 X109.375 Y85.371 E2.6918
G1 X109.397 Y85.081 E2.69857
G1 X109.382 Y84.77 E2.70582
G1 X109.406 Y84.359 E2.71541
G1 X109.396 Y84.11 E2.72121
G1 X109.417 Y83.764 E2.72928
G1 X109.408 Y83.572 E2.73375
G1 X109.435 Y83.147 E2.74367
G1 X109.432 Y83.099 E2.74479
G1 X109.469 Y82.307 E2.76325
G1 X109.483 Y82.207 E2.7656
G1 X109.504 Y81.816 E2.77472
G1 X109.532 Y81.636 E2.77896
G1 X109.551 Y81.378 E2.78498
G1 X109.582 Y80.997 E2.79388
G1 X109.626 Y80.428 E2.80717
G1 X109.658 Y80.178 E2.81303
G1 X109.73 Y79.758 E2.82296
G1 X109.814 Y78.96 E2.84164
G1 X109.832 Y78.879 E2.84357
G1 X109.844 Y78.43 E2.85403
G1 X109.945 Y77.643 E2.8725
G1 X110.225 Y76.547 E2.89884
G1 X110.725 Y75.049 E2.9356
G1 X110.741 Y74.987 E2.9371
G1 X110.982 Y74.231 E2.95557
G1 X111.298 Y73.503 E2.97405
G1 X111.685 Y72.811 E2.99251
G1 X111.767 Y72.694 E2.99583
G1 X111.785 Y72.584 E2.99843
G1 X111.994 Y71.818 E3.01691
G1 X112.279 Y71.077 E3.0354
G1 X112.636 Y70.369 E3.05386
G1 X113.064 Y69.7 E3.07235
G1 X113.315 Y69.383 E3.08176
G1 X114.257 Y67.598 E3.12875
G1 X114.334 Y67.401 E3.13368
G1 X114.693 Y66.693 E3.15216
G0 F9000 X115.014 Y66.837
G1 F1800 X115.437 Y66.187 E3.17022
G1 X115.46 Y66.159 E3.17106
G1 X115.654 Y65.867 E3.17922
G1 X116.147 Y65.268 E3.19728
G1 X116.7 Y64.724 E3.21534
G1 X117.305 Y64.239 E3.2334
G1 X117.958 Y63.82 E3.25146
G1 X118.357 Y63.607 E3.26199
G1 X118.583 Y63.495 E3.26786
G1 X119.294 Y63.186 E3.28591
G1 X120.034 Y62.953 E3.30398
G1 X120.794 Y62.797 E3.32204
G1 X121.566 Y62.721 E3.3401
G1 X122.341 Y62.724 E3.35814
G1 X123.113 Y62.806 E3.37622
G1 X123.871 Y62.968 E3.39426
G1 X124.609 Y63.207 E3.41232
G1 X125.527 Y63.631 E3.43587
G1 X125.648 Y63.697 E3.43908
G1 X126.309 Y64.103 E3.45714
G1 X126.925 Y64.575 E3.4752
G1 X127.489 Y65.107 E3.49326
G1 X127.994 Y65.695 E3.5113
G1 X128.437 Y66.332 E3.52937
G1 X128.812 Y67.011 E3.54743
G1 X129.115 Y67.725 E3.56548
G1 X129.343 Y68.467 E3.58356
G1 X129.493 Y69.228 E3.60161
G1 X129.496 Y69.253 E3.6022
G1 X129.709 Y69.219 E3.60722
G1 X130.421 Y69.18 E3.62382
G1 X130.69 Y69.128 E3.6302
G1 X131.463 Y69.059 E3.64827
G1 X132.238 Y69.07 E3.66632
G1 X133.009 Y69.161 E3.68439
G1 X133.766 Y69.33 E3.70245
G1 X134.501 Y69.577 E3.7205
G1 X135.207 Y69.898 E3.73856
G1 X135.877 Y70.29 E3.75663
G1 X136.502 Y70.748 E3.77467
G1 X137.211 Y71.407 E3.79721
G1 X137.369 Y71.574 E3.80256
G1 X137.873 Y72.165 E3.82065
G1 X138.312 Y72.803 E3.83868
G1 X138.684 Y73.484 E3.85674
G1 X138.984 Y74.199 E3.8748
G1 X139.025 Y74.334 E3.87808
G1 X139.133 Y74.59 E3.88455
G1 X139.36 Y75.331 E3.90259
G1 X139.366 Y75.362 E3.90333
G1 X139.451 Y75.619 E3.90963
G1 X139.618 Y76.377 E3.9277
G1 X139.687 Y76.912 E3.94026
G1 X139.867 Y78.853 E3.98564
G1 X139.954 Y78.974 E3.98911
G1 X140.488 Y79.961 E4.01524
G1 X140.795 Y80.647 E4.03274
G1 X141.074 Y81.371 E4.0508
G1 X141.256 Y82.04 E4.06695
G1 X141.289 Y82.137 E4.06933
G1 X141.459 Y82.894 E4.08739
G1 X141.535 Y83.472 E4.10097
G1 X141.706 Y85.331 E4.14443
G1 X142.019 Y85.826 E4.15807
G1 X142.413 Y86.636 E4.17904
G1 X142.651 Y87.212 E4.19355
G1 X142.91 Y87.944 E4.21163
G1 X142.943 Y88.081 E4.21491
G1 X143.075 Y88.503 E4.2252
G1 X143.229 Y89.263 E4.24326
G1 X143.277 Y89.659 E4.25254
G1 X143.436 Y91.324 E4.29148
G1 X143.47 Y92.099 E4.30954
G1 X143.424 Y92.873 E4.3276
G1 X143.385 Y93.146 E4.33402
G1 X143.325 Y93.633 E4.34544
G1 X143.227 Y94.066 E4.35578
G1 X143.199 Y94.266 E4.36048
G1 X143.012 Y95.019 E4.37854
G1 X142.749 Y95.749 E4.39661
G1 X142.412 Y96.447 E4.41465
G1 X142.022 Y97.082 E4.432
G1 X141.827 Y97.367 E4.44004
G1 X141.357 Y97.984 E4.4581
G1 X140.826 Y98.549 E4.47615
G1 X140.239 Y99.056 E4.49421
G1 X139.423 Y99.61 E4.51718
G1 X139.394 Y99.627 E4.51796
G1 X138.993 Y99.835 E4.52848
G1 X138.942 Y99.921 E4.5308
G1 X138.48 Y100.544 E4.54886
G1 X137.956 Y101.116 E4.56692
G1 X137.377 Y101.632 E4.58498
G1 X136.777 Y102.066 E4.60222
G1 X136.694 Y102.12 E4.60453
G1 X136.023 Y102.508 E4.62257
G1 X135.903 Y102.562 E4.62563
G1 X135.483 Y103.145 E4.64236
G1 X134.69 Y103.992 E4.66938
G1 X134.655 Y104.024 E4.67048
G1 X134.056 Y104.517 E4.68854
G1 X133.41 Y104.946 E4.7066
G1 X132.723 Y105.306 E4.72466
G1 X132.307 Y105.472 E4.73508
G1 X132.262 Y106.183 E4.75167
G1 X132.133 Y106.948 E4.76973
G1 X131.927 Y107.696 E4.7878
G1 X131.645 Y108.418 E4.80584
G1 X131.29 Y109.108 E4.82391
G1 X130.866 Y109.757 E4.84196
G1 X130.377 Y110.359 E4.86001
G1 X129.557 Y111.142 E4.88641
G1 X129.457 Y111.224 E4.88942
G1 X128.833 Y111.684 E4.90747
G1 X128.165 Y112.078 E4.92553
G1 X127.459 Y112.4 E4.94359
G1 X126.725 Y112.649 E4.96164
G1 X125.968 Y112.82 E4.97971
G1 X125.198 Y112.913 E4.99777
G1 X124.423 Y112.925 E5.01581
G1 X123.65 Y112.858 E5.03388
G1 X122.739 Y112.674 E5.05551
G1 X122.459 Y112.599 E5.06226
G1 X121.721 Y112.36 E5.08032
G1 X121.012 Y112.046 E5.09838
G1 X120.338 Y111.661 E5.11645
G1 X119.708 Y111.209 E5.1345
G1 X119.128 Y110.694 E5.15256
G1 X118.604 Y110.122 E5.17062
G1 X118.565 Y110.069 E5.17215
G1 X118.18 Y109.607 E5.18615
G1 X117.997 Y109.377 E5.193
G1 X117.391 Y108.892 E5.21107
G1 X116.838 Y108.348 E5.22913
G1 X116.345 Y107.75 E5.24717
G1 X115.916 Y107.104 E5.26523
G1 X115.555 Y106.417 E5.2833
G1 X115.267 Y105.697 E5.30135
G1 X115.121 Y105.183 E5.31379
G1 X114.833 Y104.898 E5.32322
G1 X114.341 Y104.299 E5.34127
G1 X113.913 Y103.651 E5.35935
G1 X113.555 Y102.964 E5.37739
G1 X113.442 Y102.674 E5.38463
G1 X113.35 Y102.495 E5.38932
G1 X113.252 Y102.242 E5.39564
G1 X112.63 Y101.13 E5.4253
G1 X112.287 Y100.434 E5.44337
G1 X112.017 Y99.707 E5.46142
G1 X111.824 Y98.956 E5.47948
G1 X111.738 Y98.573 E5.48862
G1 X111.647 Y98.329 E5.49468
G1 X111.555 Y98.019 E5.50221
G1 X111.536 Y97.94 E5.5041
G1 X111.349 Y97.302 E5.51958
G1 X111.274 Y97.01 E5.5266
G1 X111.18 Y96.652 E5.53521
G1 X111.099 Y96.277 E5.54415
G1 X111.005 Y95.89 E5.55342
G1 X110.946 Y95.705 E5.55794
G1 X110.892 Y95.415 E5.56481
G1 X110.857 Y95.289 E5.56785
G1 X110.689 Y94.531 E5.58593
G1 X110.657 Y94.291 E5.59156
G1 X110.574 Y93.944 E5.59987
G1 X110.536 Y93.667 E5.60638
G1 X110.426 Y93.171 E5.61821
G1 X110.354 Y92.622 E5.6311
G1 X110.339 Y92.458 E5.63494
G1 X110.252 Y92.064 E5.64433
G1 X110.182 Y91.52 E5.6571
G1 X110.107 Y90.702 E5.67622
G1 X110.016 Y90.042 E5.69174
G1 X109.911 Y88.476 E5.72828
G1 X109.802 Y87.352 E5.75457
G1 X109.767 Y86.577 E5.77263
G1 X109.779 Y86.402 E5.77671
G1 X109.755 Y86.133 E5.783
G1 X109.726 Y85.358 E5.80106
G1 X109.747 Y85.079 E5.80757
G1 X109.732 Y84.753 E5.81517
G1 X109.756 Y84.342 E5.82476
G1 X109.747 Y84.096 E5.83049
G1 X109.768 Y83.759 E5.83835
G1 X109.758 Y83.555 E5.8431
G1 X109.785 Y83.137 E5.85286
G1 X109.782 Y83.081 E5.85416
G1 X109.821 Y82.306 E5.87223
G1 X109.832 Y82.232 E5.87397
G1 X109.856 Y81.818 E5.88362
G1 X109.899 Y81.431 E5.89269
G1 X109.908 Y81.176 E5.89863
G1 X109.932 Y81.004 E5.90267
G1 X109.978 Y80.438 E5.9159
G1 X110.01 Y80.185 E5.92183
G1 X110.081 Y79.784 E5.93131
G1 X110.081 Y79.752 E5.93206
G1 X110.166 Y78.981 E5.95012
G1 X110.18 Y78.915 E5.95169
G1 X110.195 Y78.423 E5.96315
G1 X110.299 Y77.654 E5.98122
G1 X110.557 Y76.658 E6.00517
G1 X111.055 Y75.165 E6.04181
G1 X111.079 Y75.076 E6.04396
G1 X111.316 Y74.338 E6.06201
G1 X111.627 Y73.627 E6.08007
G1 X112.009 Y72.952 E6.09813
G1 X112.102 Y72.822 E6.10185
G1 X112.139 Y72.607 E6.10693
G1 X112.349 Y71.861 E6.12498
G1 X112.635 Y71.14 E6.14303
G1 X112.993 Y70.452 E6.16109
G1 X113.42 Y69.805 E6.17914
G1 X113.608 Y69.576 E6.18604
G1 X114.576 Y67.743 E6.2343
G1 X114.66 Y67.527 E6.2397
G1 X115.014 Y66.837 E6.25775
G0 F9000 X115.335 Y66.982
G1 F1800 X115.752 Y66.35 E6.27538
G1 X115.956 Y66.046 E6.2839
G1 X116.442 Y65.465 E6.30154
G1 X116.986 Y64.938 E6.31917
G1 X117.582 Y64.472 E6.33679
G1 X118.512 Y63.92 E6.36197
G1 X118.738 Y63.808 E6.36784
G1 X119.433 Y63.508 E6.38546
G1 X120.157 Y63.283 E6.40311
G1 X120.899 Y63.136 E6.42072
G1 X121.654 Y63.067 E6.43838
G1 X122.411 Y63.079 E6.456
G1 X123.163 Y63.17 E6.47364
G1 X123.901 Y63.34 E6.49127
G1 X124.617 Y63.587 E6.5089
G1 X125.36 Y63.938 E6.52804
G1 X125.481 Y64.004 E6.53125
G1 X126.126 Y64.401 E6.54888
G1 X126.725 Y64.864 E6.56651
G1 X127.272 Y65.388 E6.58414
G1 X127.761 Y65.966 E6.60177
G1 X128.186 Y66.593 E6.6194
G1 X128.543 Y67.261 E6.63704
G1 X128.828 Y67.963 E6.65468
G1 X129.037 Y68.691 E6.67231
G1 X129.188 Y69.654 E6.69501
G1 X129.852 Y69.557 E6.71063
G1 X130.436 Y69.535 E6.72424
G1 X130.828 Y69.463 E6.73351
G1 X131.583 Y69.406 E6.75114
G1 X132.34 Y69.429 E6.76878
G1 X133.09 Y69.531 E6.7864
G1 X133.826 Y69.712 E6.80404
G1 X134.538 Y69.97 E6.82168
G1 X135.219 Y70.301 E6.8393
G1 X135.861 Y70.702 E6.85693
G1 X136.458 Y71.169 E6.87457
G1 X136.957 Y71.648 E6.89068
G1 X137.115 Y71.815 E6.89603
G1 X137.606 Y72.392 E6.91367
G1 X138.033 Y73.017 E6.93129
G1 X138.392 Y73.684 E6.94893
G1 X138.678 Y74.385 E6.96656
G1 X138.703 Y74.47 E6.96862
G1 X138.811 Y74.726 E6.97509
G1 X139.03 Y75.451 E6.99272
G1 X139.033 Y75.468 E6.99312
G1 X139.119 Y75.729 E6.99952
G1 X139.278 Y76.469 E7.01714
G1 X139.338 Y76.944 E7.02829
G1 X139.527 Y78.981 E7.07592
G1 X139.716 Y79.253 E7.08363
G1 X140.168 Y80.104 E7.10606
G1 X140.475 Y80.79 E7.12356
G1 X140.748 Y81.497 E7.14121
G1 X140.92 Y82.137 E7.15664
G1 X140.957 Y82.249 E7.15938
G1 X141.12 Y82.988 E7.177
G1 X141.187 Y83.504 E7.18912
G1 X141.365 Y85.439 E7.23436
G1 X141.766 Y86.091 E7.25218
G1 X142.089 Y86.77 E7.26968
G1 X142.327 Y87.346 E7.28419
G1 X142.579 Y88.06 E7.30182
G1 X142.609 Y88.185 E7.30482
G1 X142.74 Y88.607 E7.3151
G1 X142.929 Y89.692 E7.34075
G1 X143.088 Y91.357 E7.37969
G1 X143.12 Y92.114 E7.39733
G1 X143.072 Y92.869 E7.41494
G1 X143.039 Y93.096 E7.42028
G1 X142.97 Y93.625 E7.4327
G1 X142.878 Y94.029 E7.44235
G1 X142.845 Y94.252 E7.4476
G1 X142.657 Y94.985 E7.46521
G1 X142.392 Y95.695 E7.48286
G1 X142.053 Y96.373 E7.50051
G1 X141.734 Y96.885 E7.51455
G1 X141.539 Y97.17 E7.52259
G1 X141.079 Y97.771 E7.54021
G1 X140.558 Y98.321 E7.55785
G1 X139.982 Y98.813 E7.57549
G1 X139.246 Y99.308 E7.59614
G1 X139.217 Y99.325 E7.59692
G1 X138.74 Y99.571 E7.60942
G1 X138.62 Y99.772 E7.61487
G1 X138.164 Y100.376 E7.63249
G1 X137.647 Y100.929 E7.65011
G1 X137.074 Y101.425 E7.66776
G1 X136.586 Y101.772 E7.6817
G1 X136.503 Y101.826 E7.684
G1 X135.847 Y102.205 E7.70164
G1 X135.663 Y102.287 E7.70633
