;FLAVOR:Marlin
;TIME:7833
;Filament used: 3.80014m
;Layer height: 0.2
;MINX:84.55
;MINY:91.992
;MINZ:0.2
;MAXX:170.45
;MAXY:118.008
;MAXZ:17.4
;Generated with Cura_SteamEngine master
M140 S50
M105
M190 S50
M104 S190
M105
M109 S190
M82 ;absolute extrusion mode
M220 S100 ;reset feedrate
M221 S100 ;reset flowrate
G90 ;use absolute coordinates
M82 ;absolute extrusion mode
G28 ;home
G1 Z2 F1500 ;raise z
G92 E0 ;reset extruder

G1 X75 Y5 F5000 ;start position
G1 Z0.28 F1500 ;lower z
G1 E4 F500 ;prime the filament
G1 X180 E10 F500 ;1st line
G1 Y5.4 F5000
G1 X75 E20 F500 ;2nd line
G1 Z2 F1500 ;raise z
G92 E0 ;reset extruder
G92 E0
G92 E0
G1 F1500 E-6.5
;LAYER_COUNT:87
;LAYER:0
M107
G0 F6000 X87.054 Y94.263 Z0.2
;TYPE:SKIRT
G1 F1500 E0
G1 F600 X87.638 Y93.735 E0.03273
G1 X88.273 Y93.27 E0.06545
G1 X88.951 Y92.871 E0.09816
G1 X89.667 Y92.543 E0.1309
G1 X90.412 Y92.289 E0.16363
G1 X91.179 Y92.112 E0.19635
G1 X91.96 Y92.014 E0.22908
G1 X92.534 Y91.993 E0.25296
G1 X162.466 Y91.992 E3.16039
G1 X163.252 Y92.032 E3.19311
G1 X164.03 Y92.151 E3.22584
G1 X164.792 Y92.349 E3.25857
G1 X165.53 Y92.623 E3.2913
G1 X166.236 Y92.971 E3.32402
G1 X166.904 Y93.388 E3.35676
G1 X167.525 Y93.871 E3.38947
G1 X167.946 Y94.262 E3.41336
G1 X168.18 Y94.496 E3.42711
G1 X168.708 Y95.08 E3.45985
G1 X169.173 Y95.715 E3.49257
G1 X169.572 Y96.393 E3.52527
G1 X169.9 Y97.109 E3.55802
G1 X170.154 Y97.854 E3.59074
G1 X170.331 Y98.621 E3.62347
G1 X170.429 Y99.402 E3.65619
G1 X170.45 Y99.976 E3.68007
G1 X170.45 Y110.023 E4.09778
G1 X170.41 Y110.809 E4.1305
G1 X170.291 Y111.587 E4.16322
G1 X170.093 Y112.349 E4.19595
G1 X169.819 Y113.087 E4.22868
G1 X169.471 Y113.793 E4.26141
G1 X169.054 Y114.461 E4.29415
G1 X168.571 Y115.082 E4.32685
G1 X168.18 Y115.503 E4.35074
G1 X167.946 Y115.737 E4.3645
G1 X167.362 Y116.265 E4.39723
G1 X166.727 Y116.73 E4.42995
G1 X166.049 Y117.129 E4.46266
G1 X165.333 Y117.457 E4.4954
G1 X164.588 Y117.711 E4.52813
G1 X163.821 Y117.888 E4.56085
G1 X163.04 Y117.986 E4.59358
G1 X162.466 Y118.007 E4.61746
G1 X92.534 Y118.008 E7.52489
G1 X91.748 Y117.968 E7.55761
G1 X90.97 Y117.849 E7.59033
G1 X90.208 Y117.651 E7.62307
G1 X89.47 Y117.377 E7.6558
G1 X88.764 Y117.029 E7.68852
G1 X88.096 Y116.612 E7.72126
G1 X87.475 Y116.129 E7.75397
G1 X87.054 Y115.738 E7.77786
G1 X86.82 Y115.504 E7.79161
G1 X86.292 Y114.92 E7.82435
G1 X85.827 Y114.285 E7.85707
G1 X85.428 Y113.607 E7.88977
G1 X85.1 Y112.891 E7.92252
G1 X84.846 Y112.146 E7.95524
G1 X84.669 Y111.379 E7.98797
G1 X84.571 Y110.598 E8.02069
G1 X84.55 Y110.024 E8.04457
G1 X84.55 Y99.977 E8.46228
G1 X84.59 Y99.191 E8.495
G1 X84.709 Y98.413 E8.52772
G1 X84.907 Y97.651 E8.56045
G1 X85.181 Y96.913 E8.59318
G1 X85.529 Y96.207 E8.62591
G1 X85.946 Y95.539 E8.65864
G1 X86.429 Y94.918 E8.69135
G1 X86.82 Y94.497 E8.71524
G1 X87.054 Y94.263 E8.729
G0 F6000 X87.407 Y94.616
G1 F600 X87.973 Y94.107 E8.76065
G1 X88.589 Y93.66 E8.79229
G1 X89.249 Y93.28 E8.82395
G1 X89.945 Y92.971 E8.85561
G1 X90.669 Y92.737 E8.88724
G1 X91.414 Y92.58 E8.9189
G1 X92.534 Y92.493 E8.9656
G1 X162.466 Y92.492 E11.87304
G1 X163.226 Y92.532 E11.90468
G1 X163.978 Y92.651 E11.93633
G1 X164.713 Y92.849 E11.96798
G1 X165.424 Y93.123 E11.99966
G1 X166.101 Y93.469 E12.03127
G1 X166.739 Y93.885 E12.06293
G1 X167.593 Y94.615 E12.10964
G1 X167.827 Y94.849 E12.1234
G1 X168.336 Y95.415 E12.15505
G1 X168.783 Y96.031 E12.18669
G1 X169.163 Y96.691 E12.21835
G1 X169.472 Y97.387 E12.25001
G1 X169.706 Y98.111 E12.28165
G1 X169.863 Y98.856 E12.3133
G1 X169.95 Y99.976 E12.36
G1 X169.95 Y110.023 E12.77771
G1 X169.91 Y110.783 E12.80935
G1 X169.791 Y111.535 E12.841
G1 X169.593 Y112.27 E12.87265
G1 X169.319 Y112.981 E12.90433
G1 X168.973 Y113.659 E12.93598
G1 X168.557 Y114.296 E12.96761
G1 X167.827 Y115.15 E13.01432
G1 X167.593 Y115.384 E13.02808
G1 X167.027 Y115.893 E13.05972
G1 X166.411 Y116.34 E13.09137
G1 X165.751 Y116.72 E13.12303
G1 X165.055 Y117.029 E13.15469
G1 X164.331 Y117.263 E13.18632
G1 X163.586 Y117.42 E13.21798
G1 X162.466 Y117.507 E13.26468
G1 X92.534 Y117.508 E16.17211
G1 X91.774 Y117.468 E16.20376
G1 X91.022 Y117.349 E16.23541
G1 X90.287 Y117.151 E16.26706
G1 X89.576 Y116.877 E16.29873
G1 X88.899 Y116.531 E16.33034
G1 X88.261 Y116.115 E16.36201
G1 X87.407 Y115.385 E16.40872
G1 X87.173 Y115.151 E16.42248
G1 X86.664 Y114.585 E16.45412
G1 X86.217 Y113.969 E16.48577
G1 X85.837 Y113.309 E16.51743
G1 X85.528 Y112.613 E16.54909
G1 X85.294 Y111.889 E16.58072
G1 X85.137 Y111.144 E16.61238
G1 X85.05 Y110.024 E16.65908
G1 X85.05 Y99.977 E17.07679
G1 X85.09 Y99.217 E17.10843
G1 X85.209 Y98.465 E17.14008
G1 X85.407 Y97.73 E17.17173
G1 X85.681 Y97.019 E17.20341
G1 X86.027 Y96.341 E17.23505
G1 X86.443 Y95.704 E17.26668
G1 X87.173 Y94.85 E17.31339
G1 X87.407 Y94.616 E17.32715
G0 F6000 X87.761 Y94.97
G1 F600 X88.308 Y94.48 E17.35768
G1 X88.905 Y94.052 E17.38822
G1 X89.545 Y93.691 E17.41877
G1 X90.22 Y93.402 E17.4493
G1 X90.923 Y93.188 E17.47985
G1 X91.645 Y93.052 E17.5104
G1 X92.534 Y92.993 E17.54744
G1 X162.466 Y92.992 E20.45487
G1 X163.199 Y93.032 E20.48539
G1 X163.924 Y93.151 E20.51594
G1 X164.632 Y93.349 E20.5465
G1 X165.314 Y93.622 E20.57704
G1 X165.962 Y93.968 E20.60759
G1 X166.569 Y94.382 E20.63813
G1 X167.239 Y94.969 E20.67517
G1 X167.473 Y95.203 E20.68892
G1 X167.963 Y95.75 E20.71946
G1 X168.391 Y96.347 E20.75
G1 X168.752 Y96.987 E20.78055
G1 X169.041 Y97.662 E20.81107
G1 X169.255 Y98.365 E20.84162
G1 X169.391 Y99.087 E20.87217
G1 X169.45 Y99.976 E20.90921
G1 X169.45 Y110.023 E21.32692
G1 X169.41 Y110.756 E21.35744
G1 X169.291 Y111.481 E21.38798
G1 X169.093 Y112.189 E21.41855
G1 X168.82 Y112.871 E21.44909
G1 X168.474 Y113.519 E21.47963
G1 X168.06 Y114.126 E21.51018
G1 X167.473 Y114.796 E21.54721
G1 X167.239 Y115.03 E21.56097
G1 X166.692 Y115.52 E21.5915
G1 X166.095 Y115.948 E21.62204
G1 X165.455 Y116.309 E21.65259
G1 X164.78 Y116.598 E21.68312
G1 X164.077 Y116.812 E21.71367
G1 X163.355 Y116.948 E21.74421
G1 X162.466 Y117.007 E21.78125
G1 X92.534 Y117.008 E24.68869
G1 X91.801 Y116.968 E24.71921
G1 X91.076 Y116.849 E24.74975
G1 X90.368 Y116.651 E24.78032
G1 X89.686 Y116.378 E24.81086
G1 X89.038 Y116.032 E24.8414
G1 X88.431 Y115.618 E24.87195
G1 X87.761 Y115.031 E24.90898
G1 X87.527 Y114.797 E24.92274
G1 X87.037 Y114.25 E24.95327
G1 X86.609 Y113.653 E24.98381
G1 X86.248 Y113.013 E25.01436
G1 X85.959 Y112.338 E25.04489
G1 X85.745 Y111.635 E25.07544
G1 X85.609 Y110.913 E25.10598
G1 X85.55 Y110.024 E25.14303
G1 X85.55 Y99.977 E25.56073
G1 X85.59 Y99.244 E25.59125
G1 X85.709 Y98.519 E25.6218
G1 X85.907 Y97.811 E25.65236
G1 X86.18 Y97.129 E25.6829
G1 X86.526 Y96.481 E25.71344
G1 X86.94 Y95.874 E25.74399
G1 X87.527 Y95.204 E25.78102
G1 X87.761 Y94.97 E25.79478
G0 F6000 X88.115 Y95.324
G1 F600 X88.642 Y94.853 E25.82417
G1 X89.219 Y94.445 E25.85355
G1 X89.838 Y94.104 E25.88293
G1 X90.492 Y93.836 E25.91232
G1 X91.172 Y93.643 E25.9417
G1 X91.87 Y93.528 E25.97111
G1 X92.534 Y93.493 E25.99876
G1 X162.466 Y93.492 E28.90619
G1 X163.172 Y93.532 E28.93559
G1 X163.868 Y93.651 E28.96495
G1 X164.547 Y93.849 E28.99435
G1 X165.199 Y94.121 E29.02372
G1 X165.816 Y94.466 E29.05311
G1 X166.391 Y94.878 E29.08252
G1 X166.885 Y95.323 E29.11017
G1 X167.119 Y95.557 E29.12392
G1 X167.59 Y96.084 E29.15331
G1 X167.998 Y96.661 E29.18269
G1 X168.339 Y97.28 E29.21207
G1 X168.607 Y97.934 E29.24146
G1 X168.8 Y98.614 E29.27084
G1 X168.915 Y99.312 E29.30025
G1 X168.95 Y99.976 E29.3279
G1 X168.95 Y110.023 E29.7456
G1 X168.91 Y110.729 E29.775
G1 X168.791 Y111.425 E29.80436
G1 X168.593 Y112.104 E29.83376
G1 X168.321 Y112.756 E29.86314
G1 X167.976 Y113.373 E29.89253
G1 X167.564 Y113.948 E29.92193
G1 X167.119 Y114.442 E29.94958
G1 X166.885 Y114.676 E29.96334
G1 X166.358 Y115.147 E29.99272
G1 X165.781 Y115.555 E30.0221
G1 X165.162 Y115.896 E30.05148
G1 X164.508 Y116.164 E30.08087
G1 X163.828 Y116.357 E30.11025
G1 X163.13 Y116.472 E30.13967
G1 X162.466 Y116.507 E30.16731
G1 X92.534 Y116.508 E33.07474
G1 X91.828 Y116.468 E33.10414
G1 X91.132 Y116.349 E33.1335
G1 X90.453 Y116.151 E33.16291
G1 X89.801 Y115.879 E33.19228
G1 X89.184 Y115.534 E33.22167
G1 X88.609 Y115.122 E33.25108
G1 X88.115 Y114.677 E33.27872
G1 X87.881 Y114.443 E33.29248
G1 X87.41 Y113.916 E33.32186
G1 X87.002 Y113.339 E33.35124
G1 X86.661 Y112.72 E33.38062
G1 X86.393 Y112.066 E33.41001
G1 X86.2 Y111.386 E33.4394
G1 X86.085 Y110.688 E33.46881
G1 X86.05 Y110.024 E33.49645
G1 X86.05 Y99.977 E33.91416
G1 X86.09 Y99.271 E33.94356
G1 X86.209 Y98.575 E33.97291
G1 X86.407 Y97.896 E34.00232
G1 X86.679 Y97.244 E34.03169
G1 X87.024 Y96.627 E34.06108
G1 X87.436 Y96.052 E34.09049
G1 X87.881 Y95.558 E34.11813
G1 X88.115 Y95.324 E34.13189
G0 F6000 X88.468 Y95.677
G1 F600 X88.975 Y95.227 E34.16007
G1 X89.531 Y94.839 E34.18826
G1 X90.129 Y94.52 E34.21644
G1 X90.761 Y94.273 E34.24465
G1 X91.417 Y94.103 E34.27282
G1 X92.088 Y94.01 E34.30099
G1 X92.534 Y93.993 E34.31954
G1 X162.466 Y93.992 E37.22698
G1 X163.143 Y94.032 E37.25517
G1 X163.81 Y94.151 E37.28334
G1 X164.459 Y94.348 E37.31154
G1 X165.08 Y94.62 E37.33972
G1 X165.664 Y94.964 E37.3679
G1 X166.204 Y95.373 E37.39607
G1 X166.532 Y95.676 E37.41463
G1 X166.766 Y95.91 E37.42839
G1 X167.216 Y96.417 E37.45657
G1 X167.604 Y96.973 E37.48476
G1 X167.923 Y97.571 E37.51294
G1 X168.17 Y98.203 E37.54115
G1 X168.34 Y98.859 E37.56932
G1 X168.433 Y99.53 E37.59749
G1 X168.45 Y99.976 E37.61604
G1 X168.45 Y110.023 E38.03375
G1 X168.41 Y110.7 E38.06195
G1 X168.291 Y111.367 E38.09011
G1 X168.094 Y112.016 E38.11831
G1 X167.822 Y112.637 E38.1465
G1 X167.478 Y113.221 E38.17468
G1 X167.069 Y113.762 E38.20287
G1 X166.766 Y114.089 E38.22141
G1 X166.532 Y114.323 E38.23517
G1 X166.025 Y114.773 E38.26335
G1 X165.469 Y115.161 E38.29154
G1 X164.871 Y115.48 E38.31972
G1 X164.239 Y115.727 E38.34793
G1 X163.583 Y115.897 E38.3761
G1 X162.912 Y115.99 E38.40427
G1 X162.466 Y116.007 E38.42282
G1 X92.534 Y116.008 E41.33026
G1 X91.857 Y115.968 E41.35845
G1 X91.19 Y115.849 E41.38662
G1 X90.541 Y115.652 E41.41482
G1 X89.92 Y115.38 E41.443
G1 X89.336 Y115.036 E41.47118
G1 X88.796 Y114.627 E41.49935
G1 X88.468 Y114.324 E41.51791
G1 X88.234 Y114.09 E41.53167
G1 X87.784 Y113.583 E41.55985
G1 X87.396 Y113.027 E41.58804
G1 X87.077 Y112.429 E41.61622
G1 X86.83 Y111.797 E41.64443
G1 X86.66 Y111.141 E41.6726
G1 X86.567 Y110.47 E41.70077
G1 X86.55 Y110.024 E41.71932
G1 X86.55 Y99.977 E42.13703
G1 X86.59 Y99.3 E42.16523
G1 X86.709 Y98.633 E42.19339
G1 X86.906 Y97.984 E42.22159
G1 X87.178 Y97.363 E42.24978
G1 X87.522 Y96.779 E42.27796
G1 X87.931 Y96.238 E42.30615
G1 X88.234 Y95.911 E42.32469
G1 X88.468 Y95.677 E42.33845
G0 F6000 X88.822 Y96.031
G1 F600 X89.307 Y95.602 E42.36537
G1 X89.842 Y95.236 E42.39232
G1 X90.417 Y94.939 E42.41922
G1 X91.025 Y94.715 E42.44616
G1 X91.656 Y94.567 E42.47311
G1 X92.534 Y94.493 E42.50974
G1 X162.466 Y94.492 E45.41717
G1 X163.112 Y94.532 E45.44408
G1 X163.749 Y94.651 E45.47102
G1 X164.366 Y94.848 E45.49795
G1 X164.955 Y95.119 E45.52491
G1 X165.505 Y95.461 E45.55183
G1 X166.178 Y96.03 E45.58847
G1 X166.412 Y96.264 E45.60223
G1 X166.841 Y96.749 E45.62915
G1 X167.207 Y97.284 E45.6561
G1 X167.504 Y97.859 E45.68301
G1 X167.728 Y98.467 E45.70995
G1 X167.876 Y99.098 E45.73689
G1 X167.95 Y99.976 E45.77353
G1 X167.95 Y110.023 E46.19123
G1 X167.91 Y110.67 E46.21818
G1 X167.791 Y111.306 E46.24508
G1 X167.594 Y111.923 E46.27201
G1 X167.323 Y112.512 E46.29897
G1 X166.981 Y113.062 E46.32589
G1 X166.412 Y113.735 E46.36253
G1 X166.178 Y113.969 E46.37629
G1 X165.693 Y114.398 E46.40321
G1 X165.158 Y114.764 E46.43016
G1 X164.583 Y115.061 E46.45707
G1 X163.975 Y115.285 E46.48401
G1 X163.344 Y115.433 E46.51095
G1 X162.466 Y115.507 E46.54758
G1 X92.534 Y115.508 E49.45502
G1 X91.888 Y115.468 E49.48193
G1 X91.251 Y115.349 E49.50887
G1 X90.634 Y115.152 E49.5358
G1 X90.045 Y114.881 E49.56275
G1 X89.495 Y114.539 E49.58968
G1 X88.822 Y113.97 E49.62632
G1 X88.588 Y113.736 E49.64008
G1 X88.159 Y113.251 E49.667
G1 X87.793 Y112.716 E49.69395
G1 X87.496 Y112.141 E49.72085
G1 X87.272 Y111.533 E49.74779
G1 X87.124 Y110.902 E49.77474
G1 X87.05 Y110.024 E49.81137
G1 X87.05 Y99.977 E50.22908
G1 X87.09 Y99.33 E50.25603
G1 X87.209 Y98.694 E50.28293
G1 X87.406 Y98.077 E50.30985
G1 X87.677 Y97.488 E50.33681
G1 X88.019 Y96.938 E50.36374
G1 X88.588 Y96.265 E50.40038
G1 X88.822 Y96.031 E50.41414
G0 F6000 X89.175 Y96.384
G1 F600 X89.638 Y95.978 E50.43974
G1 X90.15 Y95.635 E50.46536
G1 X90.702 Y95.361 E50.49098
G1 X91.284 Y95.16 E50.51658
G1 X91.888 Y95.037 E50.54221
G1 X92.534 Y94.993 E50.56913
G1 X162.466 Y94.992 E53.47656
G1 X163.081 Y95.032 E53.50218
G1 X163.685 Y95.151 E53.52778
G1 X164.269 Y95.348 E53.5534
G1 X164.823 Y95.618 E53.57902
G1 X165.337 Y95.958 E53.60465
G1 X165.825 Y96.383 E53.63155
G1 X166.059 Y96.617 E53.64531
G1 X166.465 Y97.08 E53.67091
G1 X166.808 Y97.592 E53.69653
G1 X167.082 Y98.144 E53.72215
G1 X167.283 Y98.726 E53.74775
G1 X167.406 Y99.33 E53.77338
G1 X167.45 Y99.976 E53.8003
G1 X167.45 Y110.023 E54.218
G1 X167.41 Y110.638 E54.24363
G1 X167.291 Y111.242 E54.26922
G1 X167.094 Y111.826 E54.29485
G1 X166.824 Y112.38 E54.32047
G1 X166.484 Y112.894 E54.34609
G1 X166.059 Y113.382 E54.37299
G1 X165.825 Y113.616 E54.38675
G1 X165.362 Y114.022 E54.41235
G1 X164.85 Y114.365 E54.43798
G1 X164.298 Y114.639 E54.4636
G1 X163.716 Y114.84 E54.4892
G1 X163.112 Y114.963 E54.51482
G1 X162.466 Y115.007 E54.54174
G1 X92.534 Y115.008 E57.44918
G1 X91.919 Y114.968 E57.4748
G1 X91.315 Y114.849 E57.50039
G1 X90.731 Y114.652 E57.52602
G1 X90.177 Y114.382 E57.55164
G1 X89.663 Y114.042 E57.57726
G1 X89.175 Y113.617 E57.60417
G1 X88.941 Y113.383 E57.61793
G1 X88.535 Y112.92 E57.64353
G1 X88.192 Y112.408 E57.66915
G1 X87.918 Y111.856 E57.69477
G1 X87.717 Y111.274 E57.72037
G1 X87.594 Y110.67 E57.746
G1 X87.55 Y110.024 E57.77292
G1 X87.55 Y99.977 E58.19062
G1 X87.59 Y99.362 E58.21624
G1 X87.709 Y98.758 E58.24184
G1 X87.906 Y98.174 E58.26746
G1 X88.176 Y97.62 E58.29308
G1 X88.516 Y97.106 E58.31871
G1 X88.941 Y96.618 E58.34561
G1 X89.175 Y96.384 E58.35937
G0 F6000 X89.529 Y96.738
G1 F600 X89.968 Y96.355 E58.38359
G1 X90.456 Y96.036 E58.40783
G1 X90.982 Y95.786 E58.43204
G1 X91.538 Y95.611 E58.45628
G1 X92.113 Y95.514 E58.48052
G1 X92.534 Y95.493 E58.49804
G1 X162.466 Y95.492 E61.40548
G1 X163.047 Y95.532 E61.42969
G1 X163.618 Y95.651 E61.45394
G1 X164.167 Y95.847 E61.47818
G1 X164.683 Y96.116 E61.50237
G1 X165.159 Y96.454 E61.52664
G1 X165.471 Y96.737 E61.54415
G1 X165.705 Y96.971 E61.55791
G1 X166.088 Y97.41 E61.58213
G1 X166.407 Y97.898 E61.60637
G1 X166.657 Y98.424 E61.63058
G1 X166.832 Y98.98 E61.65482
G1 X166.929 Y99.555 E61.67906
G1 X166.95 Y99.976 E61.69659
G1 X166.95 Y110.023 E62.11429
G1 X166.91 Y110.604 E62.13851
G1 X166.791 Y111.175 E62.16275
G1 X166.595 Y111.724 E62.18699
G1 X166.326 Y112.24 E62.21118
G1 X165.988 Y112.716 E62.23545
G1 X165.705 Y113.028 E62.25297
G1 X165.471 Y113.262 E62.26673
G1 X165.032 Y113.645 E62.29095
G1 X164.544 Y113.964 E62.31519
G1 X164.018 Y114.214 E62.3394
G1 X163.462 Y114.389 E62.36363
G1 X162.887 Y114.486 E62.38788
G1 X162.466 Y114.507 E62.4054
G1 X92.534 Y114.508 E65.31284
G1 X91.953 Y114.468 E65.33705
G1 X91.382 Y114.349 E65.3613
G1 X90.833 Y114.153 E65.38553
G1 X90.317 Y113.884 E65.40973
G1 X89.841 Y113.546 E65.434
G1 X89.529 Y113.263 E65.45151
G1 X89.295 Y113.029 E65.46527
G1 X88.912 Y112.59 E65.48949
G1 X88.593 Y112.102 E65.51373
G1 X88.343 Y111.576 E65.53794
G1 X88.168 Y111.02 E65.56218
G1 X88.071 Y110.445 E65.58642
G1 X88.05 Y110.024 E65.60394
G1 X88.05 Y99.977 E66.02165
G1 X88.09 Y99.396 E66.04586
G1 X88.209 Y98.825 E66.07011
G1 X88.405 Y98.276 E66.09435
G1 X88.674 Y97.76 E66.11854
G1 X89.012 Y97.284 E66.14281
G1 X89.295 Y96.972 E66.16032
G1 X89.529 Y96.738 E66.17408
G0 F6000 X89.882 Y97.091
G1 F600 X90.297 Y96.734 E66.19684
G1 X90.759 Y96.44 E66.21961
G1 X91.258 Y96.217 E66.24233
G1 X91.785 Y96.069 E66.26509
G1 X92.534 Y95.993 E66.29639
G1 X162.466 Y95.992 E69.20382
G1 X163.012 Y96.032 E69.22659
G1 X163.546 Y96.151 E69.24933
G1 X164.057 Y96.346 E69.27207
G1 X164.535 Y96.614 E69.29485
G1 X165.118 Y97.09 E69.32614
G1 X165.352 Y97.324 E69.3399
G1 X165.709 Y97.739 E69.36266
G1 X166.003 Y98.201 E69.38543
