;FLAVOR:Marlin
;TIME:9947
;Filament used: 4.70411m
;Layer height: 0.2
;MINX:73.012
;MINY:66.55
;MINZ:0.2
;MAXX:182.003
;MAXY:143.25
;MAXZ:17.4
;Generated with Cura_SteamEngine master
M140 S50
M105
M190 S50
M104 S190
M105
M109 S190
M82 ;absolute extrusion mode
M220 S100 ;reset feedrate
M221 S100 ;reset flowrate
G90 ;use absolute coordinates
M82 ;absolute extrusion mode
G28 ;home
G1 Z2 F1500 ;raise z
G92 E0 ;reset extruder

G1 X75 Y5 F5000 ;start position
G1 Z0.28 F1500 ;lower z
G1 E4 F500 ;prime the filament
G1 X180 E10 F500 ;1st line
G1 Y5.4 F5000
G1 X75 E20 F500 ;2nd line
G1 Z2 F1500 ;raise z
G92 E0 ;reset extruder
G92 E0
G92 E0
G1 F1500 E-6.5
;LAYER_COUNT:87
;LAYER:0
M107
G0 F6000 X92.691 Y95.416 Z0.2
;TYPE:SKIRT
G1 F1500 E0
G1 F600 X93.189 Y94.978 E0.02757
G1 X96.164 Y92.579 E0.18646
G1 X96.705 Y92.18 E0.21441
G1 X99.937 Y90.007 E0.37633
G1 X100.51 Y89.657 E0.40424
G1 X103.889 Y87.788 E0.56478
G1 X104.497 Y87.486 E0.59301
G1 X108.054 Y85.908 E0.75479
G1 X108.828 Y85.613 E0.78923
G1 X109.564 Y85.377 E0.82136
G1 X109.661 Y85.337 E0.82572
G1 X110.073 Y85.182 E0.84403
G1 X112.325 Y84.406 E0.94306
G1 X112.765 Y84.269 E0.96221
G1 X113.795 Y83.982 E1.00667
G1 X114.363 Y83.832 E1.03109
G1 X114.49 Y83.63 E1.04101
G1 X114.489 Y75.072 E1.39681
G1 X114.491 Y74.506 E1.42034
G1 X114.534 Y73.72 E1.45307
G1 X114.656 Y72.942 E1.48581
G1 X114.857 Y72.181 E1.51854
G1 X115.133 Y71.444 E1.55125
G1 X115.483 Y70.739 E1.58398
G1 X115.903 Y70.073 E1.61671
G1 X116.388 Y69.453 E1.64944
G1 X116.784 Y69.03 E1.67353
G1 X117.019 Y68.797 E1.68729
G1 X117.606 Y68.271 E1.72006
G1 X118.242 Y67.809 E1.75274
G1 X118.923 Y67.413 E1.78549
G1 X119.64 Y67.088 E1.81822
G1 X120.386 Y66.837 E1.85094
G1 X121.154 Y66.664 E1.88367
G1 X121.935 Y66.569 E1.91638
G1 X122.476 Y66.55 E1.93889
G1 X132.521 Y66.55 E2.35651
G1 X133.307 Y66.59 E2.38923
G1 X134.085 Y66.709 E2.42195
G1 X134.847 Y66.907 E2.45469
G1 X135.585 Y67.181 E2.48741
G1 X136.291 Y67.529 E2.52014
G1 X136.959 Y67.946 E2.55288
G1 X137.58 Y68.429 E2.58559
G1 X138.001 Y68.82 E2.60947
G1 X138.235 Y69.054 E2.62323
G1 X138.763 Y69.638 E2.65596
G1 X139.228 Y70.273 E2.68869
G1 X139.627 Y70.951 E2.72139
G1 X139.955 Y71.667 E2.75414
G1 X140.209 Y72.412 E2.78686
G1 X140.386 Y73.179 E2.81959
G1 X140.484 Y73.96 E2.85231
G1 X140.505 Y74.534 E2.87619
G1 X140.505 Y83.624 E3.25411
G1 X140.657 Y83.85 E3.26543
G1 X141.179 Y83.984 E3.28784
G1 X141.379 Y84.038 E3.29645
G1 X142.242 Y84.284 E3.33376
G1 X142.633 Y84.407 E3.3508
G1 X146.336 Y85.678 E3.51357
G1 X146.981 Y85.932 E3.54239
G1 X150.5 Y87.504 E3.70263
G1 X151.082 Y87.794 E3.72966
G1 X154.507 Y89.683 E3.89228
G1 X155.082 Y90.033 E3.92027
G1 X158.243 Y92.154 E4.07853
G1 X158.792 Y92.559 E4.10689
G1 X161.796 Y94.983 E4.26737
G1 X162.287 Y95.415 E4.29456
G1 X165.075 Y98.083 E4.455
G1 X165.549 Y98.578 E4.48349
G1 X168.121 Y101.517 E4.64586
G1 X168.398 Y101.851 E4.6639
G1 X169.057 Y102.695 E4.70842
G1 X169.17 Y102.844 E4.7162
G1 X169.912 Y103.843 E4.76793
G1 X170.063 Y104.054 E4.77872
G1 X171.045 Y105.473 E4.85046
G1 X171.24 Y105.77 E4.86523
G1 X172.351 Y107.544 E4.95226
G1 X172.511 Y107.811 E4.9652
G1 X173.307 Y109.204 E5.0319
G1 X173.382 Y109.226 E5.03515
G1 X174.11 Y109.523 E5.06784
G1 X174.805 Y109.893 E5.10058
G1 X175.459 Y110.331 E5.1333
G1 X176.065 Y110.834 E5.16604
G1 X176.617 Y111.395 E5.19876
G1 X177.109 Y112.009 E5.23148
G1 X177.536 Y112.671 E5.26423
G1 X178.015 Y113.657 E5.3098
G1 X178.6 Y115.116 E5.37515
G1 X178.73 Y115.462 E5.39052
G1 X179.604 Y117.984 E5.50149
G1 X179.755 Y118.473 E5.52277
G1 X180.627 Y121.654 E5.6599
G1 X180.76 Y122.222 E5.68415
G1 X180.901 Y122.946 E5.71482
G1 X180.986 Y123.481 E5.73734
G1 X180.998 Y123.58 E5.74149
G1 X181.457 Y125.758 E5.83402
G1 X181.567 Y126.423 E5.86205
G1 X181.948 Y129.568 E5.99376
G1 X182.003 Y130.353 E6.02647
G1 X181.978 Y131.14 E6.05921
G1 X181.873 Y131.92 E6.09193
G1 X181.689 Y132.686 E6.12468
G1 X181.429 Y133.429 E6.15741
G1 X181.095 Y134.141 E6.19011
G1 X180.691 Y134.816 E6.22281
G1 X180.22 Y135.447 E6.25555
G1 X179.687 Y136.027 E6.2883
G1 X179.62 Y136.087 E6.29204
G1 X179.492 Y136.532 E6.31129
G1 X179.199 Y137.262 E6.34399
G1 X178.834 Y137.959 E6.3767
G1 X178.4 Y138.616 E6.40944
G1 X177.878 Y139.251 E6.44362
G1 X177.759 Y139.381 E6.45094
G1 X177.198 Y139.934 E6.48369
G1 X176.585 Y140.427 E6.5164
G1 X175.924 Y140.855 E6.54914
G1 X175.224 Y141.215 E6.58186
G1 X174.491 Y141.501 E6.61458
G1 X173.732 Y141.711 E6.64732
G1 X172.956 Y141.844 E6.68005
G1 X172.042 Y141.898 E6.71812
G1 X171.061 Y141.898 E6.7589
G1 X170.275 Y141.858 E6.79162
G1 X169.497 Y141.739 E6.82434
G1 X168.735 Y141.541 E6.85707
G1 X167.997 Y141.267 E6.8898
G1 X167.291 Y140.919 E6.92253
G1 X166.623 Y140.502 E6.95527
G1 X166.002 Y140.019 E6.98798
G1 X165.513 Y139.559 E7.01589
G1 X165.395 Y139.438 E7.02291
G1 X164.874 Y138.847 E7.05567
G1 X164.417 Y138.207 E7.08836
G1 X164.026 Y137.523 E7.12112
G1 X163.707 Y136.804 E7.15382
G1 X163.463 Y136.055 E7.18657
G1 X163.296 Y135.286 E7.21929
G1 X163.208 Y134.504 E7.25201
G1 X163.196 Y133.811 E7.28082
G1 X163.237 Y132.35 E7.34159
G1 X163.199 Y131.789 E7.36497
G1 X162.847 Y128.844 E7.48828
G1 X162.352 Y126.305 E7.59582
G1 X161.674 Y123.817 E7.70303
G1 X161.046 Y121.99 E7.78335
G1 X160.324 Y120.207 E7.86333
G1 X160.125 Y119.777 E7.88303
G1 X159.483 Y118.405 E7.946
G1 X158.903 Y117.298 E7.99796
G1 X158.244 Y116.152 E8.05292
G1 X157.419 Y114.838 E8.11743
G1 X156.518 Y113.526 E8.1836
G1 X155.972 Y112.787 E8.2218
G1 X155.668 Y112.405 E8.2421
G1 X155.488 Y112.173 E8.2543
G1 X153.367 Y109.751 E8.38815
G1 X151.163 Y107.642 E8.51498
G1 X148.695 Y105.653 E8.64676
G1 X146.169 Y103.953 E8.77335
G1 X143.441 Y102.447 E8.9029
G1 X140.571 Y101.172 E9.03346
G1 X140.505 Y101.149 E9.03637
G1 X140.505 Y103.966 E9.15349
G1 X140.465 Y104.752 E9.18621
G1 X140.346 Y105.53 E9.21893
G1 X140.148 Y106.292 E9.25166
G1 X139.874 Y107.03 E9.28439
G1 X139.526 Y107.736 E9.31711
G1 X139.109 Y108.404 E9.34985
G1 X138.626 Y109.025 E9.38256
G1 X138.235 Y109.446 E9.40645
G1 X138.001 Y109.68 E9.42021
G1 X137.417 Y110.208 E9.45294
G1 X136.782 Y110.673 E9.48566
G1 X136.104 Y111.072 E9.51837
G1 X135.388 Y111.4 E9.55111
G1 X134.643 Y111.654 E9.58383
G1 X133.876 Y111.831 E9.61656
G1 X133.095 Y111.929 E9.64929
G1 X132.521 Y111.95 E9.67317
G1 X122.475 Y111.95 E10.09083
G1 X121.689 Y111.91 E10.12355
G1 X120.911 Y111.791 E10.15627
G1 X120.149 Y111.593 E10.189
G1 X119.411 Y111.319 E10.22173
G1 X118.705 Y110.971 E10.25446
G1 X118.037 Y110.554 E10.2872
G1 X117.416 Y110.071 E10.31991
G1 X116.995 Y109.68 E10.34379
G1 X116.761 Y109.446 E10.35755
G1 X116.233 Y108.862 E10.39028
G1 X115.768 Y108.227 E10.423
G1 X115.369 Y107.549 E10.45571
G1 X115.041 Y106.833 E10.48845
G1 X114.787 Y106.088 E10.52118
G1 X114.61 Y105.321 E10.5539
G1 X114.512 Y104.54 E10.58663
G1 X114.491 Y103.967 E10.61047
G1 X114.491 Y101.292 E10.72168
G1 X114.436 Y101.311 E10.7241
G1 X111.613 Y102.564 E10.85251
G1 X108.906 Y104.059 E10.98108
G1 X106.354 Y105.775 E11.10893
G1 X103.956 Y107.707 E11.23696
G1 X101.715 Y109.856 E11.36605
G1 X99.547 Y112.33 E11.50281
G1 X99.377 Y112.533 E11.51382
G1 X98.583 Y113.605 E11.56928
G1 X97.728 Y114.841 E11.63176
G1 X96.861 Y116.217 E11.69938
G1 X96.608 Y116.653 E11.72034
G1 X96.266 Y117.261 E11.74934
G1 X95.628 Y118.473 E11.80628
G1 X94.812 Y120.212 E11.88615
G1 X94.075 Y122.038 E11.96801
G1 X93.452 Y123.848 E12.0476
G1 X92.763 Y126.36 E12.15589
G1 X92.257 Y128.959 E12.26597
G1 X91.961 Y131.408 E12.36853
G1 X91.862 Y132.941 E12.4324
G1 X91.827 Y134.015 E12.47707
G1 X91.833 Y135.344 E12.53233
G1 X91.797 Y136.131 E12.56508
G1 X91.681 Y136.909 E12.59779
G1 X91.487 Y137.672 E12.63052
G1 X91.216 Y138.411 E12.66324
G1 X90.872 Y139.119 E12.69597
G1 X90.458 Y139.788 E12.72868
G1 X89.978 Y140.412 E12.76141
G1 X89.586 Y140.838 E12.78547
G1 X89.468 Y140.957 E12.79244
G1 X88.886 Y141.487 E12.82517
G1 X88.254 Y141.955 E12.85786
G1 X87.577 Y142.357 E12.8906
G1 X86.862 Y142.688 E12.92336
G1 X86.118 Y142.945 E12.95608
G1 X85.352 Y143.125 E12.98879
G1 X84.572 Y143.226 E13.02149
G1 X83.965 Y143.25 E13.04675
G1 X82.999 Y143.25 E13.08691
G1 X82.213 Y143.21 E13.11963
G1 X81.435 Y143.091 E13.15235
G1 X80.673 Y142.893 E13.18509
G1 X79.935 Y142.619 E13.21781
G1 X79.229 Y142.271 E13.25054
G1 X78.561 Y141.854 E13.28328
G1 X77.94 Y141.371 E13.31599
G1 X77.425 Y140.885 E13.34543
G1 X77.311 Y140.767 E13.35225
G1 X76.794 Y140.174 E13.38496
G1 X76.339 Y139.531 E13.4177
G1 X75.952 Y138.846 E13.45041
G1 X75.636 Y138.125 E13.48314
G1 X75.396 Y137.375 E13.51588
G1 X75.232 Y136.605 E13.54861
G1 X75.151 Y135.852 E13.5801
G1 X75.125 Y135.827 E13.5816
G1 X74.614 Y135.229 E13.6143
G1 X74.166 Y134.582 E13.64702
G1 X73.786 Y133.892 E13.67977
G1 X73.478 Y133.168 E13.71248
G1 X73.245 Y132.416 E13.74521
G1 X73.089 Y131.645 E13.77791
G1 X73.012 Y130.861 E13.81067
G1 X73.016 Y130.074 E13.84339
G1 X73.06 Y129.568 E13.8645
G1 X73.393 Y126.827 E13.9793
G1 X73.49 Y126.127 E14.00868
G1 X73.562 Y125.699 E14.02672
G1 X74.24 Y122.244 E14.17311
G1 X74.367 Y121.7 E14.19633
G1 X75.251 Y118.454 E14.3362
G1 X75.385 Y118.013 E14.35536
G1 X76.178 Y115.662 E14.45851
G1 X76.346 Y115.212 E14.47848
G1 X76.997 Y113.616 E14.55015
G1 X77.331 Y112.903 E14.58288
G1 X77.735 Y112.228 E14.61559
G1 X78.206 Y111.597 E14.64832
G1 X78.739 Y111.017 E14.68107
G1 X79.327 Y110.495 E14.71376
G1 X79.966 Y110.034 E14.74652
G1 X80.648 Y109.641 E14.77925
G1 X81.366 Y109.319 E14.81196
G1 X81.663 Y109.221 E14.82496
G1 X82.133 Y108.387 E14.86476
G1 X82.546 Y107.683 E14.8987
G1 X82.656 Y107.502 E14.9075
G1 X83.704 Y105.828 E14.98961
G1 X83.91 Y105.516 E15.00516
G1 X84.975 Y103.984 E15.08273
G1 X85.098 Y103.812 E15.09152
G1 X85.814 Y102.84 E15.14171
G1 X85.95 Y102.661 E15.15106
G1 X86.22 Y102.317 E15.16924
G1 X86.699 Y101.715 E15.20122
G1 X86.932 Y101.435 E15.21637
G1 X89.424 Y98.589 E15.37364
G1 X89.892 Y98.099 E15.40181
G1 X92.691 Y95.416 E15.56301
G0 F6000 X93.037 Y95.777
G1 F600 X93.503 Y95.367 E15.58881
G1 X96.478 Y92.968 E15.7477
G1 X96.984 Y92.595 E15.77384
G1 X100.216 Y90.422 E15.93575
G1 X100.752 Y90.095 E15.96186
G1 X104.131 Y88.226 E16.1224
G1 X104.7 Y87.943 E16.14882
G1 X108.257 Y86.365 E16.3106
G1 X108.981 Y86.089 E16.34282
G1 X109.736 Y85.847 E16.37578
G1 X109.85 Y85.8 E16.3809
G1 X110.236 Y85.655 E16.39805
G1 X112.488 Y84.879 E16.49708
G1 X112.899 Y84.75 E16.51499
G1 X113.922 Y84.465 E16.55914
G1 X114.674 Y84.267 E16.59147
G1 X114.99 Y83.784 E16.61546
G1 X114.989 Y75.073 E16.97763
G1 X114.991 Y74.507 E17.00116
G1 X115.034 Y73.747 E17.0328
G1 X115.156 Y72.996 E17.06444
G1 X115.356 Y72.261 E17.09611
G1 X115.632 Y71.552 E17.12774
G1 X115.981 Y70.875 E17.1594
G1 X116.399 Y70.239 E17.19105
G1 X117.136 Y69.385 E17.23794
G1 X117.371 Y69.152 E17.2517
G1 X117.939 Y68.645 E17.28336
G1 X118.558 Y68.2 E17.31505
G1 X119.219 Y67.823 E17.34669
G1 X119.916 Y67.517 E17.37834
G1 X120.641 Y67.286 E17.40997
G1 X121.387 Y67.132 E17.44164
G1 X122.476 Y67.05 E17.48704
G1 X132.521 Y67.05 E17.90467
G1 X133.281 Y67.09 E17.93631
G1 X134.033 Y67.209 E17.96796
G1 X134.768 Y67.407 E17.99961
G1 X135.479 Y67.681 E18.03129
G1 X136.157 Y68.027 E18.06293
G1 X136.794 Y68.443 E18.09456
G1 X137.648 Y69.173 E18.14127
G1 X137.882 Y69.407 E18.15503
G1 X138.391 Y69.973 E18.18668
G1 X138.838 Y70.589 E18.21832
G1 X139.218 Y71.249 E18.24998
G1 X139.527 Y71.945 E18.28164
G1 X139.761 Y72.669 E18.31328
G1 X139.918 Y73.414 E18.34493
G1 X140.005 Y74.534 E18.39163
G1 X140.005 Y83.777 E18.77591
G1 X140.315 Y84.248 E18.79936
G1 X140.333 Y84.283 E18.80099
G1 X141.055 Y84.468 E18.83198
G1 X141.241 Y84.519 E18.84
G1 X142.104 Y84.765 E18.87731
G1 X142.471 Y84.88 E18.8933
G1 X146.174 Y86.151 E19.05607
G1 X146.777 Y86.388 E19.083
G1 X150.296 Y87.96 E19.24324
G1 X150.84 Y88.232 E19.26853
G1 X154.265 Y90.121 E19.43114
G1 X154.804 Y90.449 E19.45737
G1 X157.965 Y92.57 E19.61564
G1 X158.478 Y92.948 E19.64213
G1 X161.482 Y95.372 E19.80261
G1 X161.942 Y95.776 E19.82806
G1 X164.73 Y98.444 E19.9885
G1 X165.173 Y98.907 E20.01514
G1 X167.745 Y101.846 E20.17751
G1 X168.003 Y102.159 E20.19438
G1 X168.662 Y103.003 E20.23889
G1 X168.768 Y103.142 E20.24616
G1 X169.51 Y104.141 E20.2979
G1 X169.652 Y104.338 E20.30799
G1 X170.634 Y105.757 E20.37974
G1 X170.816 Y106.035 E20.39355
G1 X171.927 Y107.809 E20.48058
G1 X172.077 Y108.059 E20.4927
G1 X172.883 Y109.469 E20.56022
G1 X172.97 Y109.627 E20.56772
G1 X173.334 Y109.74 E20.58357
G1 X174.033 Y110.041 E20.61521
G1 X174.697 Y110.414 E20.64687
G1 X175.318 Y110.854 E20.67851
G1 X175.89 Y111.357 E20.71018
G1 X176.406 Y111.917 E20.74184
G1 X176.86 Y112.528 E20.77349
G1 X177.247 Y113.183 E20.80512
G1 X177.551 Y113.843 E20.83533
G1 X178.136 Y115.302 E20.90068
G1 X178.257 Y115.626 E20.91506
G1 X179.131 Y118.148 E21.02603
G1 X179.273 Y118.605 E21.04592
G1 X180.145 Y121.786 E21.18305
G1 X180.269 Y122.317 E21.20572
G1 X180.41 Y123.041 E21.23639
G1 X180.49 Y123.542 E21.25748
G1 X180.506 Y123.673 E21.26297
G1 X180.967 Y125.861 E21.35593
G1 X181.07 Y126.483 E21.38215
G1 X181.451 Y129.628 E21.51386
G1 X181.503 Y130.388 E21.54553
G1 X181.475 Y131.148 E21.57715
G1 X181.367 Y131.902 E21.60881
G1 X181.181 Y132.64 E21.64046
G1 X180.918 Y133.355 E21.67213
G1 X180.582 Y134.038 E21.70377
G1 X180.176 Y134.682 E21.73543
G1 X179.705 Y135.28 E21.76707
G1 X179.18 Y135.819 E21.79836
G1 X178.986 Y136.464 E21.82636
G1 X178.692 Y137.166 E21.858
G1 X178.326 Y137.833 E21.88963
G1 X177.892 Y138.459 E21.9213
G1 X177.509 Y138.913 E21.94599
G1 X177.39 Y139.043 E21.95332
G1 X176.847 Y139.577 E21.98498
G1 X176.251 Y140.051 E22.01664
G1 X175.609 Y140.46 E22.04829
G1 X174.927 Y140.799 E22.07996
G1 X174.214 Y141.065 E22.1116
G1 X173.477 Y141.255 E22.14324
G1 X172.724 Y141.366 E22.17488
G1 X172.042 Y141.398 E22.20327
G1 X171.061 Y141.398 E22.24405
G1 X170.301 Y141.358 E22.27569
G1 X169.549 Y141.239 E22.30735
G1 X168.814 Y141.041 E22.33899
G1 X168.103 Y140.767 E22.37067
G1 X167.425 Y140.421 E22.40232
G1 X166.788 Y140.005 E22.43395
G1 X166.197 Y139.524 E22.46563
G1 X165.871 Y139.21 E22.48445
G1 X165.753 Y139.089 E22.49148
G1 X165.25 Y138.517 E22.52314
G1 X164.811 Y137.895 E22.5548
G1 X164.439 Y137.231 E22.58644
G1 X164.139 Y136.531 E22.6181
G1 X163.914 Y135.804 E22.64974
G1 X163.766 Y135.057 E22.6814
G1 X163.698 Y134.298 E22.71308
G1 X163.696 Y133.825 E22.73275
G1 X163.737 Y132.352 E22.79401
G1 X163.695 Y131.733 E22.81981
G1 X163.339 Y128.757 E22.94442
G1 X162.841 Y126.196 E23.05288
G1 X162.155 Y123.681 E23.16127
G1 X161.509 Y121.803 E23.24383
G1 X160.779 Y119.999 E23.32474
G1 X160.579 Y119.567 E23.34454
G1 X159.932 Y118.185 E23.40798
G1 X159.338 Y117.051 E23.4612
G1 X158.688 Y115.921 E23.5154
G1 X157.816 Y114.533 E23.58355
G1 X156.939 Y113.255 E23.64799
G1 X156.372 Y112.487 E23.68768
G1 X156.062 Y112.098 E23.70836
G1 X155.865 Y111.844 E23.72172
G1 X153.722 Y109.397 E23.85695
G1 X151.494 Y107.266 E23.98513
G1 X149.006 Y105.261 E24.11798
G1 X146.419 Y103.519 E24.24764
G1 X143.668 Y102 E24.37829
G1 X140.755 Y100.706 E24.51081
G1 X140.005 Y100.448 E24.54379
G1 X140.005 Y103.966 E24.69005
G1 X139.965 Y104.726 E24.72169
G1 X139.846 Y105.478 E24.75334
G1 X139.648 Y106.213 E24.78499
G1 X139.374 Y106.924 E24.81667
G1 X139.028 Y107.602 E24.84832
G1 X138.612 Y108.239 E24.87995
G1 X137.882 Y109.093 E24.92666
G1 X137.648 Y109.327 E24.94042
G1 X137.082 Y109.836 E24.97206
G1 X136.466 Y110.283 E25.00371
G1 X135.806 Y110.663 E25.03537
G1 X135.11 Y110.972 E25.06703
G1 X134.386 Y111.206 E25.09866
G1 X133.641 Y111.363 E25.13032
G1 X132.521 Y111.45 E25.17702
G1 X122.475 Y111.45 E25.59468
G1 X121.715 Y111.41 E25.62632
G1 X120.963 Y111.291 E25.65798
G1 X120.228 Y111.093 E25.68963
G1 X119.517 Y110.819 E25.7213
G1 X118.839 Y110.473 E25.75295
G1 X118.202 Y110.057 E25.78458
G1 X117.348 Y109.327 E25.83129
G1 X117.114 Y109.093 E25.84505
G1 X116.605 Y108.527 E25.8767
G1 X116.158 Y107.911 E25.90834
G1 X115.778 Y107.251 E25.94
G1 X115.469 Y106.555 E25.97166
G1 X115.235 Y105.831 E26.00329
G1 X115.078 Y105.086 E26.03495
G1 X114.991 Y103.967 E26.08161
G1 X114.991 Y100.59 E26.22201
G1 X114.255 Y100.844 E26.25438
G1 X111.386 Y102.118 E26.38489
G1 X108.648 Y103.629 E26.51491
G1 X106.057 Y105.372 E26.64474
