;FLAVOR:Marlin
;TIME:12467
;Filament used: 2.67992m
;Layer height: 0.1
;MINX:80.835
;MINY:81.836
;MINZ:0.144
;MAXX:174.165
;MAXY:128.165
;MAXZ:20.664
;Generated with Cura_SteamEngine master
M140 S60
M105
M190 S60
M104 S210
M105
M109 S210
M82 ;absolute extrusion mode
M220 S100 ;reset feedrate
M221 S100 ;reset flowrate
G90 ;use absolute coordinates
M82 ;absolute extrusion mode
G28 ;home
G1 Z2 F1500 ;raise z
G92 E0 ;reset extruder

G1 X75 Y5 F5000 ;start position
G1 Z0.28 F1500 ;lower z
G1 E4 F500 ;prime the filament
G1 X180 E10 F500 ;1st line
G1 Y5.4 F5000
G1 X75 E20 F500 ;2nd line
G1 Z2 F1500 ;raise z
G92 E0 ;reset extruder
G92 E0
G92 E0
G1 F1500 E-6.5
;LAYER_COUNT:200
;LAYER:-7
M107
G0 F9000 X86.198 Y86.947 Z0.144
;TYPE:SUPPORT-INTERFACE
G1 F1500 E0
G1 F787.5 X86.317 Y86.833 E0.00493
G1 X86.99 Y86.228 E0.03202
G1 X87.123 Y86.118 E0.03719
G1 X87.839 Y85.565 E0.06427
G1 X87.998 Y85.452 E0.07011
G1 X88.746 Y84.956 E0.09697
G1 X88.883 Y84.873 E0.10177
G1 X89.673 Y84.429 E0.1289
G1 X89.823 Y84.351 E0.13396
G1 X90.65 Y83.963 E0.1613
G1 X90.805 Y83.897 E0.16635
G1 X91.648 Y83.574 E0.19337
G1 X91.817 Y83.516 E0.19872
G1 X92.671 Y83.26 E0.2254
G1 X92.844 Y83.214 E0.23076
G1 X93.748 Y83.012 E0.25849
G1 X93.895 Y82.985 E0.26296
G1 X94.791 Y82.853 E0.29008
G1 X94.966 Y82.833 E0.29535
G1 X95.863 Y82.767 E0.32227
G1 X96.047 Y82.758 E0.32779
G1 X96.559 Y82.75 E0.34311
G1 X158.508 Y82.751 E2.1975
G1 X159.512 Y82.787 E2.22758
G1 X159.65 Y82.797 E2.23172
G1 X160.555 Y82.897 E2.25897
G1 X160.731 Y82.923 E2.2643
G1 X161.639 Y83.091 E2.29194
G1 X161.769 Y83.12 E2.29593
G1 X162.668 Y83.355 E2.32374
G1 X162.836 Y83.406 E2.329
G1 X163.678 Y83.693 E2.35563
G1 X163.854 Y83.76 E2.36126
G1 X164.662 Y84.103 E2.38754
G1 X164.851 Y84.19 E2.39377
G1 X165.642 Y84.598 E2.42041
G1 X165.777 Y84.674 E2.42505
G1 X166.556 Y85.148 E2.45234
G1 X166.724 Y85.259 E2.45837
G1 X167.434 Y85.768 E2.48452
G1 X167.582 Y85.881 E2.4901
G1 X168.282 Y86.464 E2.51736
G1 X168.395 Y86.565 E2.5219
G1 X169.053 Y87.198 E2.54923
G1 X169.167 Y87.317 E2.55417
G1 X169.772 Y87.99 E2.58125
G1 X169.882 Y88.123 E2.58642
G1 X170.441 Y88.847 E2.6138
G1 X170.541 Y88.986 E2.61893
G1 X171.044 Y89.746 E2.64621
G1 X171.127 Y89.883 E2.651
G1 X171.571 Y90.673 E2.67813
G1 X171.649 Y90.823 E2.68319
G1 X172.037 Y91.65 E2.71054
G1 X172.103 Y91.805 E2.71558
G1 X172.426 Y92.648 E2.7426
G1 X172.484 Y92.817 E2.74795
G1 X172.74 Y93.671 E2.77464
G1 X172.784 Y93.835 E2.77972
G1 X172.987 Y94.742 E2.80754
G1 X173.014 Y94.887 E2.81196
G1 X173.147 Y95.791 E2.83931
G1 X173.167 Y95.966 E2.84458
G1 X173.233 Y96.863 E2.87151
G1 X173.242 Y97.039 E2.87678
G1 X173.25 Y97.556 E2.89226
G1 X173.25 Y112.491 E3.33933
G1 X173.213 Y113.512 E3.36991
G1 X173.204 Y113.643 E3.37384
G1 X173.103 Y114.552 E3.40122
G1 X173.077 Y114.731 E3.40663
G1 X172.911 Y115.63 E3.434
G1 X172.88 Y115.769 E3.43826
G1 X172.645 Y116.668 E3.46607
G1 X172.594 Y116.836 E3.47133
G1 X172.314 Y117.662 E3.49744
G1 X172.24 Y117.854 E3.5036
G1 X171.897 Y118.662 E3.52987
G1 X171.81 Y118.851 E3.5361
G1 X171.402 Y119.642 E3.56274
G1 X171.326 Y119.777 E3.56738
G1 X170.852 Y120.556 E3.59468
G1 X170.746 Y120.717 E3.60045
G1 X170.232 Y121.434 E3.62686
G1 X170.119 Y121.582 E3.63243
G1 X169.536 Y122.282 E3.6597
G1 X169.435 Y122.395 E3.66424
G1 X168.802 Y123.053 E3.69157
G1 X168.683 Y123.167 E3.6965
G1 X168.01 Y123.772 E3.72359
G1 X167.877 Y123.882 E3.72876
G1 X167.161 Y124.435 E3.75584
G1 X167.002 Y124.548 E3.76168
G1 X166.254 Y125.044 E3.78854
G1 X166.117 Y125.127 E3.79334
G1 X165.327 Y125.571 E3.82046
G1 X165.177 Y125.649 E3.82552
G1 X164.35 Y126.037 E3.85287
G1 X164.195 Y126.103 E3.85791
G1 X163.352 Y126.426 E3.88494
G1 X163.183 Y126.484 E3.89028
G1 X162.329 Y126.74 E3.91697
G1 X162.156 Y126.786 E3.92233
G1 X161.252 Y126.988 E3.95006
G1 X161.105 Y127.015 E3.95453
G1 X160.209 Y127.147 E3.98164
G1 X160.034 Y127.167 E3.98691
G1 X159.137 Y127.233 E4.01384
G1 X158.953 Y127.242 E4.01935
G1 X158.441 Y127.25 E4.03468
G1 X96.492 Y127.249 E5.88907
G1 X95.488 Y127.213 E5.91914
G1 X95.35 Y127.203 E5.92328
G1 X94.445 Y127.103 E5.95054
G1 X94.269 Y127.077 E5.95587
G1 X93.361 Y126.909 E5.98351
G1 X93.231 Y126.88 E5.98749
G1 X92.332 Y126.645 E6.01531
G1 X92.164 Y126.594 E6.02056
G1 X91.322 Y126.307 E6.04719
G1 X91.146 Y126.24 E6.05283
G1 X90.338 Y125.897 E6.07911
G1 X90.149 Y125.81 E6.08533
G1 X89.358 Y125.402 E6.11198
G1 X89.216 Y125.322 E6.11685
G1 X88.444 Y124.852 E6.14391
G1 X88.276 Y124.741 E6.14994
G1 X87.566 Y124.232 E6.17609
G1 X87.418 Y124.119 E6.18166
G1 X86.711 Y123.53 E6.20921
G1 X86.605 Y123.435 E6.21347
G1 X85.94 Y122.795 E6.2411
G1 X85.833 Y122.683 E6.24573
G1 X85.221 Y122.002 E6.27314
G1 X85.113 Y121.871 E6.27822
G1 X84.559 Y121.153 E6.30537
G1 X84.452 Y121.002 E6.31091
G1 X83.956 Y120.254 E6.33777
G1 X83.873 Y120.117 E6.34257
G1 X83.425 Y119.32 E6.36994
G1 X83.351 Y119.177 E6.37476
G1 X82.956 Y118.335 E6.4026
G1 X82.897 Y118.196 E6.40712
G1 X82.571 Y117.344 E6.43442
G1 X82.513 Y117.174 E6.4398
G1 X82.26 Y116.329 E6.46621
G1 X82.214 Y116.156 E6.47156
G1 X82.011 Y115.248 E6.49942
G1 X81.985 Y115.105 E6.50377
G1 X81.853 Y114.209 E6.53088
G1 X81.833 Y114.034 E6.53615
G1 X81.767 Y113.134 E6.56316
G1 X81.758 Y112.953 E6.56859
G1 X81.75 Y112.444 E6.58383
G1 X81.75 Y97.509 E7.03089
G1 X81.787 Y96.488 E7.06147
G1 X81.796 Y96.357 E7.0654
G1 X81.897 Y95.448 E7.09278
G1 X81.923 Y95.269 E7.0982
G1 X82.089 Y94.37 E7.12556
G1 X82.12 Y94.231 E7.12983
G1 X82.355 Y93.332 E7.15764
G1 X82.406 Y93.164 E7.1629
G1 X82.693 Y92.322 E7.18952
G1 X82.76 Y92.146 E7.19516
G1 X83.103 Y91.338 E7.22144
G1 X83.19 Y91.149 E7.22767
G1 X83.598 Y90.358 E7.25431
G1 X83.674 Y90.223 E7.25895
G1 X84.148 Y89.444 E7.28624
G1 X84.254 Y89.283 E7.29201
G1 X84.768 Y88.566 E7.31842
G1 X84.881 Y88.418 E7.32399
G1 X85.464 Y87.718 E7.35126
G1 X85.565 Y87.605 E7.3558
G1 X86.198 Y86.947 E7.38313
G0 F9000 X86 Y87.152
G1 F787.5 X86 Y122.852 E8.45178
G0 F9000 X87 Y123.77
G1 F787.5 X87 Y86.219 E9.57584
G0 F9000 X88 Y85.45
G1 F787.5 X88 Y124.543 E10.74605
G0 F9000 X89 Y125.19
G1 F787.5 X89 Y84.807 E11.95488
G0 F9000 X90 Y84.267
G1 F787.5 X90 Y125.733 E13.19613
G0 F9000 X91 Y126.178
G1 F787.5 X91 Y83.822 E14.46402
G0 F9000 X92 Y83.461
G1 F787.5 X92 Y126.538 E15.75349
G0 F9000 X93 Y126.819
G1 F787.5 X93 Y83.179 E17.05981
G0 F9000 X94 Y82.969
G1 F787.5 X94 Y127.027 E18.37865
G0 F9000 X95 Y127.164
G1 F787.5 X95 Y82.83 E19.70575
G0 F9000 X96 Y82.76
G1 F787.5 X96 Y127.231 E21.03695
G0 F9000 X97 Y127.249
G1 F787.5 X97 Y82.751 E22.36896
G0 F9000 X98 Y82.751
G1 F787.5 X98 Y127.249 E23.70097
G0 F9000 X99 Y127.249
G1 F787.5 X99 Y82.751 E25.03298
G0 F9000 X100 Y82.751
G1 F787.5 X100 Y127.249 E26.36499
G0 F9000 X101 Y127.249
G1 F787.5 X101 Y82.751 E27.69699
G0 F9000 X102 Y82.751
G1 F787.5 X102 Y127.249 E29.029
G0 F9000 X103 Y127.249
G1 F787.5 X103 Y82.751 E30.36101
G0 F9000 X104 Y82.751
G1 F787.5 X104 Y127.249 E31.69302
G0 F9000 X105 Y127.249
G1 F787.5 X105 Y82.751 E33.02503
G0 F9000 X106 Y82.751
G1 F787.5 X106 Y127.249 E34.35704
G0 F9000 X107 Y127.249
G1 F787.5 X107 Y82.751 E35.68905
G0 F9000 X108 Y82.751
G1 F787.5 X108 Y127.249 E37.02105
G0 F9000 X109 Y127.249
G1 F787.5 X109 Y82.751 E38.35306
G0 F9000 X110 Y82.751
G1 F787.5 X110 Y127.249 E39.68507
G0 F9000 X111 Y127.249
G1 F787.5 X111 Y82.751 E41.01708
G0 F9000 X112 Y82.751
G1 F787.5 X112 Y127.249 E42.34909
G0 F9000 X113 Y127.249
G1 F787.5 X113 Y82.751 E43.6811
G0 F9000 X114 Y82.751
G1 F787.5 X114 Y127.249 E45.01311
G0 F9000 X115 Y127.249
G1 F787.5 X115 Y82.751 E46.34511
G0 F9000 X116 Y82.751
G1 F787.5 X116 Y127.249 E47.67712
G0 F9000 X117 Y127.249
G1 F787.5 X117 Y82.751 E49.00913
G0 F9000 X118 Y82.751
G1 F787.5 X118 Y127.249 E50.34114
G0 F9000 X119 Y127.249
G1 F787.5 X119 Y82.751 E51.67315
G0 F9000 X120 Y82.751
G1 F787.5 X120 Y127.249 E53.00516
G0 F9000 X121 Y127.249
G1 F787.5 X121 Y82.751 E54.33717
G0 F9000 X122 Y82.751
G1 F787.5 X122 Y127.249 E55.66917
G0 F9000 X123 Y127.249
G1 F787.5 X123 Y82.751 E57.00118
G0 F9000 X124 Y82.751
G1 F787.5 X124 Y127.249 E58.33319
G0 F9000 X125 Y127.249
G1 F787.5 X125 Y82.751 E59.6652
G0 F9000 X126 Y82.751
G1 F787.5 X126 Y127.249 E60.99721
G0 F9000 X127 Y127.249
G1 F787.5 X127 Y82.751 E62.32922
G0 F9000 X128 Y82.751
G1 F787.5 X128 Y127.249 E63.66123
G0 F9000 X129 Y127.249
G1 F787.5 X129 Y82.751 E64.99323
G0 F9000 X130 Y82.751
G1 F787.5 X130 Y127.249 E66.32524
G0 F9000 X131 Y127.249
G1 F787.5 X131 Y82.751 E67.65725
G0 F9000 X132 Y82.751
G1 F787.5 X132 Y127.249 E68.98926
G0 F9000 X133 Y127.249
G1 F787.5 X133 Y82.751 E70.32127
G0 F9000 X134 Y82.751
G1 F787.5 X134 Y127.249 E71.65328
G0 F9000 X135 Y127.249
G1 F787.5 X135 Y82.751 E72.98529
G0 F9000 X136 Y82.751
G1 F787.5 X136 Y127.249 E74.31729
G0 F9000 X137 Y127.249
G1 F787.5 X137 Y82.751 E75.6493
G0 F9000 X138 Y82.751
G1 F787.5 X138 Y127.249 E76.98131
G0 F9000 X139 Y127.249
G1 F787.5 X139 Y82.751 E78.31332
G0 F9000 X140 Y82.751
G1 F787.5 X140 Y127.249 E79.64533
G0 F9000 X141 Y127.249
G1 F787.5 X141 Y82.751 E80.97734
G0 F9000 X142 Y82.751
G1 F787.5 X142 Y127.249 E82.30934
G0 F9000 X143 Y127.249
G1 F787.5 X143 Y82.751 E83.64135
G0 F9000 X144 Y82.751
G1 F787.5 X144 Y127.249 E84.97336
G0 F9000 X145 Y127.249
G1 F787.5 X145 Y82.751 E86.30537
G0 F9000 X146 Y82.751
G1 F787.5 X146 Y127.249 E87.63738
G0 F9000 X147 Y127.249
G1 F787.5 X147 Y82.751 E88.96939
G0 F9000 X148 Y82.751
G1 F787.5 X148 Y127.249 E90.3014
G0 F9000 X149 Y127.249
G1 F787.5 X149 Y82.751 E91.6334
G0 F9000 X150 Y82.751
G1 F787.5 X150 Y127.249 E92.96541
G0 F9000 X151 Y127.249
G1 F787.5 X151 Y82.751 E94.29742
G0 F9000 X152 Y82.751
G1 F787.5 X152 Y127.249 E95.62943
G0 F9000 X153 Y127.249
G1 F787.5 X153 Y82.751 E96.96144
G0 F9000 X154 Y82.751
G1 F787.5 X154 Y127.249 E98.29345
G0 F9000 X155 Y127.249
G1 F787.5 X155 Y82.751 E99.62546
G0 F9000 X156 Y82.751
G1 F787.5 X156 Y127.249 E100.95746
G0 F9000 X157 Y127.249
G1 F787.5 X157 Y82.751 E102.28947
G0 F9000 X158 Y82.751
G1 F787.5 X158 Y127.249 E103.62148
G0 F9000 X159 Y127.24
G1 F787.5 X159 Y82.769 E104.95268
G0 F9000 X160 Y82.836
G1 F787.5 X160 Y127.17 E106.27978
G0 F9000 X161 Y127.031
G1 F787.5 X161 Y82.973 E107.59862
G0 F9000 X162 Y83.181
G1 F787.5 X162 Y126.821 E108.90494
G0 F9000 X163 Y126.539
G1 F787.5 X163 Y83.462 E110.19442
G0 F9000 X164 Y83.822
G1 F787.5 X164 Y126.178 E111.46231
G0 F9000 X165 Y125.733
G1 F787.5 X165 Y84.267 E112.70355
G0 F9000 X166 Y84.81
G1 F787.5 X166 Y125.193 E113.91238
G0 F9000 X167 Y124.55
G1 F787.5 X167 Y85.457 E115.0826
G0 F9000 X168 Y86.23
G1 F787.5 X168 Y123.781 E116.20665
G0 F9000 X169 Y122.848
G1 F787.5 X169 Y87.148 E117.2753
G0 F9000 X170 Y88.276
G1 F787.5 X170 Y121.725 E118.27657
G0 F9000 X171 Y120.313
G1 F787.5 X171 Y89.68 E119.19354
G0 F9000 X172 Y91.572
G1 F787.5 X172 Y118.42 E119.99721
G1 F1500 E113.49721
G0 F9000 X173.087 Y118.2
G0 X173.336 Y117.47
G0 X173.806 Y115.816
G0 X173 Y115.149
G1 F1500 E119.99721
G1 F787.5 X173 Y94.812 E120.60598
G1 F1500 E114.10598
G0 F9000 X173.885 Y94.566
G0 X173.356 Y92.542
G0 X172.875 Y91.283
G0 X171.915 Y89.418
G0 X171.173 Y88.298
G0 X169.84 Y86.698
G0 X168.883 Y85.775
G0 X167.239 Y84.504
G0 X166.08 Y83.795
G0 X164.2 Y82.913
G0 X162.91 Y82.473
G0 X160.883 Y82.021
G0 X159.557 Y81.874
G0 X95.81 Y81.854
G0 X93.742 Y82.083
G0 X92.427 Y82.379
G0 X90.461 Y83.05
G0 X89.243 Y83.622
G0 X87.477 Y84.701
G0 X86.397 Y85.532
G0 X85.179 Y86.709
G0 X84.298 Y87.69
G0 X85 Y88.275
G1 F1500 E120.60598
G1 F787.5 X85 Y121.724 E121.60725
G0 F9000 X84 Y120.32
G1 F787.5 X84 Y89.687 E122.52422
G0 F9000 X83 Y91.58
G1 F787.5 X83 Y118.428 E123.32789
G1 F1500 E116.82789
G0 F9000 X82.05 Y118.538
G0 X81.508 Y116.947
G0 X81.115 Y115.434
G0 X82 Y115.187
G1 F1500 E123.32789
G1 F787.5 X82 Y94.851 E123.93663
G1 F1500 E117.43663
G0 F300 X82 Y94.851 Z0.294
G0 F9000 X81.021 Y95.117
G0 X80.874 Y96.443
G0 X80.835 Y112.438
G0 X81.75 Y112.438
;TIME_ELAPSED:326.579185
;LAYER:-6
;TYPE:SUPPORT
G1 F1500 E123.93663
G1 F787.5 X96.559 Y127.248 E124.58969
G1 X97.549 Y127.248 E124.62056
G1 X81.75 Y111.448 E125.31727
G1 X81.75 Y110.458 E125.34814
G1 X98.539 Y127.248 E126.08851
G1 X99.529 Y127.248 E126.11938
G1 X81.75 Y109.468 E126.9034
G1 X81.75 Y108.478 E126.93427
G1 X100.519 Y127.248 E127.76195
G1 X101.509 Y127.248 E127.79282
G1 X81.75 Y107.488 E128.66416
G1 X81.75 Y106.498 E128.69503
G1 X102.499 Y127.248 E129.61002
G1 X103.489 Y127.248 E129.64089
G1 X81.75 Y105.508 E130.59954
G1 X81.75 Y104.518 E130.63041
G1 X104.479 Y127.248 E131.63272
G1 X105.469 Y127.248 E131.66359
G1 X81.75 Y103.528 E132.70955
G1 X81.75 Y102.538 E132.74042
G1 X106.459 Y127.248 E133.83004
G1 X107.449 Y127.248 E133.86091
G1 X81.75 Y101.549 E134.99416
G1 X81.75 Y100.559 E135.02503
G1 X108.439 Y127.248 E136.20194
G1 X109.429 Y127.248 E136.23281
G1 X81.75 Y99.569 E137.45337
G1 X81.75 Y98.579 E137.48424
G1 X110.418 Y127.248 E138.74844
G1 X111.408 Y127.248 E138.77931
G1 X81.75 Y97.589 E140.08716
G1 X81.75 Y97.508 E140.08969
G1 X81.781 Y96.63 E140.11708
G1 X112.398 Y127.248 E141.46723
G1 X113.388 Y127.248 E141.4981
G1 X81.865 Y95.724 E142.88819
G1 X81.896 Y95.447 E142.89688
G1 X81.922 Y95.268 E142.90252
G1 X81.996 Y94.866 E142.91527
G1 X114.378 Y127.248 E144.34322
G1 X115.368 Y127.248 E144.37409
G1 X82.167 Y94.046 E145.83818
G1 X82.355 Y93.331 E145.86123
G1 X82.375 Y93.264 E145.86341
G1 X116.358 Y127.248 E147.36199
G1 X117.349 Y127.248 E147.39289
G1 X82.624 Y92.523 E148.92416
G1 X82.693 Y92.321 E148.93082
G1 X82.76 Y92.145 E148.93669
G1 X82.901 Y91.811 E148.94799
G1 X118.339 Y127.248 E150.51069
G1 X119.329 Y127.248 E150.54156
G1 X83.203 Y91.122 E152.13461
G1 X83.539 Y90.469 E152.15751
G1 X120.319 Y127.248 E153.77938
G1 X121.309 Y127.248 E153.81025
G1 X83.903 Y89.843 E155.45972
G1 X84.148 Y89.443 E155.47435
G1 X84.253 Y89.282 E155.48034
G1 X84.286 Y89.236 E155.48211
G1 X122.299 Y127.248 E157.15835
G1 X123.289 Y127.248 E157.18922
G1 X84.7 Y88.659 E158.89088
G1 X84.767 Y88.565 E158.89448
G1 X84.88 Y88.417 E158.90029
G1 X85.137 Y88.107 E158.91284
G1 X124.278 Y127.248 E160.63885
G1 X125.268 Y127.248 E160.66972
G1 X85.593 Y87.573 E162.41927
G1 X86.079 Y87.069 E162.4411
G1 X126.258 Y127.248 E164.21288
G1 X127.248 Y127.248 E164.24375
G1 X86.588 Y86.588 E166.03674
G1 X86.988 Y86.228 E166.05352
G1 X87.114 Y86.124 E166.05862
G1 X128.238 Y127.248 E167.87207
G1 X129.228 Y127.248 E167.90294
G1 X87.673 Y85.693 E169.73539
G1 X87.838 Y85.565 E169.7419
G1 X87.997 Y85.451 E169.748
G1 X88.252 Y85.282 E169.75754
G1 X130.218 Y127.248 E171.60812
G1 X131.208 Y127.248 E171.63899
G1 X88.852 Y84.892 E173.50677
G1 X88.882 Y84.873 E173.50788
G1 X89.484 Y84.534 E173.52942
G1 X132.198 Y127.248 E175.41299
G1 X133.188 Y127.248 E175.44385
G1 X90.141 Y84.201 E177.3421
G1 X90.649 Y83.963 E177.3596
G1 X90.803 Y83.896 E177.36483
G1 X90.82 Y83.891 E177.36539
G1 X134.178 Y127.248 E179.27733
G1 X135.168 Y127.248 E179.3082
G1 X91.536 Y83.616 E181.23224
G1 X91.647 Y83.573 E181.23595
G1 X91.816 Y83.516 E181.24152
G1 X92.285 Y83.376 E181.25678
G1 X136.158 Y127.248 E183.19143
G1 X137.148 Y127.248 E183.2223
G1 X93.064 Y83.164 E185.16628
G1 X93.747 Y83.012 E185.18809
G1 X93.878 Y82.988 E185.19225
G1 X138.138 Y127.249 E187.14401
G1 X139.128 Y127.249 E187.17488
G1 X94.74 Y82.86 E189.13228
G1 X94.79 Y82.853 E189.13386
G1 X94.965 Y82.832 E189.13935
G1 X95.651 Y82.782 E189.1608
G1 X140.118 Y127.249 E191.12167
G1 X141.108 Y127.249 E191.15254
G1 X96.609 Y82.75 E193.11481
G1 X97.599 Y82.75 E193.14568
G1 X142.098 Y127.249 E195.10796
G1 X143.088 Y127.249 E195.13883
G1 X98.589 Y82.75 E197.10111
G1 X99.579 Y82.75 E197.13198
G1 X144.078 Y127.249 E199.09426
G1 X145.068 Y127.249 E199.12513
G1 X100.569 Y82.75 E201.0874
G1 X101.559 Y82.75 E201.11827
G1 X146.058 Y127.249 E203.08055
G1 X147.048 Y127.249 E203.11142
G1 X102.549 Y82.75 E205.0737
G1 X103.539 Y82.75 E205.10457
G1 X148.038 Y127.249 E207.06685
G1 X149.028 Y127.249 E207.09772
G1 X104.529 Y82.75 E209.05999
G1 X105.519 Y82.75 E209.09086
G1 X150.018 Y127.249 E211.05314
G1 X151.008 Y127.249 E211.08401
G1 X106.509 Y82.75 E213.04629
G1 X107.499 Y82.75 E213.07716
G1 X151.998 Y127.249 E215.03944
G1 X152.988 Y127.249 E215.07031
G1 X108.489 Y82.75 E217.03258
G1 X109.479 Y82.75 E217.06345
