;FLAVOR:Marlin
;TIME:18434
;Filament used: 4.84816m
;Layer height: 0.1
;MINX:76.835
;MINY:94.335
;MINZ:0.12
;MAXX:178.165
;MAXY:115.665
;MAXZ:34.92
;Generated with Cura_SteamEngine master
M140 S60
M105
M190 S60
M104 S210
M105
M109 S210
M82 ;absolute extrusion mode
M220 S100 ;reset feedrate
M221 S100 ;reset flowrate
G90 ;use absolute coordinates
M82 ;absolute extrusion mode
G28 ;home
G1 Z2 F1500 ;raise z
G92 E0 ;reset extruder

G1 X75 Y5 F5000 ;start position
G1 Z0.28 F1500 ;lower z
G1 E4 F500 ;prime the filament
G1 X180 E10 F500 ;1st line
G1 Y5.4 F5000
G1 X75 E20 F500 ;2nd line
G1 Z2 F1500 ;raise z
G92 E0 ;reset extruder
G92 E0
G92 E0
G1 F1500 E-6.5
;LAYER_COUNT:349
;LAYER:0
M107
;MESH:holder.stl
G0 F6000 X84.39 Y107.926 Z0.12
;TYPE:WALL-INNER
G1 F1500 E0
G1 F1050 X85.124 Y108.107 E0.00943
G1 X85.876 Y108.107 E0.01881
G1 X86.61 Y107.926 E0.02824
G1 X87.278 Y107.575 E0.03765
G1 X87.841 Y107.076 E0.04703
G1 X88.272 Y106.453 E0.05648
G1 X88.537 Y105.746 E0.0659
G1 X88.63 Y105 E0.07527
G1 X88.539 Y104.252 E0.08467
G1 X88.272 Y103.546 E0.09409
G1 X87.841 Y102.924 E0.10353
G1 X87.277 Y102.424 E0.11293
G1 X86.61 Y102.072 E0.12233
G1 X85.876 Y101.893 E0.13176
G1 X85.124 Y101.893 E0.14114
G1 X84.39 Y102.072 E0.15056
G1 X83.724 Y102.423 E0.15995
G1 X83.159 Y102.924 E0.16937
G1 X82.728 Y103.546 E0.17881
G1 X82.461 Y104.252 E0.18822
G1 X82.37 Y105 E0.19762
G1 X82.461 Y105.748 E0.20702
G1 X82.728 Y106.454 E0.21643
G1 X83.159 Y107.076 E0.22587
G1 X83.722 Y107.575 E0.23525
G1 X84.39 Y107.926 E0.24466
G0 F6000 X84.479 Y107.691
G1 F1050 X85.154 Y107.857 E0.25333
G1 X85.846 Y107.857 E0.26196
G1 X86.521 Y107.691 E0.27063
G1 X87.135 Y107.368 E0.27929
G1 X87.653 Y106.909 E0.28792
G1 X88.049 Y106.336 E0.29661
G1 X88.293 Y105.686 E0.30527
G1 X88.378 Y105 E0.31389
G1 X88.294 Y104.312 E0.32253
G1 X88.049 Y103.663 E0.33119
G1 X87.653 Y103.091 E0.33986
G1 X87.134 Y102.631 E0.34851
G1 X86.521 Y102.308 E0.35716
G1 X85.846 Y102.143 E0.36582
G1 X85.154 Y102.143 E0.37445
G1 X84.479 Y102.308 E0.38312
G1 X83.867 Y102.63 E0.39174
G1 X83.347 Y103.091 E0.40041
G1 X82.951 Y103.663 E0.40909
G1 X82.706 Y104.312 E0.41774
G1 X82.622 Y105 E0.42639
G1 X82.706 Y105.688 E0.43503
G1 X82.951 Y106.337 E0.44368
G1 X83.347 Y106.909 E0.45236
G1 X83.865 Y107.368 E0.46099
G1 X84.479 Y107.691 E0.46965
G0 F6000 X84.568 Y107.456
;TYPE:WALL-OUTER
G1 F1050 X85.184 Y107.607 E0.47756
G1 X85.816 Y107.607 E0.48544
G1 X86.432 Y107.456 E0.49335
G1 X86.992 Y107.161 E0.50124
G1 X87.465 Y106.742 E0.50913
G1 X87.826 Y106.219 E0.51705
G1 X88.049 Y105.626 E0.52495
G1 X88.126 Y105 E0.53282
G1 X88.049 Y104.372 E0.54071
G1 X87.826 Y103.78 E0.5486
G1 X87.465 Y103.258 E0.55652
G1 X86.991 Y102.838 E0.56442
G1 X86.432 Y102.544 E0.57229
G1 X85.816 Y102.393 E0.58021
G1 X85.184 Y102.393 E0.58809
G1 X84.568 Y102.544 E0.596
G1 X84.01 Y102.837 E0.60386
G1 X83.535 Y103.258 E0.61178
G1 X83.174 Y103.78 E0.61969
G1 X82.951 Y104.372 E0.62758
G1 X82.874 Y105 E0.63547
G1 X82.951 Y105.628 E0.64337
G1 X83.174 Y106.22 E0.65126
G1 X83.535 Y106.742 E0.65917
G1 X84.008 Y107.161 E0.66705
G1 X84.568 Y107.456 E0.67495
G0 F6000 X84.471 Y107.713
G1 F1500 E-5.82505
G0 F6000 X85.835 Y107.771
G0 X87.929 Y107.153
G0 X86.869 Y106.215
G0 X170.13 Y106.215
G0 X169.071 Y107.153
G0 X170.39 Y107.926
;TYPE:WALL-INNER
G1 F1500 E0.67495
G1 F1050 X171.124 Y108.107 E0.68438
G1 X171.876 Y108.107 E0.69376
G1 X172.61 Y107.926 E0.70318
G1 X173.278 Y107.575 E0.7126
G1 X173.841 Y107.076 E0.72198
G1 X174.272 Y106.453 E0.73143
G1 X174.537 Y105.746 E0.74085
G1 X174.63 Y105 E0.75022
G1 X174.539 Y104.252 E0.75962
G1 X174.272 Y103.546 E0.76903
G1 X173.841 Y102.924 E0.77847
G1 X173.277 Y102.424 E0.78787
G1 X172.61 Y102.072 E0.79728
G1 X171.876 Y101.893 E0.8067
G1 X171.124 Y101.893 E0.81608
G1 X170.39 Y102.072 E0.82551
G1 X169.724 Y102.423 E0.8349
G1 X169.159 Y102.924 E0.84431
G1 X168.728 Y103.546 E0.85375
G1 X168.461 Y104.252 E0.86317
G1 X168.37 Y105 E0.87257
G1 X168.461 Y105.748 E0.88196
G1 X168.728 Y106.454 E0.89138
G1 X169.159 Y107.076 E0.90082
G1 X169.722 Y107.575 E0.9102
G1 X170.39 Y107.926 E0.91961
G0 F6000 X170.479 Y107.691
G1 F1050 X171.154 Y107.857 E0.92828
G1 X171.846 Y107.857 E0.93691
G1 X172.521 Y107.691 E0.94558
G1 X173.135 Y107.368 E0.95424
G1 X173.653 Y106.909 E0.96287
G1 X174.049 Y106.336 E0.97155
G1 X174.293 Y105.686 E0.98021
G1 X174.378 Y105 E0.98884
G1 X174.294 Y104.312 E0.99748
G1 X174.049 Y103.663 E1.00613
G1 X173.653 Y103.091 E1.01481
G1 X173.134 Y102.631 E1.02346
G1 X172.521 Y102.308 E1.0321
G1 X171.846 Y102.143 E1.04077
G1 X171.154 Y102.143 E1.0494
G1 X170.479 Y102.308 E1.05807
G1 X169.867 Y102.63 E1.06669
G1 X169.347 Y103.091 E1.07536
G1 X168.951 Y103.663 E1.08404
G1 X168.706 Y104.312 E1.09269
G1 X168.622 Y105 E1.10133
G1 X168.706 Y105.688 E1.10998
G1 X168.951 Y106.337 E1.11863
G1 X169.347 Y106.909 E1.12731
G1 X169.865 Y107.368 E1.13594
G1 X170.479 Y107.691 E1.14459
G0 F6000 X170.568 Y107.456
;TYPE:WALL-OUTER
G1 F1050 X171.184 Y107.607 E1.1525
G1 X171.816 Y107.607 E1.16039
G1 X172.432 Y107.456 E1.1683
G1 X172.992 Y107.161 E1.17619
G1 X173.465 Y106.742 E1.18407
G1 X173.826 Y106.219 E1.192
G1 X174.049 Y105.626 E1.1999
G1 X174.126 Y105 E1.20777
G1 X174.049 Y104.372 E1.21566
G1 X173.826 Y103.78 E1.22355
G1 X173.465 Y103.258 E1.23147
G1 X172.991 Y102.838 E1.23936
G1 X172.432 Y102.544 E1.24724
G1 X171.816 Y102.393 E1.25515
G1 X171.184 Y102.393 E1.26304
G1 X170.568 Y102.544 E1.27095
G1 X170.01 Y102.837 E1.27881
G1 X169.535 Y103.258 E1.28672
G1 X169.174 Y103.78 E1.29464
G1 X168.951 Y104.372 E1.30253
G1 X168.874 Y105 E1.31042
G1 X168.951 Y105.628 E1.31831
G1 X169.174 Y106.22 E1.3262
G1 X169.535 Y106.742 E1.33412
G1 X170.008 Y107.161 E1.342
G1 X170.568 Y107.456 E1.34989
G0 F6000 X170.471 Y107.713
G1 F1500 E-5.15011
G0 F6000 X171.89 Y108.223
G0 X171.722 Y106.818
G0 X178.165 Y108.223
G0 X176.74 Y108.223
G0 X176.875 Y114.375
;TYPE:WALL-INNER
G1 F1500 E1.34989
G1 F1050 X78.125 Y114.375 E2.58156
G1 X78.125 Y95.625 E2.81542
G1 X176.875 Y95.625 E4.04708
G1 X176.875 Y114.375 E4.28094
G0 F6000 X177.125 Y114.625
G1 F1050 X77.875 Y114.625 E5.51884
G1 X77.875 Y95.375 E5.75894
G1 X177.125 Y95.375 E6.99684
G1 X177.125 Y114.625 E7.23694
G0 F6000 X177.375 Y114.875
;TYPE:WALL-OUTER
G1 F1050 X77.625 Y114.875 E8.48108
G1 X77.625 Y95.125 E8.72741
G1 X177.375 Y95.125 E9.97154
G1 X177.375 Y114.875 E10.21788
G0 F6000 X177.18 Y114.68
G0 X176.84 Y114.135
G0 X176.635 Y114.135
;TYPE:SKIN
G1 F1050 X78.365 Y114.135 E11.44356
G1 X78.365 Y95.865 E11.67143
G1 X176.635 Y95.865 E12.89711
G1 X176.635 Y114.135 E13.12498
G1 F1500 E6.62498
G0 F6000 X176.84 Y114.135
G0 X176.74 Y107.604
G0 X178.165 Y107.604
G0 X172.869 Y106.215
G0 X173.929 Y107.153
G0 X173.299 Y107.604
G1 F1500 E13.12498
G0 F6000 X173.416 Y107.774
G1 F1050 X174.022 Y107.237 E13.13508
G1 X174.487 Y106.565 E13.14527
G1 X174.771 Y105.804 E13.1554
G1 X174.872 Y105 E13.16551
G1 X174.773 Y104.194 E13.17564
G1 X174.486 Y103.433 E13.18578
G1 X174.022 Y102.763 E13.19595
G1 X173.415 Y102.225 E13.20606
G1 X172.696 Y101.846 E13.2162
G1 X171.905 Y101.653 E13.22636
G1 X171.095 Y101.653 E13.23646
G1 X170.304 Y101.846 E13.24661
G1 X169.586 Y102.224 E13.25673
G1 X168.978 Y102.763 E13.26687
G1 X168.514 Y103.433 E13.27703
G1 X168.227 Y104.194 E13.28718
G1 X168.128 Y105 E13.29731
G1 X168.227 Y105.806 E13.30743
G1 X168.514 Y106.567 E13.31758
G1 X168.978 Y107.237 E13.32774
G1 X169.584 Y107.774 E13.33784
G1 X170.304 Y108.152 E13.34799
G1 X171.095 Y108.347 E13.35815
G1 X171.905 Y108.347 E13.36825
G1 X172.696 Y108.152 E13.37841
G1 X173.416 Y107.774 E13.38855
G1 F1500 E6.88855
G0 F6000 X173.299 Y107.604
G0 X171.835 Y107.771
G0 X171.165 Y107.771
G0 X170.509 Y107.611
G0 X168.625 Y106.508
G0 X169.877 Y105.849
G0 X87.331 Y105
G0 X88.746 Y105
G1 F1500 E13.38855
G0 F6000 X88.872 Y105
G1 F1050 X88.773 Y104.194 E13.39868
G1 X88.486 Y103.433 E13.40883
G1 X88.022 Y102.763 E13.41899
G1 X87.415 Y102.225 E13.42911
G1 X86.696 Y101.846 E13.43924
G1 X85.905 Y101.653 E13.4494
G1 X85.095 Y101.653 E13.4595
G1 X84.304 Y101.846 E13.46966
G1 X83.586 Y102.224 E13.47978
G1 X82.978 Y102.763 E13.48991
G1 X82.514 Y103.433 E13.50008
G1 X82.227 Y104.194 E13.51022
G1 X82.128 Y105 E13.52035
G1 X82.227 Y105.806 E13.53048
G1 X82.514 Y106.567 E13.54062
G1 X82.978 Y107.237 E13.55079
G1 X83.584 Y107.774 E13.56089
G1 X84.304 Y108.152 E13.57103
G1 X85.095 Y108.347 E13.58119
G1 X85.905 Y108.347 E13.59129
G1 X86.696 Y108.152 E13.60145
G1 X87.416 Y107.774 E13.6116
G1 X88.022 Y107.237 E13.6217
G1 X88.487 Y106.565 E13.63189
G1 X88.771 Y105.804 E13.64202
G1 X88.872 Y105 E13.65213
G1 F1500 E7.15213
G0 F6000 X88.665 Y104.999
G0 X87.973 Y106.295
G0 X87.588 Y106.852
G0 X87.086 Y107.297
G0 X86.491 Y107.611
G0 X84.349 Y108.035
G0 X84.852 Y106.713
G0 X84.349 Y115.665
G0 X84.349 Y114.24
G0 X78.679 Y114.34
G1 F1500 E13.65213
G0 F6000 X78.679 Y114.034
G1 F1050 X78.464 Y113.82 E13.65591
G0 F6000 X78.464 Y113.466
G1 F1050 X79.032 Y114.034 E13.66593
G0 F6000 X79.386 Y114.034
G1 F1050 X78.464 Y113.113 E13.68218
G0 F6000 X78.464 Y112.759
G1 F1050 X79.739 Y114.034 E13.70467
G0 F6000 X80.093 Y114.034
G1 F1050 X78.464 Y112.405 E13.73341
G0 F6000 X78.464 Y112.052
G1 F1050 X80.446 Y114.034 E13.76837
G0 F6000 X80.8 Y114.034
G1 F1050 X78.464 Y111.698 E13.80957
G0 F6000 X78.464 Y111.345
G1 F1050 X81.153 Y114.034 E13.857
G0 F6000 X81.507 Y114.034
G1 F1050 X78.464 Y110.991 E13.91068
G0 F6000 X78.464 Y110.638
G1 F1050 X81.861 Y114.034 E13.97059
G0 F6000 X82.214 Y114.034
G1 F1050 X78.464 Y110.284 E14.03673
G0 F6000 X78.464 Y109.931
G1 F1050 X82.568 Y114.034 E14.10911
G0 F6000 X82.921 Y114.034
G1 F1050 X78.464 Y109.577 E14.18773
G0 F6000 X78.464 Y109.223
G1 F1050 X83.275 Y114.034 E14.27259
G0 F6000 X83.628 Y114.034
G1 F1050 X78.464 Y108.87 E14.36368
G0 F6000 X78.464 Y108.516
G1 F1050 X83.982 Y114.034 E14.46101
G0 F6000 X84.335 Y114.034
G1 F1050 X78.464 Y108.163 E14.56457
G0 F6000 X78.464 Y107.809
G1 F1050 X84.689 Y114.034 E14.67437
G0 F6000 X85.043 Y114.034
G1 F1050 X78.464 Y107.456 E14.7904
G0 F6000 X78.464 Y107.102
G1 F1050 X85.396 Y114.034 E14.91268
G0 F6000 X85.75 Y114.034
G1 F1050 X78.464 Y106.749 E15.04119
G0 F6000 X78.464 Y106.395
G1 F1050 X86.103 Y114.034 E15.17593
G0 F6000 X86.457 Y114.034
G1 F1050 X78.464 Y106.041 E15.31692
G0 F6000 X78.464 Y105.688
G1 F1050 X86.81 Y114.034 E15.46413
G0 F6000 X87.164 Y114.034
G1 F1050 X78.464 Y105.334 E15.61759
G0 F6000 X78.464 Y104.981
G1 F1050 X87.517 Y114.034 E15.77727
G0 F6000 X87.871 Y114.034
G1 F1050 X78.464 Y104.627 E15.9432
G0 F6000 X78.464 Y104.274
G1 F1050 X88.225 Y114.034 E16.11536
G0 F6000 X88.578 Y114.034
G1 F1050 X78.464 Y103.92 E16.29376
G0 F6000 X78.464 Y103.567
G1 F1050 X88.932 Y114.034 E16.4784
G0 F6000 X89.285 Y114.034
G1 F1050 X78.464 Y103.213 E16.66927
G0 F6000 X78.464 Y102.859
G1 F1050 X82.889 Y107.284 E16.74732
G1 X82.951 Y107.346
G1 X89.639 Y114.034 E16.86529
G0 F6000 X89.992 Y114.034
G1 F1050 X84.135 Y108.176 E16.96861
G0 F6000 X84.653 Y108.341
G1 F1050 X90.346 Y114.034 E17.06903
G0 F6000 X90.699 Y114.034
G1 F1050 X85.111 Y108.446 E17.16759
G0 F6000 X85.465 Y108.446
G1 F1050 X91.053 Y114.034 E17.26616
G0 F6000 X91.406 Y114.034
G1 F1050 X85.818 Y108.446 E17.36472
G0 F6000 X86.122 Y108.396
G1 F1050 X91.76 Y114.034 E17.46417
G0 F6000 X92.114 Y114.034
G1 F1050 X86.406 Y108.326 E17.56485
G0 F6000 X86.69 Y108.257
G1 F1050 X92.467 Y114.034 E17.66675
G0 F6000 X92.821 Y114.034
G1 F1050 X86.929 Y108.142 E17.77068
G0 F6000 X87.161 Y108.021
G1 F1050 X93.174 Y114.034 E17.87674
G0 F6000 X93.528 Y114.034
G1 F1050 X87.393 Y107.899 E17.98496
G0 F6000 X87.595 Y107.748
G1 F1050 X93.881 Y114.034 E18.09584
G0 F6000 X94.235 Y114.034
G1 F1050 X87.783 Y107.582 E18.20964
G0 F6000 X87.97 Y107.415
G1 F1050 X94.588 Y114.034 E18.32639
G0 F6000 X94.942 Y114.034
G1 F1050 X88.143 Y107.235 E18.44631
G0 F6000 X88.288 Y107.026
G1 F1050 X95.296 Y114.034 E18.56993
G0 F6000 X95.649 Y114.034
G1 F1050 X88.432 Y106.817 E18.69722
G0 F6000 X88.577 Y106.609
G1 F1050 X96.003 Y114.034 E18.8282
G0 F6000 X96.356 Y114.034
G1 F1050 X88.673 Y106.35 E18.96373
G0 F6000 X88.768 Y106.092
G1 F1050 X96.71 Y114.034 E19.10382
G0 F6000 X97.063 Y114.034
G1 F1050 X88.864 Y105.835 E19.24844
G0 F6000 X88.906 Y105.523
G1 F1050 X97.417 Y114.034 E19.39856
G0 F6000 X97.77 Y114.034
G1 F1050 X88.946 Y105.209 E19.55422
G0 F6000 X88.956 Y104.866
G1 F1050 X98.124 Y114.034 E19.71593
G0 F6000 X98.478 Y114.034
G1 F1050 X88.906 Y104.463 E19.88476
G0 F6000 X88.813 Y104.016
G1 F1050 X98.831 Y114.034 E20.06147
G0 F6000 X99.185 Y114.034
G1 F1050 X88.6 Y103.449 E20.24817
G0 F6000 X88.313 Y103.557
G0 X86.947 Y102.209
G0 X87.09 Y101.939
G1 F1050 X81.115 Y95.964 E20.35357
G0 F6000 X80.762 Y95.964
G1 F1050 X86.487 Y101.69 E20.45456
G0 F6000 X86.02 Y101.577
G1 F1050 X80.408 Y95.964 E20.55356
G0 F6000 X80.055 Y95.964
G1 F1050 X85.641 Y101.551 E20.65209
G0 F6000 X85.288 Y101.551
G1 F1050 X79.701 Y95.964 E20.75064
G0 F6000 X79.347 Y95.964
G1 F1050 X84.963 Y101.58 E20.8497
G0 F6000 X84.679 Y101.65
G1 F1050 X78.994 Y95.964 E20.94999
G0 F6000 X78.64 Y95.964
G1 F1050 X84.395 Y101.719 E21.0515
G0 F6000 X84.14 Y101.817
G1 F1050 X78.464 Y96.142 E21.15161
G0 F6000 X78.464 Y96.496
G1 F1050 X83.908 Y101.94 E21.24763
G0 F6000 X83.676 Y102.061
G1 F1050 X78.464 Y96.849 E21.33957
G0 F6000 X78.464 Y97.203
G1 F1050 X83.461 Y102.199 E21.4277
G0 F6000 X83.273 Y102.365
G1 F1050 X78.464 Y97.556 E21.51253
G0 F6000 X78.464 Y97.91
G1 F1050 X83.086 Y102.531 E21.59404
G0 F6000 X82.9 Y102.699
G1 F1050 X78.464 Y98.263 E21.67229
G0 F6000 X78.464 Y98.617
G1 F1050 X82.755 Y102.908 E21.74798
G0 F6000 X82.611 Y103.117
G1 F1050 X78.464 Y98.97 E21.82113
G0 F6000 X78.464 Y99.324
G1 F1050 X82.466 Y103.325 E21.89171
G0 F6000 X82.355 Y103.568
G1 F1050 X78.464 Y99.678 E21.96033
G0 F6000 X78.464 Y100.031
G1 F1050 X82.258 Y103.825 E22.02725
G0 F6000 X82.161 Y104.081
G1 F1050 X78.464 Y100.385 E22.09246
G0 F6000 X78.464 Y100.738
G1 F1050 X82.104 Y104.378 E22.15666
G0 F6000 X82.065 Y104.692
G1 F1050 X78.464 Y101.092 E22.22017
G0 F6000 X78.464 Y101.445
G1 F1050 X82.028 Y105.009 E22.28304
G0 F6000 X82.078 Y105.413
G1 F1050 X78.464 Y101.799 E22.34678
G0 F6000 X78.464 Y102.152
G1 F1050 X82.128 Y105.816 E22.41141
G0 F6000 X82.334 Y106.376
G1 F1050 X78.464 Y102.506 E22.47967
G0 F6000 X78.16 Y102.506
G0 X78.232 Y95.732
G0 X81.469 Y95.66
G0 X81.469 Y95.964
G1 F1050 X99.538 Y114.034 E22.7984
G0 F6000 X99.892 Y114.034
G1 F1050 X81.822 Y95.964 E23.11713
G0 F6000 X82.176 Y95.964
G1 F1050 X100.245 Y114.034 E23.43586
G0 F6000 X100.599 Y114.034
G1 F1050 X82.529 Y95.964 E23.75459
G0 F6000 X82.883 Y95.964
G1 F1050 X100.952 Y114.034 E24.07332
G0 F6000 X101.306 Y114.034
G1 F1050 X83.237 Y95.964 E24.39204
G0 F6000 X83.59 Y95.964
G1 F1050 X101.66 Y114.034 E24.71078
G0 F6000 X102.013 Y114.034
G1 F1050 X83.944 Y95.964 E25.0295
G0 F6000 X84.297 Y95.964
G1 F1050 X102.367 Y114.034 E25.34824
G0 F6000 X102.72 Y114.034
G1 F1050 X84.651 Y95.964 E25.66696
G0 F6000 X85.004 Y95.964
G1 F1050 X103.074 Y114.034 E25.98569
G0 F6000 X103.427 Y114.034
G1 F1050 X85.358 Y95.964 E26.30442
G0 F6000 X85.711 Y95.964
G1 F1050 X103.781 Y114.034 E26.62315
G0 F6000 X104.134 Y114.034
G1 F1050 X86.065 Y95.964 E26.94188
G0 F6000 X86.419 Y95.964
G1 F1050 X104.488 Y114.034 E27.2606
G0 F6000 X104.842 Y114.034
G1 F1050 X86.772 Y95.964 E27.57934
G0 F6000 X87.126 Y95.964
G1 F1050 X105.195 Y114.034 E27.89806
G0 F6000 X105.549 Y114.034
G1 F1050 X87.479 Y95.964 E28.2168
G0 F6000 X87.833 Y95.964
G1 F1050 X105.902 Y114.034 E28.53552
G0 F6000 X106.256 Y114.034
G1 F1050 X88.186 Y95.964 E28.85426
G0 F6000 X88.54 Y95.964
G1 F1050 X106.609 Y114.034 E29.17298
G0 F6000 X106.963 Y114.034
G1 F1050 X88.893 Y95.964 E29.49172
G0 F6000 X89.247 Y95.964
G1 F1050 X107.316 Y114.034 E29.81044
G0 F6000 X107.67 Y114.034
G1 F1050 X89.601 Y95.964 E30.12917
G0 F6000 X89.954 Y95.964
G1 F1050 X108.023 Y114.034 E30.44789
G0 F6000 X108.377 Y114.034
G1 F1050 X90.308 Y95.964 E30.76662
G0 F6000 X90.661 Y95.964
G1 F1050 X108.731 Y114.034 E31.08535
G0 F6000 X109.084 Y114.034
G1 F1050 X91.015 Y95.964 E31.40408
G0 F6000 X91.368 Y95.964
G1 F1050 X109.438 Y114.034 E31.72281
G0 F6000 X109.791 Y114.034
G1 F1050 X91.722 Y95.964 E32.04154
