;FLAVOR:Marlin
;TIME:4832
;Filament used: 6.43301m
;Layer height: 0.2
;MINX:66.25
;MINY:83.75
;MINZ:0.2
;MAXX:188.75
;MAXY:126.25
;MAXZ:21
;Generated with Cura_SteamEngine master
M140 S60
M105
M190 S60
M104 S200
M105
M109 S200
M82 ;absolute extrusion mode
M220 S100 ;reset feedrate
M221 S100 ;reset flowrate
G90 ;use absolute coordinates
M82 ;absolute extrusion mode
G28 ;home
G1 Z2 F1500 ;raise z
G92 E0 ;reset extruder

G1 X75 Y5 F5000 ;start position
G1 Z0.28 F1500 ;lower z
G1 E4 F500 ;prime the filament
G1 X180 E10 F500 ;1st line
G1 Y5.4 F5000
G1 X75 E20 F500 ;2nd line
G1 Z2 F1500 ;raise z
G92 E0 ;reset extruder
G92 E0
G92 E0
G1 F1500 E-6.5
;LAYER_COUNT:105
;LAYER:0
M107
G0 F9000 X70.142 Y86.506 Z0.2
;TYPE:SKIRT
G1 F1500 E0
G1 F1800 X70.885 Y85.916 E0.03944
G1 X71.674 Y85.39 E0.07887
G1 X72.505 Y84.933 E0.1183
G1 X73.372 Y84.547 E0.15775
G1 X74.268 Y84.236 E0.19719
G1 X75.187 Y84.001 E0.23662
G1 X76.122 Y83.845 E0.27603
G1 X77.194 Y83.763 E0.32073
G1 X77.515 Y83.754 E0.33408
G1 X77.83 Y83.75 E0.34718
G1 X176.793 Y83.75 E4.46158
G1 X177.652 Y83.761 E4.4973
G1 X178.599 Y83.815 E4.53673
G1 X179.538 Y83.948 E4.57616
G1 X180.463 Y84.16 E4.61562
G1 X181.366 Y84.448 E4.65502
G1 X182.242 Y84.812 E4.69446
G1 X183.084 Y85.249 E4.7339
G1 X183.886 Y85.755 E4.77333
G1 X184.643 Y86.326 E4.81275
G1 X185.349 Y86.96 E4.8522
G1 X186 Y87.65 E4.89164
G1 X186.589 Y88.393 E4.93106
G1 X187.114 Y89.183 E4.97049
G1 X187.571 Y90.014 E5.00992
G1 X187.956 Y90.881 E5.04936
G1 X188.267 Y91.777 E5.08879
G1 X188.501 Y92.696 E5.12822
G1 X188.656 Y93.632 E5.16766
G1 X188.737 Y94.694 E5.21195
G1 X188.746 Y95.014 E5.22526
G1 X188.75 Y95.33 E5.23839
G1 X188.749 Y114.403 E6.03136
G1 X188.74 Y115.13 E6.06158
G1 X188.688 Y116.077 E6.10102
G1 X188.557 Y117.017 E6.14047
G1 X188.347 Y117.942 E6.17991
G1 X188.06 Y118.846 E6.21934
G1 X187.698 Y119.722 E6.25875
G1 X187.263 Y120.565 E6.29819
G1 X186.759 Y121.368 E6.3376
G1 X186.189 Y122.126 E6.37703
G1 X185.557 Y122.834 E6.41649
G1 X184.867 Y123.485 E6.45593
G1 X184.126 Y124.076 E6.49534
G1 X183.337 Y124.603 E6.53478
G1 X182.506 Y125.061 E6.57423
G1 X181.64 Y125.448 E6.61367
G1 X180.745 Y125.76 E6.65307
G1 X179.826 Y125.996 E6.69252
G1 X178.891 Y126.154 E6.73194
G1 X177.806 Y126.237 E6.77719
G1 X177.485 Y126.246 E6.79054
G1 X177.17 Y126.25 E6.80363
G1 X78.062 Y126.249 E10.92407
G1 X77.364 Y126.24 E10.95309
G1 X76.417 Y126.188 E10.99252
G1 X75.478 Y126.056 E11.03194
G1 X74.553 Y125.846 E11.07138
G1 X73.649 Y125.558 E11.11082
G1 X72.773 Y125.195 E11.15024
G1 X71.93 Y124.76 E11.18968
G1 X71.127 Y124.255 E11.22912
G1 X70.369 Y123.685 E11.26855
G1 X69.662 Y123.053 E11.30798
G1 X69.011 Y122.363 E11.34742
G1 X68.42 Y121.621 E11.38686
G1 X67.894 Y120.832 E11.42628
G1 X67.436 Y120.001 E11.46573
G1 X67.05 Y119.135 E11.50515
G1 X66.738 Y118.239 E11.54459
G1 X66.503 Y117.32 E11.58403
G1 X66.346 Y116.385 E11.62345
G1 X66.263 Y115.295 E11.66889
G1 X66.254 Y114.962 E11.68274
G1 X66.25 Y114.658 E11.69538
G1 X66.251 Y95.522 E12.49097
G1 X66.26 Y94.857 E12.51862
G1 X66.313 Y93.91 E12.55805
G1 X66.445 Y92.971 E12.59747
G1 X66.656 Y92.046 E12.63692
G1 X66.944 Y91.142 E12.67636
G1 X67.308 Y90.266 E12.7158
G1 X67.743 Y89.424 E12.7552
G1 X68.249 Y88.621 E12.79466
G1 X68.82 Y87.864 E12.83409
G1 X69.452 Y87.157 E12.87351
G1 X70.142 Y86.506 E12.91295
G0 F9000 X70.629 Y86.749
G1 F1800 X71.366 Y86.187 E12.95148
G1 X72.149 Y85.691 E12.99002
G1 X72.972 Y85.263 E13.02859
G1 X73.828 Y84.909 E13.0671
G1 X74.712 Y84.629 E13.10565
G1 X75.617 Y84.427 E13.1442
G1 X76.536 Y84.303 E13.18275
G1 X77.208 Y84.263 E13.21074
G1 X77.529 Y84.254 E13.22409
G1 X77.83 Y84.25 E13.23661
G1 X176.793 Y84.25 E17.35101
G1 X177.645 Y84.261 E17.38644
G1 X178.571 Y84.314 E17.425
G1 X179.488 Y84.447 E17.46352
G1 X180.391 Y84.659 E17.50208
G1 X181.272 Y84.947 E17.54062
G1 X182.125 Y85.31 E17.57916
G1 X182.944 Y85.746 E17.61774
G1 X183.722 Y86.25 E17.65628
G1 X184.453 Y86.819 E17.69479
G1 X185.133 Y87.45 E17.73336
G1 X185.756 Y88.136 E17.77188
G1 X186.318 Y88.874 E17.81045
G1 X186.814 Y89.657 E17.84898
G1 X187.24 Y90.481 E17.88755
G1 X187.594 Y91.337 E17.92606
G1 X187.873 Y92.222 E17.96464
G1 X188.075 Y93.127 E18.00319
G1 X188.198 Y94.046 E18.04174
G1 X188.237 Y94.708 E18.06931
G1 X188.246 Y95.028 E18.08262
G1 X188.25 Y95.33 E18.09518
G1 X188.249 Y114.397 E18.88789
G1 X188.24 Y115.124 E18.91812
G1 X188.189 Y116.05 E18.95667
G1 X188.058 Y116.968 E18.99523
G1 X187.848 Y117.871 E19.03377
G1 X187.561 Y118.752 E19.07229
G1 X187.2 Y119.606 E19.11084
G1 X186.766 Y120.426 E19.14941
G1 X186.263 Y121.205 E19.18796
G1 X185.695 Y121.937 E19.22649
G1 X185.066 Y122.618 E19.26503
G1 X184.381 Y123.243 E19.30358
G1 X183.644 Y123.806 E19.34214
G1 X182.862 Y124.303 E19.38066
G1 X182.039 Y124.731 E19.41923
G1 X181.183 Y125.087 E19.45777
G1 X180.3 Y125.368 E19.49629
G1 X179.395 Y125.571 E19.53485
G1 X178.476 Y125.696 E19.57341
G1 X177.792 Y125.737 E19.6019
G1 X177.471 Y125.746 E19.61525
G1 X177.17 Y125.75 E19.62777
G1 X78.068 Y125.749 E23.74795
G1 X77.37 Y125.74 E23.77697
G1 X76.445 Y125.688 E23.81549
G1 X75.527 Y125.557 E23.85404
G1 X74.624 Y125.347 E23.89259
G1 X73.742 Y125.06 E23.93115
G1 X72.889 Y124.697 E23.96969
G1 X72.07 Y124.263 E24.00823
G1 X71.291 Y123.76 E24.04678
G1 X70.558 Y123.192 E24.08533
G1 X69.878 Y122.562 E24.12387
G1 X69.254 Y121.877 E24.16239
G1 X68.691 Y121.14 E24.20095
G1 X68.194 Y120.357 E24.23951
G1 X67.766 Y119.534 E24.27808
G1 X67.411 Y118.678 E24.3166
G1 X67.131 Y117.794 E24.35516
G1 X66.928 Y116.89 E24.39368
G1 X66.804 Y115.971 E24.43223
G1 X66.763 Y115.281 E24.46097
G1 X66.754 Y114.948 E24.47482
G1 X66.75 Y114.658 E24.48688
G1 X66.751 Y95.529 E25.28217
G1 X66.76 Y94.864 E25.30982
G1 X66.812 Y93.938 E25.34838
G1 X66.945 Y93.02 E25.38694
G1 X67.155 Y92.117 E25.42548
G1 X67.443 Y91.236 E25.46402
G1 X67.805 Y90.383 E25.50254
G1 X68.24 Y89.564 E25.5411
G1 X68.744 Y88.785 E25.57967
G1 X69.313 Y88.053 E25.61822
G1 X69.943 Y87.373 E25.65676
G1 X70.629 Y86.749 E25.69531
G0 F9000 X71.114 Y86.999
G1 F1800 X71.846 Y86.466 E25.73296
G1 X72.622 Y85.999 E25.77061
G1 X73.436 Y85.603 E25.80825
G1 X74.281 Y85.28 E25.84586
G1 X75.153 Y85.034 E25.88353
G1 X76.042 Y84.865 E25.92115
G1 X77.222 Y84.763 E25.97039
G1 X77.543 Y84.754 E25.98374
G1 X77.83 Y84.75 E25.99568
G1 X176.793 Y84.75 E30.11008
G1 X177.638 Y84.761 E30.14521
G1 X178.542 Y84.814 E30.18286
G1 X179.437 Y84.946 E30.22047
G1 X180.318 Y85.157 E30.25814
G1 X181.176 Y85.445 E30.29576
G1 X182.006 Y85.808 E30.33343
G1 X182.8 Y86.242 E30.37105
G1 X183.553 Y86.745 E30.4087
G1 X184.259 Y87.312 E30.44634
G1 X184.911 Y87.939 E30.48395
G1 X185.506 Y88.621 E30.52158
G1 X186.039 Y89.353 E30.55922
G1 X186.505 Y90.13 E30.59689
G1 X186.9 Y90.944 E30.63451
G1 X187.222 Y91.79 E30.67214
G1 X187.468 Y92.661 E30.70977
G1 X187.637 Y93.551 E30.74743
G1 X187.737 Y94.722 E30.7963
G1 X187.746 Y95.042 E30.80961
G1 X187.75 Y95.33 E30.82158
G1 X187.749 Y114.391 E31.61404
G1 X187.74 Y115.118 E31.64427
G1 X187.689 Y116.022 E31.68192
G1 X187.558 Y116.918 E31.71956
G1 X187.349 Y117.798 E31.75717
G1 X187.063 Y118.657 E31.79481
G1 X186.702 Y119.488 E31.83248
G1 X186.269 Y120.283 E31.87011
G1 X185.768 Y121.037 E31.90775
G1 X185.202 Y121.744 E31.9454
G1 X184.577 Y122.398 E31.98301
G1 X183.895 Y122.994 E32.02067
G1 X183.164 Y123.528 E32.0583
G1 X182.389 Y123.995 E32.09592
G1 X181.575 Y124.392 E32.13358
G1 X180.73 Y124.716 E32.1712
G1 X179.859 Y124.964 E32.20885
G1 X178.97 Y125.134 E32.24648
G1 X177.778 Y125.237 E32.29622
G1 X177.457 Y125.246 E32.30957
G1 X177.17 Y125.25 E32.32151
G1 X78.075 Y125.249 E36.4414
G1 X77.377 Y125.24 E36.47042
G1 X76.473 Y125.189 E36.50806
G1 X75.577 Y125.057 E36.54572
G1 X74.697 Y124.848 E36.58332
G1 X73.838 Y124.561 E36.62098
G1 X73.008 Y124.2 E36.65861
G1 X72.213 Y123.767 E36.69624
G1 X71.459 Y123.265 E36.7339
G1 X70.753 Y122.699 E36.77152
G1 X70.099 Y122.073 E36.80916
G1 X69.503 Y121.391 E36.84682
G1 X68.969 Y120.66 E36.88445
G1 X68.502 Y119.884 E36.92211
G1 X68.106 Y119.07 E36.95974
G1 X67.782 Y118.225 E36.99737
G1 X67.535 Y117.354 E37.03501
G1 X67.365 Y116.465 E37.07264
G1 X67.263 Y115.268 E37.12258
G1 X67.254 Y114.935 E37.13643
G1 X67.25 Y114.658 E37.14795
G1 X67.251 Y95.535 E37.94299
G1 X67.26 Y94.87 E37.97064
G1 X67.312 Y93.966 E38.00829
G1 X67.444 Y93.071 E38.0459
G1 X67.654 Y92.19 E38.08355
G1 X67.941 Y91.332 E38.12117
G1 X68.303 Y90.502 E38.15881
G1 X68.737 Y89.707 E38.19647
G1 X69.239 Y88.954 E38.2341
G1 X69.805 Y88.248 E38.27172
G1 X70.432 Y87.594 E38.30938
G1 X71.114 Y86.999 E38.34701
G1 F1500 E31.84701
;MESH:lamp_holder.stl
G0 F9000 X83.88 Y104.146
G0 X81.867 Y103.094
G0 X82.643 Y105.703
G0 X82.785 Y106.079
G0 X84.112 Y108.657
;TYPE:WALL-INNER
G1 F1500 E38.34701
G1 F1800 X85.031 Y108.882 E38.37848
G1 X85.969 Y108.882 E38.40968
G1 X86.888 Y108.657 E38.44115
G1 X87.722 Y108.219 E38.47248
G1 X88.428 Y107.593 E38.50386
G1 X88.963 Y106.817 E38.53521
G1 X89.296 Y105.934 E38.5666
G1 X89.41 Y105 E38.5979
G1 X89.296 Y104.066 E38.62919
G1 X88.963 Y103.183 E38.66058
G1 X88.428 Y102.407 E38.69193
G1 X87.722 Y101.781 E38.72331
G1 X86.888 Y101.343 E38.75464
G1 X85.969 Y101.118 E38.78611
G1 X85.031 Y101.118 E38.81731
G1 X84.112 Y101.343 E38.84878
G1 X83.278 Y101.781 E38.88011
G1 X82.572 Y102.407 E38.91149
G1 X82.037 Y103.183 E38.94284
G1 X81.704 Y104.066 E38.97423
G1 X81.59 Y105 E39.00553
G1 X81.704 Y105.934 E39.03682
G1 X82.037 Y106.817 E39.06821
G1 X82.572 Y107.593 E39.09956
G1 X83.278 Y108.219 E39.13094
G1 X84.112 Y108.657 E39.16227
G0 F9000 X84.255 Y108.28
G1 F1800 X85.079 Y108.482 E39.19049
G1 X85.921 Y108.482 E39.2185
G1 X86.745 Y108.28 E39.24671
G1 X87.493 Y107.887 E39.27482
G1 X88.126 Y107.326 E39.30295
G1 X88.606 Y106.63 E39.33107
G1 X88.905 Y105.838 E39.35923
G1 X89.007 Y105 E39.3873
G1 X88.905 Y104.162 E39.41538
G1 X88.606 Y103.37 E39.44354
G1 X88.126 Y102.674 E39.47166
G1 X87.493 Y102.113 E39.49979
G1 X86.745 Y101.72 E39.52789
G1 X85.921 Y101.518 E39.55611
G1 X85.079 Y101.518 E39.58412
G1 X84.255 Y101.72 E39.61234
G1 X83.507 Y102.113 E39.64044
G1 X82.874 Y102.674 E39.66857
G1 X82.394 Y103.37 E39.69669
G1 X82.095 Y104.162 E39.72485
G1 X81.993 Y105 E39.75293
G1 X82.095 Y105.838 E39.781
G1 X82.394 Y106.63 E39.80916
G1 X82.874 Y107.326 E39.83728
G1 X83.507 Y107.887 E39.86541
G1 X84.255 Y108.28 E39.89352
G0 F9000 X84.398 Y107.903
G1 F1800 X85.127 Y108.082 E39.91848
G1 X85.873 Y108.082 E39.94329
G1 X86.602 Y107.903 E39.96826
G1 X87.264 Y107.555 E39.99314
G1 X87.824 Y107.059 E40.01802
G1 X88.249 Y106.443 E40.04291
G1 X88.514 Y105.742 E40.06783
G1 X88.604 Y105 E40.09269
G1 X88.514 Y104.258 E40.11755
G1 X88.249 Y103.557 E40.14248
G1 X87.824 Y102.941 E40.16737
G1 X87.264 Y102.445 E40.19225
G1 X86.602 Y102.097 E40.21713
G1 X85.873 Y101.918 E40.24209
G1 X85.127 Y101.918 E40.26691
G1 X84.398 Y102.097 E40.29187
G1 X83.736 Y102.445 E40.31675
G1 X83.176 Y102.941 E40.34163
G1 X82.751 Y103.557 E40.36652
G1 X82.486 Y104.258 E40.39145
G1 X82.396 Y105 E40.41631
G1 X82.486 Y105.742 E40.44117
G1 X82.751 Y106.443 E40.46609
G1 X83.176 Y107.059 E40.49098
G1 X83.736 Y107.555 E40.51587
G1 X84.398 Y107.903 E40.54074
G0 F9000 X84.541 Y107.526
;TYPE:WALL-OUTER
G1 F1800 X85.175 Y107.682 E40.56246
G1 X85.825 Y107.682 E40.58408
G1 X86.459 Y107.526 E40.60579
G1 X87.035 Y107.223 E40.62744
G1 X87.522 Y106.792 E40.64907
G1 X87.892 Y106.256 E40.67073
G1 X88.123 Y105.646 E40.69243
G1 X88.201 Y105 E40.71407
G1 X88.123 Y104.354 E40.73571
G1 X87.892 Y103.744 E40.7574
G1 X87.522 Y103.208 E40.77907
G1 X87.035 Y102.777 E40.8007
G1 X86.459 Y102.474 E40.82234
G1 X85.825 Y102.318 E40.84406
G1 X85.175 Y102.318 E40.86568
G1 X84.541 Y102.474 E40.88739
G1 X83.965 Y102.777 E40.90904
G1 X83.478 Y103.208 E40.93067
G1 X83.108 Y103.744 E40.95233
G1 X82.877 Y104.354 E40.97403
G1 X82.799 Y105 E40.99567
G1 X82.877 Y105.646 E41.01731
G1 X83.108 Y106.256 E41.03901
G1 X83.478 Y106.792 E41.06067
G1 X83.965 Y107.223 E41.0823
G1 X84.541 Y107.526 E41.10395
G0 F9000 X84.385 Y107.937
G1 F1500 E34.60395
G0 F9000 X85.853 Y107.921
G0 X89.133 Y106.906
G0 X87.12 Y105.854
G0 X170.128 Y106.214
G0 X168.428 Y107.72
G0 X170.112 Y108.657
;TYPE:WALL-INNER
G1 F1500 E41.10395
G1 F1800 X171.031 Y108.882 E41.13542
G1 X171.969 Y108.882 E41.16661
G1 X172.888 Y108.657 E41.19808
G1 X173.722 Y108.219 E41.22941
G1 X174.428 Y107.593 E41.2608
G1 X174.963 Y106.817 E41.29215
G1 X175.296 Y105.934 E41.32353
G1 X175.41 Y105 E41.35483
G1 X175.296 Y104.066 E41.38613
G1 X174.963 Y103.183 E41.41751
G1 X174.428 Y102.407 E41.44886
G1 X173.722 Y101.781 E41.48025
G1 X172.888 Y101.343 E41.51158
G1 X171.969 Y101.118 E41.54305
G1 X171.031 Y101.118 E41.57424
G1 X170.112 Y101.343 E41.60571
G1 X169.278 Y101.781 E41.63704
G1 X168.572 Y102.407 E41.66843
G1 X168.037 Y103.183 E41.69978
G1 X167.704 Y104.066 E41.73116
G1 X167.59 Y105 E41.76246
G1 X167.704 Y105.934 E41.79376
G1 X168.037 Y106.817 E41.82514
G1 X168.572 Y107.593 E41.85649
G1 X169.278 Y108.219 E41.88788
G1 X170.112 Y108.657 E41.91921
G0 F9000 X170.255 Y108.28
G1 F1800 X171.079 Y108.482 E41.94743
G1 X171.921 Y108.482 E41.97543
G1 X172.745 Y108.28 E42.00365
G1 X173.493 Y107.887 E42.03175
G1 X174.126 Y107.326 E42.05988
G1 X174.606 Y106.63 E42.088
G1 X174.905 Y105.838 E42.11616
G1 X175.007 Y105 E42.14424
G1 X174.905 Y104.162 E42.17232
G1 X174.606 Y103.37 E42.20047
G1 X174.126 Y102.674 E42.22859
G1 X173.493 Y102.113 E42.25673
G1 X172.745 Y101.72 E42.28483
G1 X171.921 Y101.518 E42.31305
G1 X171.079 Y101.518 E42.34105
G1 X170.255 Y101.72 E42.36927
G1 X169.507 Y102.113 E42.39737
G1 X168.874 Y102.674 E42.4255
G1 X168.394 Y103.37 E42.45363
G1 X168.095 Y104.162 E42.48178
G1 X167.993 Y105 E42.50986
G1 X168.095 Y105.838 E42.53794
G1 X168.394 Y106.63 E42.56609
G1 X168.874 Y107.326 E42.59421
G1 X169.507 Y107.887 E42.62235
G1 X170.255 Y108.28 E42.65045
G0 F9000 X170.398 Y107.903
G1 F1800 X171.127 Y108.082 E42.67542
G1 X171.873 Y108.082 E42.70023
G1 X172.602 Y107.903 E42.7252
G1 X173.264 Y107.555 E42.75007
G1 X173.824 Y107.059 E42.77495
G1 X174.249 Y106.443 E42.79984
G1 X174.514 Y105.742 E42.82477
G1 X174.604 Y105 E42.84963
G1 X174.514 Y104.258 E42.87449
G1 X174.249 Y103.557 E42.89941
G1 X173.824 Y102.941 E42.92431
G1 X173.264 Y102.445 E42.94919
G1 X172.602 Y102.097 E42.97406
G1 X171.873 Y101.918 E42.99903
G1 X171.127 Y101.918 E43.02384
G1 X170.398 Y102.097 E43.04881
G1 X169.736 Y102.445 E43.07368
G1 X169.176 Y102.941 E43.09856
G1 X168.751 Y103.557 E43.12346
G1 X168.486 Y104.258 E43.14838
G1 X168.396 Y105 E43.17324
G1 X168.486 Y105.742 E43.1981
G1 X168.751 Y106.443 E43.22303
G1 X169.176 Y107.059 E43.24792
G1 X169.736 Y107.555 E43.2728
G1 X170.398 Y107.903 E43.29767
G0 F9000 X170.541 Y107.526
;TYPE:WALL-OUTER
G1 F1800 X171.175 Y107.682 E43.31939
G1 X171.825 Y107.682 E43.34101
G1 X172.459 Y107.526 E43.36273
G1 X173.035 Y107.223 E43.38437
G1 X173.522 Y106.792 E43.406
G1 X173.892 Y106.256 E43.42766
G1 X174.123 Y105.646 E43.44936
G1 X174.201 Y105 E43.471
G1 X174.123 Y104.354 E43.49264
G1 X173.892 Y103.744 E43.51434
G1 X173.522 Y103.208 E43.536
G1 X173.035 Y102.777 E43.55763
G1 X172.459 Y102.474 E43.57928
G1 X171.825 Y102.318 E43.60099
G1 X171.175 Y102.318 E43.62261
G1 X170.541 Y102.474 E43.64433
G1 X169.965 Y102.777 E43.66598
G1 X169.478 Y103.208 E43.68761
G1 X169.108 Y103.744 E43.70927
G1 X168.877 Y104.354 E43.73096
G1 X168.799 Y105 E43.7526
G1 X168.877 Y105.646 E43.77425
G1 X169.108 Y106.256 E43.79594
G1 X169.478 Y106.792 E43.8176
G1 X169.965 Y107.223 E43.83923
G1 X170.541 Y107.526 E43.86088
G0 F9000 X170.385 Y107.937
G1 F1500 E37.36088
G0 F9000 X172.956 Y108.837
G0 X175.89 Y108.837
G0 X176.1 Y113.6
;TYPE:WALL-INNER
G1 F1500 E43.86088
G1 F1800 X78.9 Y113.6 E47.09377
G1 X78.9 Y96.4 E47.66584
G1 X176.1 Y96.4 E50.89873
G1 X176.1 Y113.6 E51.4708
G0 F9000 X176.5 Y114
G1 F1800 X78.5 Y114 E54.73029
G1 X78.5 Y96 E55.32898
G1 X176.5 Y96 E58.58847
G1 X176.5 Y114 E59.18715
G0 F9000 X176.9 Y114.4
G1 F1800 X78.1 Y114.4 E62.47325
G1 X78.1 Y95.6 E63.09854
G1 X176.9 Y95.6 E66.38464
G1 X176.9 Y114.4 E67.00993
G0 F9000 X177.3 Y114.8
;TYPE:WALL-OUTER
G1 F1800 X77.7 Y114.8 E70.32264
G1 X77.7 Y95.2 E70.97454
G1 X177.3 Y95.2 E74.28725
G1 X177.3 Y114.8 E74.93915
G0 F9000 X177.03 Y114.53
