;FLAVOR:Marlin
;TIME:5950
;Filament used: 2.5924m
;Layer height: 0.2
;MINX:103.25
;MINY:80.75
;MINZ:0.2
;MAXX:151.75
;MAXY:129.25
;MAXZ:33
;Generated with Cura_SteamEngine master
M140 S50
M105
M190 S50
M104 S190
M105
M109 S190
M82 ;absolute extrusion mode
M220 S100 ;reset feedrate
M221 S100 ;reset flowrate
G90 ;use absolute coordinates
M82 ;absolute extrusion mode
G28 ;home
G1 Z2 F1500 ;raise z
G92 E0 ;reset extruder

G1 X75 Y5 F5000 ;start position
G1 Z0.28 F1500 ;lower z
G1 E4 F500 ;prime the filament
G1 X180 E10 F500 ;1st line
G1 Y5.4 F5000
G1 X75 E20 F500 ;2nd line
G1 Z2 F1500 ;raise z
G92 E0 ;reset extruder
G92 E0
G92 E0
G1 F1500 E-6.5
;LAYER_COUNT:165
;LAYER:0
M107
G0 F6000 X105.52 Y98.637 Z0.2
;TYPE:SKIRT
G1 F1500 E0
G1 F600 X105.637 Y98.52 E0.00688
G1 X106.221 Y97.992 E0.03961
G1 X106.856 Y97.527 E0.07233
G1 X107.534 Y97.128 E0.10504
G1 X108.25 Y96.8 E0.13778
G1 X108.995 Y96.546 E0.17051
G1 X109.762 Y96.369 E0.20323
G1 X110.543 Y96.271 E0.23596
G1 X111.117 Y96.25 E0.25984
G1 X118.75 Y96.25 E0.57718
G1 X118.75 Y88.617 E0.89452
G1 X118.79 Y87.831 E0.92724
G1 X118.909 Y87.053 E0.95997
G1 X119.107 Y86.291 E0.9927
G1 X119.381 Y85.553 E1.02543
G1 X119.729 Y84.847 E1.05815
G1 X120.146 Y84.179 E1.09089
G1 X120.629 Y83.558 E1.1236
G1 X121.02 Y83.137 E1.14749
G1 X121.137 Y83.02 E1.15437
G1 X121.721 Y82.492 E1.1871
G1 X122.356 Y82.027 E1.21982
G1 X123.034 Y81.628 E1.25253
G1 X123.75 Y81.3 E1.28527
G1 X124.495 Y81.046 E1.31799
G1 X125.262 Y80.869 E1.35072
G1 X126.043 Y80.771 E1.38344
G1 X126.617 Y80.75 E1.40732
G1 X128.383 Y80.75 E1.48075
G1 X129.169 Y80.79 E1.51347
G1 X129.947 Y80.909 E1.54619
G1 X130.709 Y81.107 E1.57892
G1 X131.447 Y81.381 E1.61165
G1 X132.153 Y81.729 E1.64437
G1 X132.821 Y82.146 E1.67711
G1 X133.442 Y82.629 E1.70982
G1 X133.863 Y83.02 E1.73371
G1 X133.98 Y83.137 E1.74059
G1 X134.508 Y83.721 E1.77332
G1 X134.973 Y84.356 E1.80604
G1 X135.372 Y85.034 E1.83875
G1 X135.7 Y85.75 E1.87149
G1 X135.954 Y86.495 E1.90422
G1 X136.131 Y87.262 E1.93694
G1 X136.229 Y88.043 E1.96967
G1 X136.25 Y88.617 E1.99355
G1 X136.25 Y96.25 E2.31089
G1 X143.883 Y96.25 E2.62823
G1 X144.669 Y96.29 E2.66095
G1 X145.447 Y96.409 E2.69368
G1 X146.209 Y96.607 E2.72641
G1 X146.947 Y96.881 E2.75914
G1 X147.653 Y97.229 E2.79186
G1 X148.321 Y97.646 E2.8246
G1 X148.942 Y98.129 E2.85731
G1 X149.363 Y98.52 E2.8812
G1 X149.48 Y98.637 E2.88807
G1 X150.008 Y99.221 E2.92081
G1 X150.473 Y99.856 E2.95353
G1 X150.872 Y100.534 E2.98624
G1 X151.2 Y101.25 E3.01898
G1 X151.454 Y101.995 E3.0517
G1 X151.631 Y102.762 E3.08443
G1 X151.729 Y103.543 E3.11715
G1 X151.75 Y104.117 E3.14103
G1 X151.75 Y105.883 E3.21446
G1 X151.71 Y106.669 E3.24718
G1 X151.591 Y107.447 E3.2799
G1 X151.393 Y108.209 E3.31263
G1 X151.119 Y108.947 E3.34536
G1 X150.771 Y109.653 E3.37808
G1 X150.354 Y110.321 E3.41082
G1 X149.871 Y110.942 E3.44353
G1 X149.48 Y111.363 E3.46742
G1 X149.363 Y111.48 E3.4743
G1 X148.779 Y112.008 E3.50703
G1 X148.144 Y112.473 E3.53975
G1 X147.466 Y112.872 E3.57246
G1 X146.75 Y113.2 E3.6052
G1 X146.005 Y113.454 E3.63792
G1 X145.238 Y113.631 E3.67065
G1 X144.457 Y113.729 E3.70338
G1 X143.883 Y113.75 E3.72726
G1 X136.25 Y113.75 E4.0446
G1 X136.25 Y121.383 E4.36194
G1 X136.21 Y122.169 E4.39466
G1 X136.091 Y122.947 E4.42738
G1 X135.893 Y123.709 E4.46012
G1 X135.619 Y124.447 E4.49285
G1 X135.271 Y125.153 E4.52557
G1 X134.854 Y125.821 E4.55831
G1 X134.371 Y126.442 E4.59102
G1 X133.98 Y126.863 E4.6149
G1 X133.863 Y126.98 E4.62178
G1 X133.279 Y127.508 E4.65452
G1 X132.644 Y127.973 E4.68724
G1 X131.966 Y128.372 E4.71994
G1 X131.25 Y128.7 E4.75269
G1 X130.505 Y128.954 E4.78541
G1 X129.738 Y129.131 E4.81814
G1 X128.957 Y129.229 E4.85086
G1 X128.383 Y129.25 E4.87474
G1 X126.617 Y129.25 E4.94816
G1 X125.831 Y129.21 E4.98088
G1 X125.053 Y129.091 E5.01361
G1 X124.291 Y128.893 E5.04634
G1 X123.553 Y128.619 E5.07907
G1 X122.847 Y128.271 E5.11179
G1 X122.179 Y127.854 E5.14453
G1 X121.558 Y127.371 E5.17724
G1 X121.137 Y126.98 E5.20113
G1 X121.02 Y126.863 E5.20801
G1 X120.492 Y126.279 E5.24074
G1 X120.027 Y125.644 E5.27346
G1 X119.628 Y124.966 E5.30617
G1 X119.3 Y124.25 E5.33891
G1 X119.046 Y123.505 E5.37163
G1 X118.869 Y122.738 E5.40436
G1 X118.771 Y121.957 E5.43708
G1 X118.75 Y121.389 E5.46072
G1 X118.744 Y113.75 E5.77831
G1 X111.117 Y113.75 E6.0954
G1 X110.331 Y113.71 E6.12812
G1 X109.553 Y113.591 E6.16084
G1 X108.791 Y113.393 E6.19358
G1 X108.053 Y113.119 E6.22631
G1 X107.347 Y112.771 E6.25903
G1 X106.679 Y112.354 E6.29177
G1 X106.058 Y111.871 E6.32448
G1 X105.637 Y111.48 E6.34836
G1 X105.52 Y111.363 E6.35524
G1 X104.992 Y110.779 E6.38798
G1 X104.527 Y110.144 E6.4207
G1 X104.128 Y109.466 E6.4534
G1 X103.8 Y108.75 E6.48615
G1 X103.546 Y108.005 E6.51887
G1 X103.369 Y107.238 E6.5516
G1 X103.271 Y106.457 E6.58432
G1 X103.25 Y105.883 E6.6082
G1 X103.25 Y104.117 E6.68162
G1 X103.29 Y103.331 E6.71434
G1 X103.409 Y102.553 E6.74707
G1 X103.607 Y101.791 E6.7798
G1 X103.881 Y101.053 E6.81253
G1 X104.229 Y100.347 E6.84525
G1 X104.646 Y99.679 E6.87799
G1 X105.129 Y99.058 E6.9107
G1 X105.52 Y98.637 E6.93459
G0 F6000 X105.873 Y98.99
G1 F600 X105.99 Y98.873 E6.94147
G1 X106.556 Y98.364 E6.97311
G1 X107.172 Y97.917 E7.00476
G1 X107.832 Y97.537 E7.03642
G1 X108.528 Y97.228 E7.06808
G1 X109.252 Y96.994 E7.09971
G1 X109.997 Y96.837 E7.13137
G1 X111.117 Y96.75 E7.17807
G1 X119.177 Y96.75 E7.51317
G1 X119.25 Y96.647 E7.51841
G1 X119.25 Y88.617 E7.85226
G1 X119.29 Y87.857 E7.8839
G1 X119.409 Y87.105 E7.91556
G1 X119.607 Y86.37 E7.9472
G1 X119.881 Y85.659 E7.97888
G1 X120.227 Y84.981 E8.01053
G1 X120.643 Y84.344 E8.04216
G1 X121.373 Y83.49 E8.08887
G1 X121.49 Y83.373 E8.09575
G1 X122.056 Y82.864 E8.1274
G1 X122.672 Y82.417 E8.15904
G1 X123.332 Y82.037 E8.1907
G1 X124.028 Y81.728 E8.22236
G1 X124.752 Y81.494 E8.25399
G1 X125.497 Y81.337 E8.28565
G1 X126.617 Y81.25 E8.33235
G1 X128.383 Y81.25 E8.40577
G1 X129.143 Y81.29 E8.43742
G1 X129.895 Y81.409 E8.46907
G1 X130.63 Y81.607 E8.50072
G1 X131.341 Y81.881 E8.5324
G1 X132.019 Y82.227 E8.56404
G1 X132.656 Y82.643 E8.59567
G1 X133.51 Y83.373 E8.64238
G1 X133.627 Y83.49 E8.64926
G1 X134.136 Y84.056 E8.68091
G1 X134.583 Y84.672 E8.71255
G1 X134.963 Y85.332 E8.74421
G1 X135.272 Y86.028 E8.77587
G1 X135.506 Y86.752 E8.80751
G1 X135.663 Y87.497 E8.83916
G1 X135.75 Y88.617 E8.88586
G1 X135.75 Y96.674 E9.22084
G1 X135.799 Y96.75 E9.2246
G1 X143.883 Y96.75 E9.56069
G1 X144.643 Y96.79 E9.59233
G1 X145.395 Y96.909 E9.62398
G1 X146.13 Y97.107 E9.65563
G1 X146.841 Y97.381 E9.68731
G1 X147.519 Y97.727 E9.71896
G1 X148.156 Y98.143 E9.75059
G1 X149.01 Y98.873 E9.7973
G1 X149.127 Y98.99 E9.80417
G1 X149.636 Y99.556 E9.83582
G1 X150.083 Y100.172 E9.86746
G1 X150.463 Y100.832 E9.89913
G1 X150.772 Y101.528 E9.93079
G1 X151.006 Y102.252 E9.96242
G1 X151.163 Y102.997 E9.99407
G1 X151.25 Y104.117 E10.04078
G1 X151.25 Y105.883 E10.1142
G1 X151.21 Y106.643 E10.14584
G1 X151.091 Y107.395 E10.1775
G1 X150.893 Y108.13 E10.20914
G1 X150.619 Y108.841 E10.24082
G1 X150.273 Y109.519 E10.27247
G1 X149.857 Y110.156 E10.3041
G1 X149.127 Y111.01 E10.35081
G1 X149.01 Y111.127 E10.35769
G1 X148.444 Y111.636 E10.38933
G1 X147.828 Y112.083 E10.42098
G1 X147.168 Y112.463 E10.45264
G1 X146.472 Y112.772 E10.4843
G1 X145.748 Y113.006 E10.51593
G1 X145.003 Y113.163 E10.54759
G1 X143.883 Y113.25 E10.59429
G1 X135.803 Y113.25 E10.93022
G1 X135.75 Y113.338 E10.93449
G1 X135.75 Y121.383 E11.26896
G1 X135.71 Y122.143 E11.3006
G1 X135.591 Y122.895 E11.33226
G1 X135.393 Y123.63 E11.3639
G1 X135.119 Y124.341 E11.39558
G1 X134.773 Y125.019 E11.42723
G1 X134.357 Y125.656 E11.45886
G1 X133.627 Y126.51 E11.50557
G1 X133.51 Y126.627 E11.51245
G1 X132.944 Y127.136 E11.54409
G1 X132.328 Y127.583 E11.57574
G1 X131.668 Y127.963 E11.6074
G1 X130.972 Y128.272 E11.63906
G1 X130.248 Y128.506 E11.67069
G1 X129.503 Y128.663 E11.70235
G1 X128.383 Y128.75 E11.74905
G1 X126.617 Y128.75 E11.82247
G1 X125.857 Y128.71 E11.85411
G1 X125.105 Y128.591 E11.88577
G1 X124.37 Y128.393 E11.91741
G1 X123.659 Y128.119 E11.94909
G1 X122.981 Y127.773 E11.98074
G1 X122.344 Y127.357 E12.01237
G1 X121.49 Y126.627 E12.05908
G1 X121.373 Y126.51 E12.06596
G1 X120.864 Y125.944 E12.09761
G1 X120.417 Y125.328 E12.12925
G1 X120.037 Y124.668 E12.16091
G1 X119.728 Y123.972 E12.19257
G1 X119.494 Y123.248 E12.2242
G1 X119.337 Y122.503 E12.25586
G1 X119.25 Y121.388 E12.30236
G1 X119.244 Y113.326 E12.63754
G1 X119.17 Y113.25 E12.64195
G1 X111.117 Y113.25 E12.97675
G1 X110.357 Y113.21 E13.00839
G1 X109.605 Y113.091 E13.04004
G1 X108.87 Y112.893 E13.07169
G1 X108.159 Y112.619 E13.10337
G1 X107.481 Y112.273 E13.13502
G1 X106.844 Y111.857 E13.16665
G1 X105.99 Y111.127 E13.21336
G1 X105.873 Y111.01 E13.22024
G1 X105.364 Y110.444 E13.25188
G1 X104.917 Y109.828 E13.28353
G1 X104.537 Y109.168 E13.31519
G1 X104.228 Y108.472 E13.34685
G1 X103.994 Y107.748 E13.37848
G1 X103.837 Y107.003 E13.41014
G1 X103.75 Y105.883 E13.45684
G1 X103.75 Y104.117 E13.53026
G1 X103.79 Y103.357 E13.5619
G1 X103.909 Y102.605 E13.59356
G1 X104.107 Y101.87 E13.6252
G1 X104.381 Y101.159 E13.65688
G1 X104.727 Y100.481 E13.68853
G1 X105.143 Y99.844 E13.72016
G1 X105.873 Y98.99 E13.76687
G0 F6000 X106.227 Y99.344
G1 F600 X106.344 Y99.227 E13.77375
G1 X106.891 Y98.737 E13.80428
G1 X107.488 Y98.309 E13.83482
G1 X108.128 Y97.948 E13.86537
G1 X108.803 Y97.659 E13.8959
G1 X109.506 Y97.445 E13.92645
G1 X110.228 Y97.309 E13.95699
G1 X111.117 Y97.25 E13.99403
G1 X119.329 Y97.25 E14.33545
G1 X119.556 Y97.1 E14.34676
G1 X119.75 Y96.801 E14.36158
G1 X119.75 Y88.617 E14.70183
G1 X119.79 Y87.884 E14.73235
G1 X119.909 Y87.159 E14.7629
G1 X120.107 Y86.451 E14.79346
G1 X120.38 Y85.769 E14.824
G1 X120.726 Y85.121 E14.85454
G1 X121.14 Y84.514 E14.88509
G1 X121.727 Y83.844 E14.92212
G1 X121.844 Y83.727 E14.929
G1 X122.391 Y83.237 E14.95953
G1 X122.988 Y82.809 E14.99007
G1 X123.628 Y82.448 E15.02062
G1 X124.303 Y82.159 E15.05115
G1 X125.006 Y81.945 E15.0817
G1 X125.728 Y81.809 E15.11225
G1 X126.617 Y81.75 E15.14929
G1 X128.383 Y81.75 E15.22271
G1 X129.116 Y81.79 E15.25323
G1 X129.841 Y81.909 E15.28378
G1 X130.549 Y82.107 E15.31434
G1 X131.231 Y82.38 E15.34488
G1 X131.879 Y82.726 E15.37542
G1 X132.486 Y83.14 E15.40597
G1 X133.156 Y83.727 E15.443
G1 X133.273 Y83.844 E15.44988
G1 X133.763 Y84.391 E15.48041
G1 X134.191 Y84.988 E15.51095
G1 X134.552 Y85.628 E15.5415
G1 X134.841 Y86.303 E15.57203
G1 X135.055 Y87.006 E15.60258
G1 X135.191 Y87.728 E15.63313
G1 X135.25 Y88.617 E15.67017
G1 X135.25 Y96.816 E16.01104
G1 X135.446 Y97.129 E16.0264
G1 X135.635 Y97.25 E16.03573
G1 X143.883 Y97.25 E16.37864
G1 X144.616 Y97.29 E16.40916
G1 X145.341 Y97.409 E16.43971
G1 X146.049 Y97.607 E16.47027
G1 X146.731 Y97.88 E16.50081
G1 X147.379 Y98.226 E16.53135
G1 X147.986 Y98.64 E16.5619
G1 X148.656 Y99.227 E16.59893
G1 X148.773 Y99.344 E16.60581
G1 X149.263 Y99.891 E16.63634
G1 X149.691 Y100.488 E16.66688
G1 X150.052 Y101.128 E16.69743
G1 X150.341 Y101.803 E16.72796
G1 X150.555 Y102.506 E16.75851
G1 X150.691 Y103.228 E16.78906
G1 X150.75 Y104.117 E16.8261
G1 X150.75 Y105.883 E16.89952
G1 X150.71 Y106.616 E16.93004
G1 X150.591 Y107.341 E16.96059
G1 X150.393 Y108.049 E16.99115
G1 X150.12 Y108.731 E17.02169
G1 X149.774 Y109.379 E17.05223
G1 X149.36 Y109.986 E17.08278
G1 X148.773 Y110.656 E17.11981
G1 X148.656 Y110.773 E17.12669
G1 X148.109 Y111.263 E17.15722
G1 X147.512 Y111.691 E17.18776
G1 X146.872 Y112.052 E17.21831
G1 X146.197 Y112.341 E17.24884
G1 X145.494 Y112.555 E17.27939
G1 X144.772 Y112.691 E17.30994
G1 X143.883 Y112.75 E17.34698
G1 X135.646 Y112.75 E17.68943
G1 X135.446 Y112.878 E17.69931
G1 X135.25 Y113.186 E17.71448
G1 X135.25 Y121.383 E18.05528
G1 X135.21 Y122.116 E18.0858
G1 X135.091 Y122.841 E18.11634
G1 X134.893 Y123.549 E18.14691
G1 X134.62 Y124.231 E18.17745
G1 X134.274 Y124.879 E18.20799
G1 X133.86 Y125.486 E18.23853
G1 X133.273 Y126.156 E18.27557
G1 X133.156 Y126.273 E18.28245
G1 X132.609 Y126.763 E18.31298
G1 X132.012 Y127.191 E18.34352
G1 X131.372 Y127.552 E18.37407
G1 X130.697 Y127.841 E18.4046
G1 X129.994 Y128.055 E18.43515
G1 X129.272 Y128.191 E18.46569
G1 X128.383 Y128.25 E18.50273
G1 X126.617 Y128.25 E18.57616
G1 X125.884 Y128.21 E18.60668
G1 X125.159 Y128.091 E18.63722
G1 X124.451 Y127.893 E18.66779
G1 X123.769 Y127.62 E18.69833
G1 X123.121 Y127.274 E18.72887
G1 X122.514 Y126.86 E18.75941
G1 X121.844 Y126.273 E18.79645
G1 X121.727 Y126.156 E18.80333
G1 X121.237 Y125.609 E18.83386
G1 X120.809 Y125.012 E18.8644
G1 X120.448 Y124.372 E18.89495
G1 X120.159 Y123.697 E18.92548
G1 X119.945 Y122.994 E18.95603
G1 X119.809 Y122.272 E18.98657
G1 X119.75 Y121.388 E19.02341
G1 X119.744 Y113.184 E19.36449
G1 X119.575 Y112.915 E19.3777
G1 X119.318 Y112.75 E19.39039
G1 X111.117 Y112.75 E19.73135
G1 X110.384 Y112.71 E19.76187
G1 X109.659 Y112.591 E19.79242
G1 X108.951 Y112.393 E19.82298
G1 X108.269 Y112.12 E19.85352
G1 X107.621 Y111.774 E19.88406
G1 X107.014 Y111.36 E19.91461
G1 X106.344 Y110.773 E19.95165
G1 X106.227 Y110.656 E19.95852
G1 X105.737 Y110.109 E19.98906
G1 X105.309 Y109.512 E20.0196
G1 X104.948 Y108.872 E20.05015
G1 X104.659 Y108.197 E20.08067
G1 X104.445 Y107.494 E20.11122
G1 X104.309 Y106.772 E20.14177
G1 X104.25 Y105.883 E20.17881
G1 X104.25 Y104.117 E20.25223
G1 X104.29 Y103.384 E20.28275
G1 X104.409 Y102.659 E20.3133
G1 X104.607 Y101.951 E20.34386
G1 X104.88 Y101.269 E20.3744
G1 X105.226 Y100.621 E20.40494
G1 X105.64 Y100.014 E20.43549
G1 X106.227 Y99.344 E20.47253
G0 F6000 X106.581 Y99.698
G1 F600 X106.698 Y99.581 E20.4794
G1 X107.225 Y99.11 E20.50879
G1 X107.802 Y98.702 E20.53817
G1 X108.421 Y98.361 E20.56755
G1 X109.075 Y98.093 E20.59694
G1 X109.755 Y97.9 E20.62632
G1 X110.453 Y97.785 E20.65574
G1 X111.117 Y97.75 E20.68338
G1 X119.472 Y97.75 E21.03074
G1 X119.921 Y97.461 E21.05294
G1 X119.988 Y97.338 E21.05876
G1 X120.25 Y96.962 E21.07782
G1 X120.25 Y88.617 E21.42476
G1 X120.29 Y87.911 E21.45416
G1 X120.409 Y87.215 E21.48352
G1 X120.607 Y86.536 E21.51292
G1 X120.879 Y85.884 E21.54229
G1 X121.224 Y85.267 E21.57168
G1 X121.636 Y84.692 E21.60109
G1 X122.081 Y84.198 E21.62873
G1 X122.198 Y84.081 E21.63561
G1 X122.725 Y83.61 E21.665
G1 X123.302 Y83.202 E21.69438
G1 X123.921 Y82.861 E21.72376
G1 X124.575 Y82.593 E21.75314
G1 X125.255 Y82.4 E21.78253
G1 X125.953 Y82.285 E21.81194
G1 X126.617 Y82.25 E21.83959
G1 X128.383 Y82.25 E21.91301
G1 X129.089 Y82.29 E21.94241
G1 X129.785 Y82.409 E21.97176
G1 X130.464 Y82.607 E22.00117
G1 X131.116 Y82.879 E22.03054
G1 X131.733 Y83.224 E22.05993
G1 X132.308 Y83.636 E22.08934
G1 X132.802 Y84.081 E22.11698
G1 X132.919 Y84.198 E22.12386
G1 X133.39 Y84.725 E22.15325
G1 X133.798 Y85.302 E22.18263
G1 X134.139 Y85.921 E22.21201
G1 X134.407 Y86.575 E22.24139
G1 X134.6 Y87.255 E22.27078
G1 X134.715 Y87.953 E22.30019
G1 X134.75 Y88.617 E22.32784
G1 X134.75 Y96.977 E22.6754
G1 X134.847 Y97.104 E22.68205
G1 X135.078 Y97.489 E22.70071
G1 X135.147 Y97.526 E22.70397
G1 X135.471 Y97.75 E22.72035
G1 X143.883 Y97.75 E23.07008
G1 X144.589 Y97.79 E23.09948
G1 X145.285 Y97.909 E23.12883
G1 X145.964 Y98.107 E23.15824
G1 X146.616 Y98.379 E23.18761
G1 X147.233 Y98.724 E23.217
G1 X147.808 Y99.136 E23.24641
G1 X148.302 Y99.581 E23.27405
G1 X148.419 Y99.698 E23.28093
G1 X148.89 Y100.225 E23.31031
G1 X149.298 Y100.802 E23.33969
G1 X149.639 Y101.421 E23.36908
G1 X149.907 Y102.075 E23.39846
G1 X150.1 Y102.755 E23.42785
G1 X150.215 Y103.453 E23.45726
G1 X150.25 Y104.117 E23.4849
G1 X150.25 Y105.883 E23.55832
G1 X150.21 Y106.589 E23.58772
G1 X150.091 Y107.285 E23.61708
G1 X149.893 Y107.964 E23.64649
G1 X149.621 Y108.616 E23.67586
G1 X149.276 Y109.233 E23.70525
G1 X148.864 Y109.808 E23.73466
G1 X148.419 Y110.302 E23.7623
G1 X148.302 Y110.419 E23.76918
G1 X147.775 Y110.89 E23.79856
G1 X147.198 Y111.298 E23.82794
G1 X146.579 Y111.639 E23.85732
G1 X145.925 Y111.907 E23.88671
G1 X145.245 Y112.1 E23.9161
G1 X144.547 Y112.215 E23.94551
G1 X143.883 Y112.25 E23.97315
G1 X135.503 Y112.25 E24.32155
G1 X135.483 Y112.266 E24.32262
G1 X135.081 Y112.517 E24.34232
G1 X135.004 Y112.659 E24.34904
G1 X134.75 Y113.024 E24.36752
G1 X134.75 Y121.383 E24.71505
G1 X134.71 Y122.089 E24.74445
