;FLAVOR:Marlin
;TIME:5574
;Filament used: 2.35508m
;Layer height: 0.2
;MINX:99.75
;MINY:77.25
;MINZ:0.2
;MAXX:155.25
;MAXY:132.75
;MAXZ:33
;Generated with Cura_SteamEngine master
M140 S50
M105
M190 S50
M104 S190
M105
M109 S190
M82 ;absolute extrusion mode
M220 S100 ;reset feedrate
M221 S100 ;reset flowrate
G90 ;use absolute coordinates
M82 ;absolute extrusion mode
G28 ;home
G1 Z2 F1500 ;raise z
G92 E0 ;reset extruder

G1 X75 Y5 F5000 ;start position
G1 Z0.28 F1500 ;lower z
G1 E4 F500 ;prime the filament
G1 X180 E10 F500 ;1st line
G1 Y5.4 F5000
G1 X75 E20 F500 ;2nd line
G1 Z2 F1500 ;raise z
G92 E0 ;reset extruder
G92 E0
G92 E0
G1 F1500 E-6.5
;LAYER_COUNT:165
;LAYER:0
M107
G0 F6000 X103.055 Y96.167 Z0.2
;TYPE:SKIRT
G1 F1500 E0
G1 F600 X103.169 Y96.053 E0.0067
G1 X103.988 Y95.311 E0.05265
G1 X104.701 Y94.726 E0.09099
G1 X106.682 Y93.055 E0.19874
G1 X108.584 Y91.357 E0.30474
G1 X110.376 Y89.663 E0.40727
G1 X112.174 Y87.865 E0.51298
G1 X113.876 Y86.064 E0.616
G1 X115.564 Y84.17 E0.72148
G1 X117.176 Y82.258 E0.82546
G1 X117.416 Y81.962 E0.8413
G1 X117.85 Y81.44 E0.86952
G1 X118.513 Y80.71 E0.91052
G1 X118.634 Y80.588 E0.91766
G1 X119.33 Y79.943 E0.95712
G1 X120.078 Y79.359 E0.99657
G1 X120.872 Y78.841 E1.03598
G1 X121.707 Y78.391 E1.07542
G1 X122.576 Y78.013 E1.11482
G1 X123.475 Y77.709 E1.15427
G1 X124.396 Y77.482 E1.19371
G1 X125.333 Y77.334 E1.23315
G1 X126.242 Y77.266 E1.27105
G1 X126.632 Y77.256 E1.28727
G1 X127.179 Y77.25 E1.31001
G1 X127.676 Y77.25 E1.33067
G1 X128.538 Y77.261 E1.36651
G1 X129.485 Y77.315 E1.40595
G1 X130.424 Y77.448 E1.44538
G1 X131.349 Y77.659 E1.48482
G1 X132.252 Y77.948 E1.52424
G1 X133.128 Y78.312 E1.56368
G1 X133.97 Y78.748 E1.6031
G1 X134.773 Y79.254 E1.64256
G1 X135.53 Y79.826 E1.68201
G1 X136.297 Y80.519 E1.72498
G1 X136.409 Y80.63 E1.73154
G1 X137.191 Y81.489 E1.77983
G1 X137.8 Y82.232 E1.81978
G1 X139.447 Y84.184 E1.92596
G1 X141.138 Y86.078 E2.03152
G1 X142.837 Y87.875 E2.13434
G1 X144.635 Y89.673 E2.24005
G1 X146.439 Y91.377 E2.34322
G1 X148.319 Y93.054 E2.44796
G1 X150.266 Y94.696 E2.55385
G1 X150.522 Y94.903 E2.56754
G1 X151.049 Y95.34 E2.596
G1 X151.855 Y96.078 E2.64144
G1 X151.977 Y96.201 E2.64864
G1 X152.616 Y96.902 E2.68807
G1 X153.194 Y97.654 E2.72751
G1 X153.706 Y98.452 E2.76693
G1 X154.149 Y99.291 E2.80637
G1 X154.52 Y100.164 E2.84581
G1 X154.816 Y101.065 E2.88524
G1 X155.035 Y101.988 E2.92468
G1 X155.176 Y102.925 E2.96407
G1 X155.234 Y103.743 E2.99816
G1 X155.244 Y104.119 E3.0138
G1 X155.25 Y104.642 E3.03555
G1 X155.249 Y105.305 E3.06311
G1 X155.239 Y106.033 E3.09338
G1 X155.186 Y106.98 E3.13281
G1 X155.053 Y107.919 E3.17224
G1 X154.842 Y108.843 E3.21165
G1 X154.554 Y109.747 E3.25109
G1 X154.19 Y110.623 E3.29053
G1 X153.754 Y111.465 E3.32995
G1 X153.249 Y112.268 E3.36939
G1 X152.678 Y113.025 E3.40881
G1 X151.945 Y113.833 E3.45417
G1 X151.831 Y113.947 E3.46087
G1 X151.012 Y114.689 E3.50682
G1 X150.299 Y115.274 E3.54516
G1 X148.318 Y116.945 E3.65291
G1 X146.416 Y118.643 E3.75891
G1 X144.624 Y120.337 E3.86143
G1 X142.826 Y122.135 E3.96715
G1 X141.124 Y123.936 E4.07017
G1 X139.436 Y125.83 E4.17565
G1 X137.832 Y127.732 E4.27909
G1 X137.589 Y128.032 E4.29514
G1 X137.151 Y128.559 E4.32363
G1 X136.552 Y129.223 E4.36081
G1 X136.433 Y129.345 E4.3679
G1 X135.743 Y129.996 E4.40734
G1 X135 Y130.586 E4.44678
G1 X134.211 Y131.111 E4.48618
G1 X133.38 Y131.568 E4.52561
G1 X132.513 Y131.953 E4.56505
G1 X131.617 Y132.264 E4.60448
G1 X130.698 Y132.499 E4.64392
G1 X129.762 Y132.655 E4.68337
G1 X128.755 Y132.734 E4.72536
G1 X128.368 Y132.744 E4.74146
G1 X127.821 Y132.75 E4.7642
G1 X127.164 Y132.749 E4.79152
G1 X126.462 Y132.739 E4.82071
G1 X125.515 Y132.685 E4.86014
G1 X124.576 Y132.552 E4.89957
G1 X123.651 Y132.341 E4.93902
G1 X122.748 Y132.052 E4.97843
G1 X121.872 Y131.688 E5.01787
G1 X121.03 Y131.252 E5.05729
G1 X120.227 Y130.746 E5.09675
G1 X119.47 Y130.174 E5.1362
G1 X118.667 Y129.445 E5.18129
G1 X118.553 Y129.331 E5.18799
G1 X117.811 Y128.512 E5.23394
G1 X117.226 Y127.799 E5.27228
G1 X115.555 Y125.818 E5.38003
G1 X113.857 Y123.916 E5.48603
G1 X112.163 Y122.124 E5.58856
G1 X110.365 Y120.326 E5.69427
G1 X108.564 Y118.624 E5.79729
G1 X106.67 Y116.936 E5.90277
G1 X104.758 Y115.324 E6.00675
G1 X104.467 Y115.088 E6.02232
G1 X103.939 Y114.649 E6.05087
G1 X103.209 Y113.986 E6.09187
G1 X103.088 Y113.866 E6.09896
G1 X102.443 Y113.17 E6.13841
G1 X101.86 Y112.423 E6.1778
G1 X101.341 Y111.629 E6.21724
G1 X100.891 Y110.794 E6.25667
G1 X100.513 Y109.924 E6.29611
G1 X100.209 Y109.025 E6.33557
G1 X99.982 Y108.104 E6.375
G1 X99.834 Y107.168 E6.4144
G1 X99.766 Y106.258 E6.45234
G1 X99.756 Y105.858 E6.46898
G1 X99.75 Y105.291 E6.49255
G1 X99.751 Y104.643 E6.51949
G1 X99.761 Y103.958 E6.54797
G1 X99.815 Y103.011 E6.58741
G1 X99.948 Y102.072 E6.62684
G1 X100.16 Y101.147 E6.66629
G1 X100.45 Y100.244 E6.70572
G1 X100.814 Y99.368 E6.74516
G1 X101.25 Y98.526 E6.78458
G1 X101.756 Y97.724 E6.82401
G1 X102.328 Y96.967 E6.86345
G1 X103.055 Y96.167 E6.9084
G0 F6000 X103.409 Y96.521
G1 F600 X103.523 Y96.407 E6.9151
G1 X104.305 Y95.697 E6.95901
G1 X105.085 Y95.057 E7.00096
G1 X107 Y93.441 E7.10514
G1 X108.906 Y91.739 E7.21137
G1 X110.755 Y89.992 E7.31713
G1 X112.502 Y88.244 E7.41988
G1 X114.26 Y86.384 E7.52628
G1 X115.93 Y84.511 E7.63061
G1 X117.594 Y82.538 E7.73792
G1 X117.801 Y82.281 E7.75164
G1 X118.235 Y81.759 E7.77986
G1 X118.868 Y81.062 E7.819
G1 X118.989 Y80.94 E7.82615
G1 X119.67 Y80.31 E7.86472
G1 X120.402 Y79.742 E7.90324
G1 X121.181 Y79.239 E7.94179
G1 X122 Y78.804 E7.98035
G1 X122.854 Y78.442 E8.01891
G1 X123.735 Y78.155 E8.05743
G1 X124.638 Y77.945 E8.09598
G1 X125.556 Y77.813 E8.13453
G1 X126.259 Y77.766 E8.16383
G1 X126.639 Y77.756 E8.17963
G1 X127.179 Y77.75 E8.20208
G1 X127.676 Y77.75 E8.22275
G1 X128.531 Y77.761 E8.25829
G1 X129.457 Y77.814 E8.29686
G1 X130.374 Y77.947 E8.33538
G1 X131.277 Y78.158 E8.37393
G1 X132.158 Y78.447 E8.41248
G1 X133.011 Y78.81 E8.45102
G1 X133.83 Y79.245 E8.48958
G1 X134.608 Y79.749 E8.52812
G1 X135.34 Y80.319 E8.56669
G1 X135.945 Y80.875 E8.60085
G1 X136.057 Y80.986 E8.60741
G1 X136.804 Y81.806 E8.65352
G1 X137.421 Y82.558 E8.69396
G1 X139.061 Y84.503 E8.79974
G1 X140.756 Y86.4 E8.9055
G1 X142.508 Y88.254 E9.01155
G1 X144.256 Y90.001 E9.1143
G1 X146.116 Y91.759 E9.2207
G1 X147.98 Y93.422 E9.32456
G1 X149.943 Y95.078 E9.43133
G1 X150.203 Y95.288 E9.44523
G1 X150.73 Y95.725 E9.47369
G1 X151.5 Y96.43 E9.5171
G1 X151.622 Y96.553 E9.5243
G1 X152.246 Y97.238 E9.56282
G1 X152.809 Y97.976 E9.60141
G1 X153.306 Y98.758 E9.63994
G1 X153.733 Y99.581 E9.67848
G1 X154.088 Y100.437 E9.71701
G1 X154.368 Y101.321 E9.75556
G1 X154.571 Y102.226 E9.79412
G1 X154.695 Y103.145 E9.83268
G1 X154.734 Y103.76 E9.8583
G1 X154.744 Y104.126 E9.87352
G1 X154.75 Y104.642 E9.89497
G1 X154.749 Y105.298 E9.92225
G1 X154.739 Y106.026 E9.95252
G1 X154.686 Y106.951 E9.99104
G1 X154.554 Y107.869 E10.0296
G1 X154.343 Y108.772 E10.06815
G1 X154.055 Y109.653 E10.10668
G1 X153.693 Y110.506 E10.14521
G1 X153.258 Y111.325 E10.18376
G1 X152.754 Y112.104 E10.22234
G1 X152.185 Y112.836 E10.26088
G1 X151.591 Y113.479 E10.29728
G1 X151.477 Y113.593 E10.30398
G1 X150.695 Y114.303 E10.34789
G1 X149.915 Y114.943 E10.38984
G1 X148 Y116.559 E10.49402
G1 X146.094 Y118.261 E10.60026
G1 X144.245 Y120.008 E10.70601
G1 X142.498 Y121.756 E10.80876
G1 X140.74 Y123.616 E10.91516
G1 X139.07 Y125.489 E11.01949
G1 X137.406 Y127.462 E11.1268
G1 X137.204 Y127.712 E11.14016
G1 X136.766 Y128.239 E11.16865
G1 X136.194 Y128.874 E11.20418
G1 X136.075 Y128.996 E11.21127
G1 X135.4 Y129.631 E11.2498
G1 X134.672 Y130.206 E11.28837
G1 X133.898 Y130.716 E11.3269
G1 X133.083 Y131.157 E11.36543
G1 X132.232 Y131.526 E11.40399
G1 X131.353 Y131.821 E11.44254
G1 X130.452 Y132.038 E11.48107
G1 X129.535 Y132.178 E11.51964
G1 X128.738 Y132.234 E11.55285
G1 X128.361 Y132.244 E11.56853
G1 X127.821 Y132.25 E11.59099
G1 X127.171 Y132.249 E11.61801
G1 X126.469 Y132.239 E11.6472
G1 X125.543 Y132.186 E11.68576
G1 X124.626 Y132.053 E11.72428
G1 X123.723 Y131.842 E11.76284
G1 X122.842 Y131.553 E11.80138
G1 X121.989 Y131.19 E11.83993
G1 X121.17 Y130.755 E11.87848
G1 X120.392 Y130.251 E11.91702
G1 X119.66 Y129.681 E11.95559
G1 X119.021 Y129.091 E11.99175
G1 X118.907 Y128.977 E11.99845
G1 X118.197 Y128.195 E12.04237
G1 X117.557 Y127.415 E12.08431
G1 X115.941 Y125.5 E12.18849
G1 X114.239 Y123.594 E12.29473
G1 X112.492 Y121.745 E12.40049
G1 X110.744 Y119.998 E12.50323
G1 X108.884 Y118.24 E12.60964
G1 X107.011 Y116.57 E12.71397
G1 X105.038 Y114.906 E12.82127
G1 X104.786 Y114.703 E12.83472
G1 X104.258 Y114.264 E12.86327
G1 X103.561 Y113.631 E12.90242
G1 X103.44 Y113.511 E12.9095
G1 X102.811 Y112.83 E12.94804
G1 X102.242 Y112.098 E12.98659
G1 X101.739 Y111.319 E13.02514
G1 X101.304 Y110.5 E13.0637
G1 X100.942 Y109.647 E13.10222
G1 X100.655 Y108.765 E13.14078
G1 X100.445 Y107.862 E13.17933
G1 X100.313 Y106.944 E13.21789
G1 X100.266 Y106.241 E13.24718
G1 X100.256 Y105.852 E13.26336
G1 X100.25 Y105.291 E13.28668
G1 X100.251 Y104.65 E13.31333
G1 X100.261 Y103.965 E13.34181
G1 X100.315 Y103.039 E13.38038
G1 X100.448 Y102.122 E13.4189
G1 X100.659 Y101.219 E13.45746
G1 X100.948 Y100.338 E13.496
G1 X101.311 Y99.485 E13.53454
G1 X101.747 Y98.667 E13.57308
G1 X102.251 Y97.889 E13.61162
G1 X102.821 Y97.157 E13.65019
G1 X103.409 Y96.521 E13.6862
G0 F6000 X103.762 Y96.874
G1 F600 X103.876 Y96.76 E13.69291
G1 X104.622 Y96.084 E13.73476
G1 X105.354 Y95.484 E13.77411
G1 X107.339 Y93.809 E13.88209
G1 X109.247 Y92.106 E13.98842
G1 X111.081 Y90.372 E14.09335
G1 X112.882 Y88.57 E14.19928
G1 X114.626 Y86.725 E14.30483
G1 X116.298 Y84.85 E14.40927
G1 X117.976 Y82.86 E14.51749
G1 X118.185 Y82.601 E14.53133
G1 X118.619 Y82.079 E14.55955
G1 X119.223 Y81.414 E14.5969
G1 X119.344 Y81.292 E14.60405
G1 X120.01 Y80.678 E14.64171
G1 X120.727 Y80.125 E14.67935
G1 X121.489 Y79.638 E14.71695
G1 X122.292 Y79.219 E14.75461
G1 X123.129 Y78.874 E14.79225
G1 X123.993 Y78.603 E14.82989
G1 X124.877 Y78.41 E14.86751
G1 X125.775 Y78.295 E14.90515
G1 X126.276 Y78.266 E14.92601
G1 X126.645 Y78.256 E14.94136
G1 X127.179 Y78.25 E14.96356
G1 X127.676 Y78.25 E14.98423
G1 X128.524 Y78.261 E15.01949
G1 X129.428 Y78.314 E15.05713
G1 X130.323 Y78.446 E15.09475
G1 X131.204 Y78.657 E15.13241
G1 X132.062 Y78.945 E15.17004
G1 X132.892 Y79.307 E15.20768
G1 X133.686 Y79.742 E15.24532
G1 X134.439 Y80.244 E15.28295
G1 X135.145 Y80.811 E15.3206
G1 X135.593 Y81.23 E15.3461
G1 X135.705 Y81.341 E15.35265
G1 X136.417 Y82.123 E15.39662
G1 X137.007 Y82.843 E15.43532
G1 X138.693 Y84.841 E15.54401
G1 X140.39 Y86.741 E15.64993
G1 X142.128 Y88.58 E15.75513
G1 X143.93 Y90.381 E15.86105
G1 X145.775 Y92.125 E15.9666
G1 X147.659 Y93.805 E16.07154
G1 X149.62 Y95.46 E16.17823
G1 X149.884 Y95.673 E16.19233
G1 X150.411 Y96.11 E16.22079
G1 X151.145 Y96.782 E16.26217
G1 X151.267 Y96.905 E16.26937
G1 X151.876 Y97.575 E16.30701
G1 X152.423 Y98.296 E16.34464
G1 X152.904 Y99.063 E16.38228
G1 X153.316 Y99.87 E16.41995
G1 X153.655 Y100.709 E16.45757
G1 X153.918 Y101.575 E16.4952
G1 X154.104 Y102.461 E16.53284
G1 X154.234 Y103.777 E16.58782
G1 X154.244 Y104.133 E16.60262
G1 X154.25 Y104.642 E16.62379
G1 X154.249 Y105.291 E16.65077
G1 X154.239 Y106.019 E16.68104
G1 X154.187 Y106.923 E16.71868
G1 X154.055 Y107.818 E16.7563
G1 X153.844 Y108.699 E16.79396
G1 X153.557 Y109.557 E16.83157
G1 X153.195 Y110.387 E16.86922
G1 X152.761 Y111.182 E16.90688
G1 X152.259 Y111.935 E16.9445
G1 X151.692 Y112.641 E16.98215
G1 X151.238 Y113.126 E17.00977
G1 X151.124 Y113.24 E17.01647
G1 X150.378 Y113.916 E17.05833
G1 X149.646 Y114.516 E17.09768
G1 X147.661 Y116.191 E17.20566
G1 X145.753 Y117.894 E17.31199
G1 X143.919 Y119.628 E17.41692
G1 X142.118 Y121.43 E17.52284
G1 X140.374 Y123.275 E17.62839
G1 X138.702 Y125.15 E17.73284
G1 X137.024 Y127.14 E17.84106
G1 X136.82 Y127.393 E17.85457
G1 X136.382 Y127.92 E17.88306
G1 X135.836 Y128.525 E17.91694
G1 X135.717 Y128.647 E17.92403
G1 X135.057 Y129.267 E17.96168
G1 X134.345 Y129.825 E17.99929
G1 X133.586 Y130.319 E18.03694
G1 X132.787 Y130.744 E18.07456
G1 X131.953 Y131.097 E18.11221
G1 X131.092 Y131.375 E18.14983
G1 X130.209 Y131.576 E18.18748
G1 X129.312 Y131.698 E18.22512
G1 X128.721 Y131.734 E18.24973
G1 X128.355 Y131.744 E18.26495
G1 X127.821 Y131.75 E18.28716
G1 X127.178 Y131.749 E18.31389
G1 X126.476 Y131.739 E18.34308
G1 X125.572 Y131.686 E18.38073
G1 X124.677 Y131.554 E18.41834
G1 X123.796 Y131.343 E18.456
G1 X122.938 Y131.055 E18.49363
G1 X122.108 Y130.693 E18.53128
G1 X121.314 Y130.258 E18.56892
G1 X120.561 Y129.756 E18.60654
G1 X119.855 Y129.189 E18.64419
G1 X119.374 Y128.738 E18.6716
G1 X119.26 Y128.624 E18.6783
G1 X118.584 Y127.878 E18.72016
G1 X117.984 Y127.146 E18.75951
G1 X116.309 Y125.161 E18.86749
G1 X114.606 Y123.253 E18.97382
G1 X112.872 Y121.419 E19.07875
G1 X111.07 Y119.618 E19.18467
G1 X109.225 Y117.874 E19.29023
G1 X107.35 Y116.202 E19.39467
G1 X105.36 Y114.524 E19.50289
G1 X105.106 Y114.319 E19.51646
G1 X104.578 Y113.88 E19.54501
G1 X103.913 Y113.276 E19.58236
G1 X103.792 Y113.156 E19.58945
G1 X103.178 Y112.491 E19.62708
G1 X102.625 Y111.774 E19.66472
G1 X102.138 Y111.011 E19.70235
G1 X101.72 Y110.208 E19.73999
G1 X101.374 Y109.371 E19.77765
G1 X101.103 Y108.507 E19.81529
G1 X100.91 Y107.623 E19.85291
G1 X100.795 Y106.725 E19.89055
G1 X100.766 Y106.224 E19.91141
G1 X100.756 Y105.847 E19.92709
G1 X100.75 Y105.291 E19.95021
G1 X100.751 Y104.657 E19.97657
G1 X100.761 Y103.972 E20.00505
G1 X100.814 Y103.069 E20.04266
G1 X100.947 Y102.173 E20.08032
G1 X101.158 Y101.293 E20.11794
G1 X101.446 Y100.434 E20.15561
G1 X101.809 Y99.605 E20.19323
G1 X102.243 Y98.811 E20.23085
G1 X102.746 Y98.058 E20.2685
G1 X103.314 Y97.352 E20.30617
G1 X103.762 Y96.874 E20.33341
G0 F6000 X127.25 Y89.25
G1 F600 X127.75 Y89.25 E20.3542
G1 X127.75 Y99.612 E20.785
G1 X127.25 Y99.612 E20.80579
G1 X127.25 Y89.25 E21.23659
G0 F6000 X126.75 Y88.75
G1 F600 X128.25 Y88.75 E21.29895
G1 X128.25 Y99.714 E21.75478
G1 X128.284 Y99.839 E21.76017
G1 X128.484 Y100.184 E21.77675
G1 X128.503 Y100.203 E21.77786
G1 X127.877 Y100.114 E21.80415
G1 X127.842 Y100.112 E21.80561
G1 X127.09 Y100.112 E21.83687
G1 X127.055 Y100.114 E21.83833
G1 X126.529 Y100.189 E21.86042
G1 X126.714 Y99.88 E21.87539
G1 X126.75 Y99.751 E21.88096
G1 X126.75 Y88.75 E22.33833
G0 F6000 X122.691 Y104.095
G1 F600 X122.615 Y104.628 E22.36071
G1 X122.612 Y104.663 E22.36217
G1 X122.612 Y105.382 E22.39207
G1 X122.614 Y105.416 E22.39348
G1 X122.679 Y105.881 E22.413
G1 X122.409 Y105.75 E22.42548
G1 X111.25 Y105.75 E22.88942
G1 X111.25 Y104.25 E22.95178
G1 X122.382 Y104.25 E23.4146
G1 X122.691 Y104.095 E23.42897
G0 F6000 X122.112 Y104.75
G1 F600 X122.112 Y105.25 E23.44976
G1 X111.75 Y105.25 E23.88056
G1 X111.75 Y104.75 E23.90134
G1 X122.112 Y104.75 E24.33215
G0 F6000 X126.49 Y109.796
G1 F600 X127.124 Y109.886 E24.35877
G1 X127.159 Y109.888 E24.36023
G1 X127.889 Y109.888 E24.39058
G1 X127.924 Y109.886 E24.39203
G1 X128.427 Y109.815 E24.41315
G1 X128.289 Y110.03 E24.42378
G1 X128.25 Y110.165 E24.42962
G1 X128.25 Y121.25 E24.89048
G1 X126.75 Y121.25 E24.95284
G1 X126.742 Y110.285 E25.40871
G1 X126.708 Y110.16 E25.4141
G1 X126.508 Y109.814 E25.43071
G1 X126.49 Y109.796 E25.43177
G0 F6000 X127.242 Y110.388
G1 F600 X127.75 Y110.388 E25.45289
G1 X127.75 Y120.75 E25.88369
G1 X127.25 Y120.75 E25.90448
G1 X127.242 Y110.388 E26.33528
G0 F6000 X132.889 Y104.75
G1 F600 X143.25 Y104.75 E26.76604
G1 X143.25 Y105.25 E26.78683
G1 X132.892 Y105.25 E27.21747
G1 X132.901 Y105.016 E27.2272
G1 X132.889 Y104.75 E27.23827
G0 F6000 X132.335 Y104.169
G1 F600 X132.529 Y104.25 E27.24701
G1 X143.75 Y104.25 E27.71353
G1 X143.75 Y105.75 E27.77589
G1 X132.768 Y105.75 E28.23247
G1 X132.641 Y105.785 E28.23795
G1 X132.308 Y105.982 E28.25403
G1 X132.359 Y105.618 E28.26931
G1 X132.387 Y105.338 E28.28101
G1 X132.402 Y105.039 E28.29346
G1 X132.38 Y104.579 E28.31261
G1 X132.352 Y104.283 E28.32497
G1 X132.335 Y104.169 E28.32976
G1 F1500 E21.82976
;MESH:soplo_v3.stl
G0 F6000 X130.095 Y105.598
G0 X129.414 Y105.513
G0 X128.104 Y106.591
;TYPE:WALL-OUTER
G1 F1500 E28.32976
G1 F600 X128.466 Y106.4 E28.34337
